; generated by PrusaSlicer 2.4.2+x64 on 2023-01-23 at 23:02:19 UTC


;
;
; 

; external perimeters extrusion width = 0.65mm
; perimeters extrusion width = 0.65mm
; infill extrusion width = 0.65mm
; solid infill extrusion width = 0.65mm
; top infill extrusion width = 0.60mm
; support material extrusion width = 0.55mm
; first layer extrusion width = 0.65mm

M73 P0 R168
M73 Q0 S169
M201 X1000 Y1000 Z200 E5000 ; sets maximum accelerations, mm/sec^2
M203 X200 Y200 Z12 E120 ; sets maximum feedrates, mm / sec
M204 P1250 R1250 T1250 ; sets acceleration (P, T) and retract acceleration (R), mm/sec^2
M205 X8.00 Y8.00 Z0.40 E4.50 ; sets the jerk limits, mm/sec
M205 S0 T0 ; sets the minimum extruding and travel feed rate, mm/sec
M107
;TYPE:Custom
M862.3 P "MK3S" ; printer model check
M862.1 P0.6 ; nozzle diameter check
M115 U3.11.0 ; tell printer latest fw version
G90 ; use absolute coordinates
M83 ; extruder relative mode
M104 S215 ; set extruder temp
M140 S70 ; set bed temp
M190 S70 ; wait for bed temp
M109 S215 ; wait for extruder temp
G28 W ; home all without mesh bed level
G80 ; mesh bed leveling

G1 Z0.2 F720
G1 Y-3 F1000 ; go outside print area
G92 E0
G1 X60 E9 F1000 ; intro line
G1 X100 E12.5 F1000 ; intro line

G92 E0
M221 S95
G21 ; set units to millimeters
G90 ; use absolute coordinates
M83 ; use relative distances for extrusion
M900 K0.04 ; Filament gcode LA 1.5
M900 K18 ; Filament gcode LA 1.0
M107
;LAYER_CHANGE
;Z:0.2
;HEIGHT:0.2
;BEFORE_LAYER_CHANGE
G92 E0.0
;0.2


G1 E-.8 F2100
G1 Z.4 F720
;AFTER_LAYER_CHANGE
;0.2
G1 X94.476 Y79.162 F10800
G1 Z.2 F720
G1 E.8 F1500
M204 S800
;TYPE:Skirt/Brim
;WIDTH:0.65
G1 F1200
G1 X95.228 Y78.264 E.05911
G1 X97.605 Y75.832 E.17169
G1 X100.028 Y73.736 E.16171
G1 X102.278 Y72.063 E.14153
G1 X104.812 Y70.455 E.15151
G1 X107.64 Y68.95 E.16171
G1 X110.67 Y67.643 E.16659
G1 X113.706 Y66.618 E.16171
G1 X116.421 Y65.921 E.14153
G1 X119.376 Y65.39 E.15151
G1 X122.563 Y65.067 E.16171
G1 X125.862 Y65.003 E.16659
G1 X129.06 Y65.202 E.16171
G1 X131.837 Y65.584 E.14153
G1 X134.773 Y66.21 E.15151
G1 X137.846 Y67.116 E.16171
G1 X140.925 Y68.304 E.16659
G1 X143.809 Y69.698 E.16171
G1 X146.403 Y71.207 E.15151
G1 X148.717 Y72.792 E.14153
G1 X151.219 Y74.792 E.16171
G1 X153.619 Y77.057 E.16659
G1 X155.762 Y79.439 E.16171
G1 X157.593 Y81.817 E.15151
G1 X159.135 Y84.158 E.14153
G1 X160.695 Y86.957 E.16171
G1 X162.061 Y89.961 E.16659
G1 X163.143 Y92.976 E.16171
G1 X163.939 Y95.87 E.15151
G1 X164.481 Y98.621 E.14154
G1 X164.882 Y101.998 E.17169
G1 X164.993 Y105.2 E.16171
G1 X164.857 Y108.299 E.15661
G1 X164.53 Y111.084 E.14153
G1 X163.961 Y114.031 E.15151
G1 X163.114 Y117.121 E.16171
G1 X161.986 Y120.222 E.16659
G1 X160.648 Y123.133 E.16171
G1 X159.189 Y125.756 E.15151
G1 X157.65 Y128.1 E.14153
G1 X155.571 Y130.792 E.17169
G1 X153.037 Y133.506 E.18746
G1 X151.219 Y135.208 E.12571
G1 X149.037 Y136.969 E.14153
G1 X146.236 Y138.898 E.17169
G1 X143.455 Y140.488 E.16171
G1 X140.925 Y141.696 E.14153
G1 X138.128 Y142.786 E.15151
G1 X134.871 Y143.767 E.17169
G1 X131.738 Y144.432 E.16171
G1 X128.959 Y144.809 E.14153
G1 X126.474 Y144.964 E.12571
G1 X122.861 Y144.949 E.18235
G1 X119.476 Y144.625 E.17169
G1 X116.323 Y144.056 E.16171
G1 X113.608 Y143.355 E.14153
G1 X110.765 Y142.392 E.15151
G1 X107.819 Y141.136 E.16171
G1 X104.899 Y139.598 E.16659
G1 X102.196 Y137.878 E.16171
G1 X99.948 Y136.202 E.14153
G1 X97.68 Y134.236 E.15151
G1 X95.427 Y131.958 E.16171
G1 X93.306 Y129.43 E.16659
G1 X91.454 Y126.816 E.16171
G1 X89.912 Y124.241 E.15151
G1 X88.652 Y121.737 E.14153
G1 X87.427 Y118.776 E.16171
G1 X86.42 Y115.633 E.16659
G1 X85.694 Y112.513 E.16171
G1 X85.24 Y109.546 E.15151
G1 X85.021 Y106.751 E.14153
G1 X85.007 Y103.548 E.16171
G1 X85.263 Y100.257 E.16659
G1 X85.771 Y97.094 E.16171
G1 X86.42 Y94.367 E.14153
G1 X87.327 Y91.505 E.15151
G1 X88.526 Y88.535 E.16171
G1 X90.007 Y85.586 E.16659
G1 X91.756 Y82.735 E.16884
G1 X93.427 Y80.414 E.14437
G1 X94.418 Y79.231 E.07788
M204 S1000
;WIPE_START
G1 F8640
G1 X95.228 Y78.264 E-.29118
G1 X96.647 Y76.812 E-.46882
;WIPE_END
G1 E-.04 F2100
G1 Z.6 F720
G1 X96.763 Y81.194 F10800
G1 Z.2 F720
G1 E.8 F1500
M204 S800
G1 F1200
G1 X97.621 Y80.169 E.06747
G1 X99.698 Y78.057 E.14954
G1 X101.787 Y76.238 E.1398
G1 X104.009 Y74.58 E.13994
G1 X106.428 Y73.046 E.14458
G1 X109.045 Y71.663 E.14943
G1 X111.769 Y70.493 E.14963
G1 X114.485 Y69.571 E.1448
G1 X117.163 Y68.885 E.13957
G1 X119.889 Y68.401 E.13976
G1 X122.841 Y68.11 E.14973
G1 X125.805 Y68.056 E.14964
G1 X128.664 Y68.231 E.1446
G1 X131.407 Y68.609 E.13976
G1 X134.114 Y69.192 E.13977
G1 X136.949 Y70.037 E.14932
G1 X139.713 Y71.108 E.14963
G1 X142.297 Y72.352 E.14479
G1 X144.69 Y73.738 E.13957
G1 X146.975 Y75.301 E.13976
G1 X149.284 Y77.157 E.14953
G1 X151.439 Y79.196 E.14973
G1 X153.296 Y81.249 E.13976
G1 X154.993 Y83.432 E.13959
G1 X156.624 Y85.905 E.14954
G1 X158.054 Y88.504 E.14974
G1 X159.195 Y91.023 E.13958
G1 X160.146 Y93.623 E.13977
G1 X160.944 Y96.476 E.14954
G1 X161.512 Y99.39 E.14984
G1 X161.837 Y102.235 E.14456
G1 X161.941 Y104.997 E.13953
G1 X161.837 Y107.765 E.13979
G1 X161.497 Y110.708 E.14957
G1 X160.921 Y113.62 E.14984
G1 X160.146 Y116.377 E.14457
G1 X159.195 Y118.977 E.13973
G1 X158.054 Y121.496 E.13959
G1 X156.624 Y124.095 E.14975
G1 X154.992 Y126.57 E.14965
G1 X153.231 Y128.829 E.1446
G1 X151.37 Y130.874 E.13956
G1 X149.359 Y132.777 E.13976
G1 X147.053 Y134.642 E.14972
G1 X144.609 Y136.313 E.14944
G1 X142.121 Y137.741 E.14481
G1 X139.625 Y138.93 E.13957
G1 X137.04 Y139.932 E.13996
G1 X134.203 Y140.785 E.14952
G1 X131.309 Y141.408 E.14943
G1 X128.663 Y141.77 E.13482
G1 X125.606 Y141.948 E.15457
G1 X122.936 Y141.896 E.13482
G1 X119.985 Y141.613 E.14963
G1 X117.068 Y141.094 E.14953
G1 X114.388 Y140.4 E.13976
G1 X111.771 Y139.508 E.13958
G1 X109.094 Y138.36 E.14704
G1 X106.488 Y136.988 E.14864
G1 X104.006 Y135.418 E.14827
G1 X101.787 Y133.762 E.13976
G1 X99.701 Y131.946 E.1396
G1 X97.609 Y129.818 E.15066
G1 X95.809 Y127.674 E.14127
G1 X94.169 Y125.39 E.14197
G1 X92.68 Y122.937 E.14483
G1 X91.359 Y120.316 E.14816
G1 X90.254 Y117.613 E.14741
G1 X89.363 Y114.819 E.14806
G1 X88.728 Y112.123 E.13977
G1 X88.296 Y109.388 E.13978
G1 X88.064 Y106.46 E.1483
G1 X88.065 Y103.519 E.14846
G1 X88.274 Y100.808 E.13722
G1 X88.567 Y98.881 E.09839
G1 X88.747 Y97.781 E.05625
G1 X89.363 Y95.184 E.13477
G1 X90.263 Y92.364 E.1494
G1 X91.379 Y89.639 E.14863
G1 X92.681 Y87.061 E.14582
G1 X94.115 Y84.692 E.13977
G1 X95.723 Y82.437 E.13978
G1 X96.706 Y81.263 E.07731
M204 S1000
G1 X97.171 Y81.653 F10800
M204 S800
G1 F1200
G1 X98.079 Y80.568 E.0714
G1 X100.106 Y78.507 E.14593
G1 X102.177 Y76.704 E.13863
G1 X104.362 Y75.073 E.13763
G1 X106.743 Y73.566 E.14222
G1 X109.318 Y72.206 E.14701
G1 X111.975 Y71.064 E.146
G1 X114.647 Y70.156 E.14243
G1 X117.303 Y69.476 E.1384
G1 X119.984 Y69 E.13743
G1 X122.888 Y68.715 E.14734
G1 X125.78 Y68.663 E.146
G1 X128.593 Y68.834 E.14224
G1 X131.313 Y69.209 E.13859
G1 X133.974 Y69.783 E.13745
G1 X136.764 Y70.615 E.14693
G1 X139.46 Y71.66 E.146
G1 X142.003 Y72.883 E.14243
G1 X144.376 Y74.257 E.1384
G1 X146.623 Y75.795 E.13744
G1 X148.893 Y77.623 E.14714
G1 X150.996 Y79.612 E.14612
G1 X152.839 Y81.647 E.13859
G1 X154.506 Y83.795 E.13726
G1 X156.111 Y86.229 E.14715
G1 X157.506 Y88.765 E.14614
G1 X158.629 Y91.242 E.13726
G1 X159.572 Y93.821 E.13859
G1 X160.356 Y96.628 E.14714
G1 X160.91 Y99.471 E.1462
G1 X161.231 Y102.27 E.14221
G1 X161.333 Y104.986 E.13722
G1 X161.231 Y107.73 E.13862
G1 X160.895 Y110.626 E.14716
G1 X160.333 Y113.467 E.1462
G1 X159.571 Y116.18 E.14222
G1 X158.638 Y118.737 E.13742
G1 X157.506 Y121.235 E.13842
G1 X156.111 Y123.771 E.14613
G1 X154.506 Y126.206 E.14722
G1 X152.774 Y128.429 E.14223
G1 X150.929 Y130.457 E.1384
G1 X148.951 Y132.327 E.13744
G1 X146.7 Y134.148 E.14611
G1 X144.297 Y135.792 E.14702
G1 X141.85 Y137.198 E.14244
G1 X139.374 Y138.377 E.1384
G1 X136.832 Y139.362 E.13764
G1 X134.063 Y140.194 E.14592
G1 X131.216 Y140.808 E.14706
G1 X128.592 Y141.167 E.13367
G1 X125.607 Y141.34 E.15095
G1 X122.959 Y141.289 E.13367
G1 X120.079 Y141.013 E.14605
G1 X117.209 Y140.504 E.14714
G1 X114.573 Y139.822 E.13744
G1 X111.978 Y138.937 E.13841
G1 X109.344 Y137.807 E.14467
G1 X106.802 Y136.469 E.14501
G1 X104.359 Y134.925 E.14589
G1 X102.177 Y133.296 E.13743
G1 X100.109 Y131.496 E.13842
G1 X98.066 Y129.418 E.14708
G1 X96.282 Y127.293 E.14009
G1 X94.67 Y125.045 E.13963
G1 X93.206 Y122.632 E.14246
G1 X91.916 Y120.075 E.14455
G1 X90.829 Y117.417 E.14499
G1 X89.951 Y114.668 E.14567
G1 X89.322 Y111.995 E.1386
G1 X88.898 Y109.305 E.13746
G1 X88.67 Y106.424 E.14592
G1 X88.671 Y103.554 E.14489
G1 X88.878 Y100.866 E.13606
G1 X89.167 Y98.974 E.0966
G1 X89.34 Y97.911 E.05439
G1 X89.951 Y95.335 E.13364
G1 X90.829 Y92.583 E.14582
G1 X91.926 Y89.902 E.14621
G1 X93.207 Y87.365 E.14345
G1 X94.629 Y85.017 E.1386
G1 X96.21 Y82.8 E.13745
G1 X97.113 Y81.722 E.07099
M204 S1000
G1 X97.578 Y82.111 F10800
M204 S800
G1 F1200
G1 X98.52 Y80.985 E.07412
G1 X100.513 Y78.957 E.14354
G1 X102.549 Y77.183 E.13629
G1 X104.716 Y75.567 E.13646
G1 X107.057 Y74.085 E.13986
G1 X109.569 Y72.759 E.14338
G1 X112.182 Y71.635 E.14358
G1 X114.809 Y70.742 E.14007
M73 Q0 S168
G1 X117.42 Y70.072 E.13608
G1 X120.078 Y69.6 E.13626
G1 X122.912 Y69.322 E.14373
G1 X125.756 Y69.27 E.14359
G1 X128.522 Y69.437 E.13987
G1 X131.196 Y69.805 E.13627
G1 X133.835 Y70.374 E.13627
G1 X136.556 Y71.185 E.14332
G1 X139.208 Y72.212 E.14358
G1 X141.709 Y73.415 E.14007
G1 X144.042 Y74.765 E.13608
G1 X146.27 Y76.289 E.13626
G1 X148.485 Y78.072 E.14353
G1 X150.554 Y80.028 E.14372
G1 X152.366 Y82.029 E.13626
G1 X154.02 Y84.158 E.13609
G1 X155.585 Y86.532 E.14354
G1 X156.958 Y89.027 E.14374
G1 X158.071 Y91.482 E.13609
M73 P0 R167
G1 X158.997 Y94.018 E.13626
G1 X159.763 Y96.756 E.14353
G1 X160.309 Y99.552 E.14379
G1 X160.625 Y102.304 E.13985
G1 X160.726 Y104.997 E.13605
G1 X160.625 Y107.695 E.13629
G1 X160.297 Y110.52 E.14355
G1 X159.746 Y113.315 E.14379
G1 X158.997 Y115.982 E.13985
G1 X158.071 Y118.518 E.13625
G1 X156.958 Y120.973 E.13608
G1 X155.585 Y123.468 E.14374
G1 X154.019 Y125.843 E.14359
G1 X152.317 Y128.029 E.13987
G1 X150.504 Y130.024 E.13607
G1 X148.542 Y131.878 E.13626
G1 X146.328 Y133.668 E.14372
G1 X143.984 Y135.272 E.14339
G1 X141.578 Y136.655 E.14008
G1 X139.144 Y137.815 E.13608
G1 X136.624 Y138.791 E.13646
G1 X133.9 Y139.609 E.14353
G1 X131.122 Y140.208 E.14347
G1 X128.521 Y140.564 E.13252
G1 X125.607 Y140.733 E.14733
G1 X122.983 Y140.682 E.13251
G1 X120.149 Y140.41 E.14368
G1 X117.35 Y139.913 E.14353
G1 X114.736 Y139.237 E.13626
G1 X112.185 Y138.367 E.13608
G1 X109.595 Y137.254 E.14229
G1 X107.096 Y135.937 E.14259
G1 X104.713 Y134.431 E.14231
G1 X102.549 Y132.817 E.13626
G1 X100.516 Y131.046 E.13609
G1 X98.508 Y129.001 E.14469
G1 X96.754 Y126.912 E.1377
G1 X95.17 Y124.701 E.13729
G1 X93.731 Y122.328 E.1401
G1 X92.464 Y119.813 E.14215
G1 X91.395 Y117.198 E.14258
G1 X90.54 Y114.517 E.14209
G1 X89.92 Y111.89 E.13627
G1 X89.5 Y109.223 E.13628
G1 X89.276 Y106.388 E.14352
G1 X89.278 Y103.566 E.14248
G1 X89.482 Y100.924 E.13372
G1 X89.767 Y99.068 E.09482
G1 X89.933 Y98.04 E.05255
G1 X90.539 Y95.486 E.13249
G1 X91.404 Y92.779 E.14346
G1 X92.474 Y90.165 E.14259
G1 X93.732 Y87.669 E.14108
G1 X95.13 Y85.36 E.13627
G1 X96.697 Y83.162 E.13628
G1 X97.52 Y82.18 E.06466
M204 S1000
G1 X97.985 Y82.569 F10800
M204 S800
G1 F1200
G1 X98.962 Y81.402 E.07685
G1 X100.921 Y79.407 E.14114
G1 X102.939 Y77.649 E.13511
G1 X105.07 Y76.061 E.13412
G1 X107.372 Y74.604 E.1375
G1 X109.842 Y73.301 E.14097
G1 X112.389 Y72.205 E.13997
G1 X114.971 Y71.327 E.13771
G1 X117.56 Y70.663 E.1349
G1 X120.172 Y70.2 E.13392
G1 X122.935 Y69.929 E.14013
G1 X125.731 Y69.876 E.14118
G1 X128.451 Y70.04 E.13751
G1 X131.079 Y70.401 E.13394
G1 X133.695 Y70.965 E.13509
G1 X136.371 Y71.764 E.14093
G1 X138.956 Y72.765 E.13997
G1 X141.415 Y73.946 E.1377
G1 X143.728 Y75.284 E.1349
G1 X145.917 Y76.783 E.13393
G1 X148.095 Y78.537 E.14114
G1 X150.112 Y80.444 E.14013
G1 X151.894 Y82.41 E.13393
G1 X153.533 Y84.521 E.1349
G1 X155.071 Y86.856 E.14115
G1 X156.41 Y89.288 E.14014
G1 X157.514 Y91.722 E.13491
G1 X158.423 Y94.215 E.13393
G1 X159.175 Y96.908 E.14114
G1 X159.707 Y99.633 E.14017
G1 X160.018 Y102.339 E.13749
G1 X160.119 Y104.986 E.13372
G1 X160.018 Y107.661 E.13511
G1 X159.696 Y110.438 E.14116
G1 X159.158 Y113.163 E.14017
G1 X158.423 Y115.785 E.13749
G1 X157.514 Y118.278 E.13392
G1 X156.41 Y120.712 E.13491
G1 X155.071 Y123.144 E.14014
G1 X153.533 Y125.479 E.14118
G1 X151.86 Y127.629 E.1375
G1 X150.062 Y129.607 E.1349
G1 X148.134 Y131.429 E.13393
G1 X145.975 Y133.174 E.14013
G1 X143.671 Y134.752 E.14098
G1 X141.306 Y136.112 E.13771
G1 X138.894 Y137.262 E.1349
G1 X136.415 Y138.221 E.13413
G1 X133.761 Y139.019 E.13993
G1 X131.028 Y139.608 E.1411
G1 X128.45 Y139.96 E.13135
G1 X125.608 Y140.126 E.14372
G1 X123.006 Y140.076 E.13135
G1 X120.243 Y139.81 E.1401
G1 X117.49 Y139.322 E.14114
G1 X114.921 Y138.658 E.13392
G1 X112.392 Y137.796 E.1349
G1 X109.867 Y136.711 E.13871
G1 X107.41 Y135.418 E.14018
G1 X105.066 Y133.937 E.13993
G1 X102.939 Y132.351 E.13392
G1 X100.924 Y130.596 E.13491
G1 X98.965 Y128.602 E.14111
G1 X97.241 Y126.548 E.13535
G1 X95.67 Y124.357 E.1361
G1 X94.256 Y122.024 E.13772
G1 X93.011 Y119.551 E.13975
G1 X91.97 Y117.002 E.13897
G1 X91.128 Y114.366 E.1397
G1 X90.513 Y111.761 E.13509
G1 X90.101 Y109.14 E.13394
G1 X89.883 Y106.376 E.13994
G1 X89.884 Y103.601 E.14011
G1 X90.087 Y100.983 E.13255
G1 X90.367 Y99.161 E.09305
G1 X90.527 Y98.169 E.0507
G1 X91.127 Y95.637 E.13134
G1 X91.97 Y92.998 E.13989
G1 X93.021 Y90.427 E.14018
G1 X94.258 Y87.974 E.1387
G1 X95.643 Y85.684 E.13509
G1 X97.185 Y83.524 E.13395
G1 X97.927 Y82.638 E.05835
M204 S1000
G1 X98.392 Y83.027 F10800
M204 S800
G1 F1200
G1 X99.42 Y81.801 E.08079
G1 X101.329 Y79.857 E.13755
G1 X103.312 Y78.128 E.13276
G1 X105.423 Y76.554 E.13294
G1 X107.686 Y75.124 E.13513
G1 X110.093 Y73.854 E.13737
G1 X112.596 Y72.776 E.13757
G1 X115.134 Y71.912 E.13534
G1 X117.677 Y71.258 E.13256
G1 X120.267 Y70.8 E.13274
G1 X122.982 Y70.534 E.13774
G1 X125.707 Y70.483 E.13757
G1 X128.38 Y70.643 E.13515
G1 X130.985 Y71.001 E.13276
G1 X133.556 Y71.556 E.13275
G1 X136.163 Y72.334 E.13734
G1 X138.704 Y73.317 E.13757
G1 X141.122 Y74.477 E.13534
G1 X143.395 Y75.792 E.13256
G1 X145.565 Y77.278 E.13275
G1 X147.687 Y78.987 E.13755
G1 X149.67 Y80.861 E.13774
G1 X151.436 Y82.809 E.13274
G1 X153.046 Y84.884 E.13256
G1 X154.545 Y87.16 E.13756
G1 X155.862 Y89.55 E.13776
G1 X156.947 Y91.941 E.13256
G1 X157.848 Y94.412 E.13275
G1 X158.581 Y97.036 E.13755
G1 X159.105 Y99.715 E.13777
G1 X159.412 Y102.374 E.13512
G1 X159.512 Y104.998 E.13254
G1 X159.412 Y107.626 E.13276
G1 X159.098 Y110.333 E.13756
G1 X158.57 Y113.011 E.13777
G1 X157.848 Y115.588 E.13513
G1 X156.947 Y118.059 E.13274
G1 X155.862 Y120.45 E.13256
G1 X154.545 Y122.84 E.13775
G1 X153.046 Y125.116 E.13757
G1 X151.403 Y127.23 E.13514
G1 X149.637 Y129.173 E.13256
G1 X147.726 Y130.979 E.13274
G1 X145.603 Y132.694 E.13774
G1 X143.358 Y134.232 E.13737
G1 X141.034 Y135.569 E.13535
G1 X138.664 Y136.7 E.13256
G1 X136.207 Y137.65 E.13294
G1 X133.598 Y138.434 E.13755
G1 X130.934 Y139.008 E.13753
G1 X128.379 Y139.357 E.13019
G1 X125.608 Y139.519 E.14013
G1 X123.029 Y139.469 E.13018
G1 X120.314 Y139.207 E.13773
G1 X117.631 Y138.731 E.13755
G1 X115.084 Y138.074 E.13274
G1 X112.599 Y137.225 E.13256
G1 X110.118 Y136.158 E.13634
G1 X107.724 Y134.898 E.13658
G1 X105.42 Y133.443 E.13754
G1 X103.312 Y131.872 E.13274
G1 X101.332 Y130.146 E.13257
G1 X99.422 Y128.202 E.13754
G1 X97.713 Y126.167 E.13416
G1 X96.17 Y124.013 E.13374
G1 X94.782 Y121.719 E.13535
G1 X93.569 Y119.31 E.13617
G1 X92.545 Y116.806 E.13657
G1 X91.716 Y114.215 E.13732
G1 X91.111 Y111.656 E.13274
G1 X90.703 Y109.057 E.13276
G1 X90.489 Y106.341 E.13755
G1 X90.49 Y103.636 E.13654
G1 X90.691 Y101.041 E.13138
G1 X90.967 Y99.254 E.09126
G1 X91.12 Y98.298 E.04888
G1 X91.715 Y95.789 E.13018
G1 X92.545 Y93.194 E.13752
G1 X93.569 Y90.69 E.13658
G1 X94.784 Y88.278 E.13633
G1 X96.144 Y86.027 E.13275
G1 X97.672 Y83.886 E.13276
G1 X98.334 Y83.096 E.05203
M204 S1000
