; generated by PrusaSlicer 2.4.2+x64 on 2023-01-24 at 03:33:58 UTC


;
;
; 

; external perimeters extrusion width = 0.65mm
; perimeters extrusion width = 0.65mm
; infill extrusion width = 0.65mm
; solid infill extrusion width = 0.65mm
; top infill extrusion width = 0.60mm
; support material extrusion width = 0.55mm
; first layer extrusion width = 0.65mm

M73 P0 R152
M73 Q0 S153
M201 X1000 Y1000 Z200 E5000 ; sets maximum accelerations, mm/sec^2
M203 X200 Y200 Z12 E120 ; sets maximum feedrates, mm / sec
M204 P1250 R1250 T1250 ; sets acceleration (P, T) and retract acceleration (R), mm/sec^2
M205 X8.00 Y8.00 Z0.40 E4.50 ; sets the jerk limits, mm/sec
M205 S0 T0 ; sets the minimum extruding and travel feed rate, mm/sec
M107
;TYPE:Custom
M862.3 P "MK3S" ; printer model check
M862.1 P0.6 ; nozzle diameter check
M115 U3.11.0 ; tell printer latest fw version
G90 ; use absolute coordinates
M83 ; extruder relative mode
M104 S215 ; set extruder temp
M140 S70 ; set bed temp
M190 S70 ; wait for bed temp
M109 S215 ; wait for extruder temp
G28 W ; home all without mesh bed level
G80 ; mesh bed leveling

G1 Z0.2 F720
G1 Y-3 F1000 ; go outside print area
G92 E0
G1 X60 E9 F1000 ; intro line
G1 X100 E12.5 F1000 ; intro line

G92 E0
M221 S95
G21 ; set units to millimeters
G90 ; use absolute coordinates
M83 ; use relative distances for extrusion
M900 K0.04 ; Filament gcode LA 1.5
M900 K18 ; Filament gcode LA 1.0
M107
;LAYER_CHANGE
;Z:0.2
;HEIGHT:0.2
;BEFORE_LAYER_CHANGE
G92 E0.0
;0.2


G1 E-.8 F2100
G1 Z.4 F720
;AFTER_LAYER_CHANGE
;0.2
G1 X67.737 Y50.398 F10800
G1 Z.2 F720
G1 E.8 F1500
M204 S800
;TYPE:Skirt/Brim
;WIDTH:0.65
G1 F1200
G1 X75.372 Y42.763 E.54503
G1 X75.858 Y42.381 E.03119
G1 X96.228 Y29.953 E1.20455
G1 X108.628 Y24.919 E.67554
G1 X110.253 Y24.458 E.08527
G1 X114.289 Y23.685 E.20744
G1 X116.864 Y23.356 E.13106
G1 X123.216 Y23.054 E.321
G1 X127.287 Y23.071 E.2055
G1 X133.866 Y23.446 E.33263
G1 X136.232 Y23.769 E.12051
G1 X140.585 Y24.652 E.22421
G1 X141.958 Y25.068 E.07243
G1 X153.404 Y29.767 E.62459
G1 X174.142 Y42.381 E1.22529
G1 X174.628 Y42.763 E.03119
G1 X182.263 Y50.398 E.54503
G1 X182.751 Y51.076 E.04216
G1 X190.208 Y65.99 E.84169
G1 X190.433 Y66.644 E.03494
G1 X192.969 Y79.584 E.66559
G1 X192.969 Y100.584 E1.06009
G1 X190.433 Y113.524 E.66559
G1 X187.722 Y121.635 E.43171
G1 X184.991 Y127.005 E.30411
G1 X177.41 Y137.1 E.63726
G1 X142.612 Y176.87 E2.66756
G1 X132.373 Y187.117 E.73122
G1 X130.529 Y187.88 E.10072
G1 X119.471 Y187.88 E.55821
G1 X117.627 Y187.117 E.10072
G1 X104.895 Y174.375 E.90929
G1 X72.582 Y137.09 E2.49053
G1 X64.763 Y126.606 E.66018
G1 X62.136 Y121.294 E.29918
G1 X59.651 Y113.837 E.39677
G1 X57.082 Y101.096 E.6561
G1 X57.031 Y79.584 E1.0859
G1 X59.567 Y66.644 E.66559
M73 P0 R151
G1 X59.792 Y65.99 E.03494
G1 X67.249 Y51.076 E.84169
G1 X67.685 Y50.471 E.03762
M204 S1000
;WIPE_START
G1 F8640
G1 X70.009 Y48.141 E-.76
;WIPE_END
G1 E-.04 F2100
G1 Z.6 F720
G1 X106.857 Y34.118 F10800
G1 Z.2 F720
G1 E.8 F1500
M204 S800
G1 F1200
G1 X106.652 Y33.509 E.03243
G1 X106.471 Y32.019 E.07579
G1 X106.541 Y31.311 E.03588
G1 X106.837 Y30.352 E.05071
G1 X107.39 Y29.399 E.05559
G1 X107.929 Y28.786 E.04119
G1 X108.853 Y28.129 E.05726
G1 X109.827 Y27.734 E.05306
G1 X110.87 Y27.449 E.05454
G1 X114.87 Y26.684 E.20556
G1 X117.163 Y26.396 E.11666
G1 X119.25 Y26.256 E.10561
G1 X121.72 Y26.188 E.12473
G1 X123.2 Y26.109 E.07479
G1 X127.276 Y26.125 E.2058
G1 X128.86 Y26.22 E.08009
G1 X131.308 Y26.309 E.12365
G1 X133.475 Y26.475 E.10968
G1 X135.67 Y26.772 E.11184
G1 X139.735 Y27.589 E.20931
G1 X140.713 Y27.865 E.05126
G1 X141.694 Y28.275 E.05369
G1 X142.433 Y28.767 E.04485
G1 X143.034 Y29.386 E.04352
G1 X143.677 Y30.464 E.06334
G1 X143.927 Y31.161 E.03742
G1 X144.055 Y32.22 E.05385
G1 X143.821 Y33.822 E.0817
G1 X143.479 Y34.634 E.0445
G1 X143.124 Y35.172 E.03253
G1 X142.372 Y35.949 E.05458
G1 X141.875 Y36.33 E.03164
G1 X141.29 Y36.637 E.0333
G1 X140.778 Y36.82 E.02747
G1 X139.407 Y37.014 E.06991
G1 X132.606 Y36.989 E.34331
G1 X129.995 Y36.837 E.132
G1 X128.616 Y36.788 E.06964
G1 X127.209 Y36.77 E.07105
G1 X121.859 Y36.758 E.27006
G1 X120.009 Y36.811 E.09344
G1 X117.883 Y36.923 E.10745
G1 X111.241 Y36.898 E.33527
G1 X109.708 Y36.68 E.07817
G1 X109.197 Y36.491 E.02751
G1 X108.616 Y36.18 E.03327
G1 X108.131 Y35.802 E.03103
G1 X107.415 Y35.06 E.05207
G1 X106.903 Y34.195 E.05073
M204 S1000
G1 X107.42 Y33.89 F10800
M204 S800
G1 F1200
G1 X107.25 Y33.4 E.02623
G1 X107.078 Y32.038 E.06925
G1 X107.13 Y31.459 E.02937
G1 X107.407 Y30.566 E.04718
G1 X107.897 Y29.735 E.04871
G1 X108.359 Y29.215 E.03508
G1 X109.114 Y28.678 E.04678
G1 X110.038 Y28.304 E.05035
G1 X110.995 Y28.043 E.05004
G1 X114.974 Y27.282 E.20449
G1 X117.229 Y26.999 E.11474
G1 X119.284 Y26.862 E.10398
G1 X121.744 Y26.794 E.12422
G1 X123.223 Y26.716 E.07474
G1 X127.265 Y26.732 E.20406
G1 X128.831 Y26.826 E.07916
G1 X131.28 Y26.916 E.12371
G1 X133.419 Y27.08 E.10831
G1 X135.579 Y27.372 E.11002
G1 X139.583 Y28.176 E.20614
G1 X140.499 Y28.433 E.04801
G1 X141.387 Y28.799 E.0485
G1 X142.022 Y29.215 E.03829
G1 X142.572 Y29.782 E.03989
G1 X143.137 Y30.744 E.05634
G1 X143.344 Y31.331 E.03141
G1 X143.449 Y32.174 E.04284
G1 X143.226 Y33.694 E.07757
G1 X142.956 Y34.326 E.03472
G1 X142.667 Y34.772 E.0268
G1 X141.951 Y35.511 E.05194
G1 X141.569 Y35.805 E.02434
G1 X141.029 Y36.088 E.0308
G1 X140.607 Y36.237 E.02257
G1 X139.346 Y36.41 E.06425
G1 X132.617 Y36.382 E.33969
G1 X130.024 Y36.231 E.13111
G1 X128.631 Y36.182 E.07034
G1 X127.214 Y36.163 E.07156
G1 X121.851 Y36.151 E.27069
G1 X119.984 Y36.204 E.09429
G1 X117.877 Y36.316 E.10653
G1 X111.264 Y36.291 E.33381
G1 X109.884 Y36.098 E.07033
G1 X109.463 Y35.946 E.02257
G1 X108.926 Y35.658 E.03078
G1 X108.553 Y35.366 E.02389
G1 X107.876 Y34.665 E.04919
G1 X107.466 Y33.968 E.04081
M204 S1000
G1 X107.986 Y33.665 F10800
M204 S800
G1 F1200
G1 X107.847 Y33.286 E.02036
G1 X107.686 Y32.052 E.06279
G1 X107.722 Y31.599 E.02294
G1 X107.949 Y30.842 E.03993
G1 X108.405 Y30.068 E.04534
G1 X108.743 Y29.686 E.02575
G1 X109.377 Y29.226 E.03953
G1 X110.249 Y28.873 E.04748
G1 X111.12 Y28.638 E.04555
G1 X115.078 Y27.88 E.20343
G1 X117.279 Y27.604 E.11192
G1 X119.319 Y27.468 E.10323
G1 X121.769 Y27.401 E.12371
G1 X123.246 Y27.323 E.0747
G1 X127.254 Y27.339 E.20232
G1 X128.801 Y27.433 E.07823
G1 X131.252 Y27.522 E.12378
G1 X133.364 Y27.685 E.10694
G1 X135.488 Y27.973 E.1082
G1 X139.431 Y28.764 E.20303
G1 X140.285 Y29.001 E.0447
G1 X141.13 Y29.35 E.04616
G1 X141.61 Y29.662 E.0289
G1 X142.109 Y30.177 E.0362
G1 X142.596 Y31.02 E.04915
G1 X142.76 Y31.499 E.02553
G1 X142.842 Y32.128 E.03203
G1 X142.632 Y33.563 E.07319
G1 X142.412 Y34.057 E.02732
G1 X142.21 Y34.372 E.01888
G1 X141.53 Y35.073 E.04932
G1 X141.263 Y35.28 E.01704
G1 X140.768 Y35.54 E.0282
G1 X140.44 Y35.652 E.01753
G1 X139.287 Y35.806 E.05868
G1 X132.628 Y35.775 E.33618
G1 X130.052 Y35.624 E.13022
G1 X128.646 Y35.575 E.07104
G1 X127.218 Y35.556 E.07207
G1 X121.843 Y35.544 E.27132
G1 X119.959 Y35.597 E.09515
G1 X117.87 Y35.709 E.1056
G1 X111.286 Y35.684 E.33237
G1 X110.056 Y35.515 E.06266
M73 Q0 S152
G1 X109.729 Y35.399 E.01751
G1 X109.237 Y35.135 E.02819
G1 X108.976 Y34.93 E.01674
G1 X108.339 Y34.27 E.04632
G1 X108.031 Y33.742 E.03082
M204 S1000
G1 X108.555 Y33.436 F10800
M204 S800
G1 F1200
G1 X108.431 Y33.118 E.01724
G1 X108.293 Y32.061 E.05383
G1 X108.315 Y31.732 E.01662
G1 X108.492 Y31.116 E.03239
G1 X108.914 Y30.401 E.04188
G1 X109.132 Y30.153 E.01668
G1 X109.644 Y29.773 E.03216
G1 X110.427 Y29.454 E.04267
G1 X111.246 Y29.232 E.04285
G1 X115.183 Y28.478 E.20235
G1 X117.328 Y28.209 E.10911
G1 X119.353 Y28.074 E.10248
G1 X121.793 Y28.007 E.12319
G1 X123.27 Y27.929 E.07465
G1 X127.243 Y27.946 E.20057
G1 X128.772 Y28.039 E.0773
G1 X131.223 Y28.129 E.12384
G1 X133.308 Y28.289 E.10557
G1 X135.397 Y28.573 E.10638
G1 X139.281 Y29.353 E.19998
G1 X140.071 Y29.57 E.04135
G1 X140.874 Y29.901 E.04385
G1 X141.199 Y30.11 E.0195
G1 X141.646 Y30.572 E.03245
G1 X142.034 Y31.25 E.03942
G1 X142.162 Y31.611 E.01936
G1 X142.235 Y32.165 E.0282
G1 X142.061 Y33.353 E.06062
G1 X141.868 Y33.786 E.02392
G1 X141.719 Y34.012 E.01365
G1 X141.113 Y34.631 E.04374
G1 X140.918 Y34.78 E.01238
G1 X140.513 Y34.988 E.02296
G1 X140.278 Y35.067 E.01255
G1 X139.231 Y35.201 E.05326
G1 X132.639 Y35.168 E.33277
G1 X130.081 Y35.018 E.12935
G1 X128.66 Y34.968 E.07174
G1 X127.223 Y34.949 E.07258
G1 X121.835 Y34.937 E.27195
G1 X119.934 Y34.991 E.09601
G1 X117.864 Y35.102 E.10467
G1 X111.307 Y35.077 E.33095
G1 X110.224 Y34.931 E.05521
G1 X109.989 Y34.85 E.01254
G1 X109.586 Y34.638 E.02296
G1 X109.393 Y34.488 E.01235
G1 X108.843 Y33.93 E.03955
G1 X108.601 Y33.514 E.0243
M204 S1000
G1 X109.127 Y33.217 F10800
M204 S800
G1 F1200
G1 X109.066 Y33.109 E.00625
G1 X109.017 Y32.959 E.00798
G1 X108.901 Y32.06 E.04576
G1 X108.91 Y31.854 E.01041
G1 X109.037 Y31.387 E.02443
G1 X109.422 Y30.734 E.03828
G1 X109.527 Y30.615 E.00799
G1 X109.914 Y30.318 E.02463
G1 X110.605 Y30.035 E.0377
G1 X111.372 Y29.826 E.04011
G1 X115.287 Y29.076 E.20126
G1 X117.377 Y28.815 E.1063
G1 X119.388 Y28.68 E.10174
G1 X121.817 Y28.614 E.12268
G1 X123.293 Y28.536 E.0746
G1 X127.232 Y28.553 E.19882
G1 X128.742 Y28.645 E.07637
G1 X131.195 Y28.735 E.12392
G1 X133.236 Y28.892 E.10332
G1 X135.287 Y29.17 E.10448
G1 X139.152 Y29.946 E.19898
G1 X139.857 Y30.138 E.03692
G1 X140.619 Y30.452 E.04159
G1 X140.795 Y30.565 E.01056
G1 X141.14 Y30.91 E.02464
G1 X141.494 Y31.529 E.036
G1 X141.565 Y31.724 E.01044
G1 X141.627 Y32.202 E.02437
G1 X141.489 Y33.144 E.04805
G1 X141.325 Y33.513 E.02037
G1 X141.234 Y33.647 E.00816
G1 X140.7 Y34.186 E.03833
G1 X140.579 Y34.276 E.0076
G1 X140.265 Y34.434 E.01775
G1 X140.122 Y34.48 E.00757
G1 X139.177 Y34.596 E.04806
G1 X132.65 Y34.561 E.32946
G1 X130.11 Y34.412 E.12848
G1 X128.675 Y34.361 E.07245
G1 X127.227 Y34.342 E.07308
G1 X121.828 Y34.33 E.27258
G1 X119.909 Y34.384 E.09687
G1 X117.857 Y34.494 E.10374
G1 X111.329 Y34.47 E.32955
G1 X110.385 Y34.345 E.04806
G1 X110.242 Y34.298 E.00758
G1 X109.93 Y34.137 E.01775
G1 X109.809 Y34.046 E.00764
G1 X109.306 Y33.534 E.03622
G1 X109.171 Y33.295 E.01383
M204 S1000
G1 X109.702 Y33.011 F10800
M204 S800
G1 F1200
G1 X109.607 Y32.815 E.01099
G1 X109.506 Y32.009 E.04105
G1 X109.585 Y31.652 E.01845
G1 X109.936 Y31.064 E.03456
G1 X110.188 Y30.862 E.01629
G1 X110.817 Y30.604 E.03434
G1 X111.518 Y30.415 E.03663
G1 X115.392 Y29.674 E.19908
G1 X117.426 Y29.42 E.10349
G1 X119.422 Y29.286 E.10099
G1 X121.842 Y29.221 E.12217
G1 X123.317 Y29.143 E.07456
G1 X127.22 Y29.16 E.19706
G1 X128.712 Y29.252 E.07544
G1 X131.155 Y29.341 E.12339
G1 X133.163 Y29.495 E.10168
G1 X135.177 Y29.767 E.10257
G1 X139.023 Y30.539 E.198
G1 X139.644 Y30.707 E.03249
G1 X140.365 Y31.004 E.03937
G1 X140.637 Y31.252 E.01856
G1 X140.955 Y31.81 E.03243
G1 X141.019 Y32.17 E.01845
G1 X140.916 Y32.938 E.03915
G1 X140.785 Y33.233 E.01629
G1 X140.291 Y33.736 E.03555
G1 X139.977 Y33.89 E.01769
G1 X139.161 Y33.989 E.04146
G1 X132.662 Y33.954 E.32809
G1 X130.138 Y33.805 E.1276
G1 X128.69 Y33.754 E.07316
G1 X127.232 Y33.735 E.07359
G1 X121.82 Y33.723 E.27321
G1 X119.884 Y33.777 E.09773
G1 X117.851 Y33.887 E.10281
G1 X111.35 Y33.863 E.32816
G1 X110.488 Y33.742 E.04395
G1 X110.222 Y33.6 E.0152
G1 X109.771 Y33.142 E.03244
G1 X109.744 Y33.091 E.00292
M204 S1000
G1 X110.243 Y32.756 F10800
M204 S800
G1 F1200
G1 X110.2 Y32.666 E.00505
G1 X110.117 Y32.007 E.0335
G1 X110.138 Y31.909 E.00505
G1 X110.395 Y31.468 E.02579
G1 X110.47 Y31.403 E.00505
G1 X111.03 Y31.173 E.03051
G1 X111.642 Y31.009 E.03202
G1 X115.496 Y30.273 E.19805
G1 X117.475 Y30.025 E.10069
G1 X119.457 Y29.893 E.10024
G1 X121.866 Y29.827 E.12165
G1 X123.34 Y29.749 E.07451
G1 X127.209 Y29.767 E.1953
G1 X128.682 Y29.858 E.07451
G1 X131.115 Y29.947 E.12287
G1 X133.091 Y30.098 E.10005
G1 X135.067 Y30.364 E.10066
G1 X138.893 Y31.132 E.19699
G1 X139.465 Y31.288 E.02993
G1 X140.062 Y31.536 E.03262
G1 X140.137 Y31.602 E.00508
G1 X140.391 Y32.046 E.02581
G1 X140.41 Y32.144 E.00505
G1 X140.322 Y32.802 E.0335
G1 X140.278 Y32.892 E.00505
G1 X139.916 Y33.253 E.02581
G1 X139.826 Y33.297 E.00506
G1 X139.144 Y33.382 E.03466
G1 X132.673 Y33.347 E.32667
G1 X130.167 Y33.199 E.12673
G1 X128.705 Y33.147 E.07387
G1 X127.237 Y33.128 E.0741
G1 X121.812 Y33.116 E.27384
G1 X119.859 Y33.171 E.0986
G1 X117.844 Y33.28 E.10187
G1 X111.372 Y33.256 E.3267
G1 X110.692 Y33.165 E.03466
G1 X110.602 Y33.12 E.00506
G1 X110.307 Y32.82 E.02127
M204 S1000
G1 X110.783 Y32.439 F10800
M204 S800
G1 F1200
G1 X110.739 Y32.084 E.01808
G1 X110.842 Y31.906 E.01037
G1 X111.241 Y31.742 E.02175
G1 X111.786 Y31.599 E.02844
G1 X115.6 Y30.871 E.19602
G1 X117.542 Y30.628 E.09876
G1 X119.479 Y30.499 E.09802
G1 X121.89 Y30.434 E.12175
G1 X123.346 Y30.357 E.07359
G1 X127.197 Y30.374 E.19441
G1 X128.652 Y30.465 E.07359
G1 X131.075 Y30.553 E.12236
G1 X133.019 Y30.7 E.09841
G1 X134.957 Y30.961 E.09874
G1 X138.746 Y31.721 E.19508
G1 X139.251 Y31.856 E.02639
G1 X139.687 Y32.037 E.0238
G1 X139.788 Y32.215 E.01033
G1 X139.741 Y32.57 E.01808
G1 X139.596 Y32.715 E.01033
G1 X139.127 Y32.774 E.02385
G1 X132.685 Y32.74 E.32521
G1 X130.196 Y32.592 E.12585
G1 X128.719 Y32.54 E.07459
G1 X127.241 Y32.521 E.07461
G1 X121.804 Y32.509 E.27447
G1 X119.834 Y32.564 E.09947
G1 X117.838 Y32.673 E.10094
G1 X111.395 Y32.649 E.32521
G1 X110.927 Y32.585 E.02385
G1 X110.846 Y32.503 E.00579
M204 S1000
;WIPE_START
G1 F8640
G1 X110.739 Y32.084 E-.10001
G1 X110.842 Y31.906 E-.04745
G1 X111.241 Y31.742 E-.0995
G1 X111.786 Y31.599 E-.13011
G1 X113.415 Y31.288 E-.38292
;WIPE_END
G1 E-.04 F2100
G1 Z.6 F720
G1 X131.307 Y164.862 F10800
G1 Z.2 F720
G1 E.8 F1500
M204 S800
G1 F1200
G1 X132.135 Y164.868 E.04181
G1 X133.186 Y165.088 E.05421
G1 X133.874 Y165.385 E.03781
G1 X134.468 Y165.761 E.0355
G1 X137.042 Y168.312 E.18294
G1 X137.35 Y168.696 E.02482
G1 X137.848 Y169.716 E.0573
G1 X138.093 Y170.926 E.06236
G1 X138.105 Y171.546 E.03129
G1 X137.909 Y172.571 E.05268
G1 X137.467 Y173.607 E.05685
G1 X136.821 Y174.499 E.05559
G1 X136.324 Y174.939 E.03348
G1 X135.542 Y175.445 E.04704
G1 X134.902 Y175.717 E.03513
G1 X134.095 Y175.896 E.04171
G1 X129.388 Y175.895 E.23759
G1 X128.217 Y175.618 E.06077
G1 X127.655 Y175.34 E.03163
G1 X126.944 Y174.86 E.04328
G1 X126.258 Y174.161 E.04944
G1 X125.89 Y173.591 E.03426
G1 X125.445 Y172.55 E.05714
G1 X125.256 Y171.587 E.04956
G1 X125.246 Y171.002 E.02951
G1 X125.484 Y169.78 E.06288
G1 X125.624 Y169.372 E.02174
G1 X126.294 Y168.307 E.06354
G1 X129.029 Y165.665 E.19195
G1 X129.687 Y165.292 E.03814
G1 X130.534 Y164.983 E.04554
G1 X131.218 Y164.876 E.03493
M204 S1000
G1 X131.314 Y165.472 F10800
M204 S800
G1 F1200
G1 X132.046 Y165.469 E.03693
G1 X132.977 Y165.659 E.048
G1 X133.57 Y165.912 E.03255
G1 X134.115 Y166.256 E.03254
G1 X136.601 Y168.729 E.17699
G1 X136.852 Y169.046 E.0204
G1 X137.284 Y169.942 E.0502
G1 X137.492 Y171.016 E.05525
G1 X137.502 Y171.468 E.02282
G1 X137.337 Y172.368 E.0462
G1 X136.952 Y173.283 E.0501
G1 X136.39 Y174.07 E.0488
G1 X135.974 Y174.442 E.02818
G1 X135.234 Y174.921 E.0445
G1 X134.738 Y175.132 E.02721
G1 X134.059 Y175.289 E.03517
G1 X129.426 Y175.288 E.23389
G1 X128.397 Y175.037 E.05347
G1 X127.98 Y174.827 E.02357
G1 X127.311 Y174.375 E.04073
G1 X126.716 Y173.762 E.04314
G1 X126.438 Y173.33 E.02592
G1 X126.017 Y172.343 E.05415
G1 X125.858 Y171.503 E.04316
G1 X125.854 Y171.03 E.02387
G1 X126.075 Y169.921 E.05709
G1 X126.185 Y169.605 E.01687
G1 X126.743 Y168.717 E.05297
G1 X129.365 Y166.172 E.18444
G1 X129.923 Y165.852 E.03247
G1 X130.662 Y165.577 E.03978
G1 X131.225 Y165.486 E.0288
M204 S1000
G1 X131.317 Y166.085 F10800
M204 S800
G1 F1200
G1 X132.012 Y166.076 E.03512
G1 X132.771 Y166.23 E.03907
G1 X133.268 Y166.439 E.02723
G1 X133.762 Y166.751 E.02951
G1 X136.158 Y169.145 E.17097
G1 X136.353 Y169.392 E.01589
G1 X136.717 Y170.163 E.04303
G1 X136.891 Y171.103 E.04823
G1 X136.899 Y171.395 E.01475
G1 X136.763 Y172.166 E.03951
G1 X136.406 Y173.017 E.04662
G1 X135.958 Y173.643 E.03882
G1 X135.623 Y173.946 E.02285
G1 X134.926 Y174.397 E.04189
G1 X134.569 Y174.549 E.01957
G1 X134.021 Y174.682 E.02847
G1 X129.465 Y174.681 E.23001
G1 X128.583 Y174.458 E.04593
