; generated by PrusaSlicer 2.4.2+x64 on 2023-02-05 at 17:34:43 UTC


;
;
; 

; external perimeters extrusion width = 0.65mm
; perimeters extrusion width = 0.65mm
; infill extrusion width = 0.65mm
; solid infill extrusion width = 0.65mm
; top infill extrusion width = 0.60mm
; support material extrusion width = 0.55mm
; first layer extrusion width = 0.65mm

M73 P0 R361
M73 Q0 S374
M201 X1000 Y1000 Z200 E5000 ; sets maximum accelerations, mm/sec^2
M203 X200 Y200 Z12 E120 ; sets maximum feedrates, mm / sec
M204 P1250 R1250 T1250 ; sets acceleration (P, T) and retract acceleration (R), mm/sec^2
M205 X8.00 Y8.00 Z0.40 E4.50 ; sets the jerk limits, mm/sec
M205 S0 T0 ; sets the minimum extruding and travel feed rate, mm/sec
M107
;TYPE:Custom
M862.3 P "MK3S" ; printer model check
M862.1 P0.6 ; nozzle diameter check
M115 U3.11.0 ; tell printer latest fw version
G90 ; use absolute coordinates
M83 ; extruder relative mode
M104 S215 ; set extruder temp
M140 S60 ; set bed temp
M190 S60 ; wait for bed temp
M109 S215 ; wait for extruder temp
G28 W ; home all without mesh bed level
G80 ; mesh bed leveling

G1 Z0.2 F720
G1 Y-3 F1000 ; go outside print area
G92 E0
G1 X60 E9 F1000 ; intro line
G1 X100 E12.5 F1000 ; intro line

G92 E0
M221 S95
G21 ; set units to millimeters
G90 ; use absolute coordinates
M83 ; use relative distances for extrusion
M900 K0.04 ; Filament gcode LA 1.5
M900 K18 ; Filament gcode LA 1.0
M107
;LAYER_CHANGE
;Z:0.2
;HEIGHT:0.2
;BEFORE_LAYER_CHANGE
G92 E0.0
;0.2


M73 Q0 S373
G1 E-.8 F2100
G1 Z.4 F720
;AFTER_LAYER_CHANGE
;0.2
; printing object BigCorner.stl id:0 copy 0
G1 X54.675 Y43.825 F10800
G1 Z.2 F720
G1 E.8 F1500
M204 S800
;TYPE:Support material
;WIDTH:0.65
G1 F1200
G1 X54.675 Y50.655 E.34477
G1 X51.325 Y50.655 E.16911
G1 X51.325 Y43.825 E.34477
G1 X54.584 Y43.825 E.16452
M204 S1000
G1 X53.5 Y50.382 F10800
M204 S800
G1 F1200
G1 X53.5 Y44.371 E.3034
G1 X52.825 Y44.371 E.03405
G1 X52.825 Y50.109 E.28961
G1 X52.151 Y50.109 E.03405
G1 X52.151 Y44.098 E.3034
M204 S1000
;WIPE_START
G1 F8640
G1 X52.151 Y47.39 E-.76
;WIPE_END
G1 E-.04 F2100
G1 Z.6 F720
G1 X198.675 Y162.825 F10800
G1 Z.2 F720
G1 E.8 F1500
M204 S800
G1 F1200
G1 X198.675 Y166.175 E.16911
G1 X191.845 Y166.175 E.34478
G1 X191.845 Y162.825 E.16911
G1 X198.584 Y162.825 E.34018
M204 S1000
G1 X197.849 Y165.902 F10800
M204 S800
G1 F1200
G1 X197.849 Y163.371 E.12774
G1 X197.175 Y163.371 E.03405
G1 X197.175 Y165.629 E.11395
G1 X196.5 Y165.629 E.03405
G1 X196.5 Y163.371 E.11395
G1 X195.826 Y163.371 E.03405
G1 X195.826 Y165.629 E.11395
G1 X195.151 Y165.629 E.03405
G1 X195.151 Y163.371 E.11395
G1 X194.477 Y163.371 E.03405
G1 X194.477 Y165.629 E.11395
G1 X193.802 Y165.629 E.03405
G1 X193.802 Y163.371 E.11395
G1 X193.128 Y163.371 E.03405
G1 X193.128 Y165.629 E.11395
G1 X192.453 Y165.629 E.03405
G1 X192.453 Y163.098 E.12774
M204 S1000
;WIPE_START
G1 F8640
G1 X192.453 Y165.629 E-.58431
G1 X193.128 Y165.629 E-.15575
G1 X193.128 Y165.542 E-.01994
;WIPE_END
G1 E-.04 F2100
G1 Z.6 F720
G1 X190.475 Y165.975 F10800
G1 Z.2 F720
G1 E.8 F1500
M204 S800
;TYPE:External perimeter
G1 F1200
G1 X51.525 Y165.975 E7.01404
G1 X51.525 Y52.025 E5.75207
G1 X190.475 Y52.025 E7.01404
G1 X190.475 Y165.885 E5.74752
M204 S1000
G1 X189.891 Y165.839 F10800
G1 X189.868 Y165.368
M204 S800
;TYPE:Perimeter
G1 F1200
G1 X52.132 Y165.368 E6.95275
G1 X52.132 Y52.632 E5.69078
G1 X189.868 Y52.632 E6.95275
M73 P0 R360
G1 X189.868 Y165.278 E5.68624
M204 S1000
;WIPE_START
G1 F8640
M73 Q0 S372
G1 X186.576 Y165.28 E-.76
;WIPE_END
G1 E-.04 F2100
G1 Z.6 F720
G1 X116.525 Y127.025 F10800
G1 Z.2 F720
G1 E.8 F1500
M204 S800
;TYPE:External perimeter
G1 F1200
G1 X55.475 Y127.025 E3.08174
G1 X55.475 Y65.975 E3.08174
G1 X116.525 Y65.975 E3.08174
G1 X116.525 Y126.935 E3.07719
M204 S1000
G1 X116.68 Y127.605 F10800
G1 X117.132 Y127.632
M204 S800
;TYPE:Perimeter
G1 F1200
G1 X54.868 Y127.632 E3.14302
G1 X54.868 Y65.368 E3.14302
G1 X117.132 Y65.368 E3.14302
G1 X117.132 Y127.542 E3.13848
M204 S1000
;WIPE_START
G1 F8640
G1 X113.841 Y127.547 E-.76
;WIPE_END
G1 E-.04 F2100
G1 Z.6 F720
G1 X188.458 Y52.814 F10800
G1 Z.2 F720
G1 E.8 F1500
M204 S800
;TYPE:Solid infill
;WIDTH:0.650071
G1 F1200
G1 X189.413 Y53.768 E.06812
G1 X189.413 Y54.627 E.04335
G1 X187.873 Y53.087 E.10992
G1 X187.014 Y53.087 E.04335
G1 X189.413 Y55.486 E.17123
G1 X189.413 Y56.344 E.04335
G1 X186.156 Y53.087 E.23253
G1 X185.297 Y53.087 E.04335
G1 X189.413 Y57.203 E.29383
G1 X189.413 Y58.062 E.04335
G1 X184.438 Y53.087 E.35514
G1 X183.58 Y53.087 E.04335
G1 X189.413 Y58.92 E.41644
G1 X189.413 Y59.779 E.04335
G1 X182.721 Y53.087 E.47774
G1 X181.863 Y53.087 E.04335
G1 X189.413 Y60.637 E.53905
G1 X189.413 Y61.496 E.04335
G1 X181.004 Y53.087 E.60035
G1 X180.145 Y53.087 E.04335
G1 X189.413 Y62.355 E.66166
G1 X189.413 Y63.213 E.04335
G1 X179.287 Y53.087 E.72296
G1 X178.428 Y53.087 E.04335
G1 X189.413 Y64.072 E.78426
G1 X189.413 Y64.931 E.04335
G1 X177.569 Y53.087 E.84557
G1 X176.711 Y53.087 E.04335
G1 X189.413 Y65.789 E.90687
G1 X189.413 Y66.648 E.04335
G1 X175.852 Y53.087 E.96817
G1 X174.993 Y53.087 E.04335
G1 X189.413 Y67.507 E1.02948
G1 X189.413 Y68.365 E.04335
G1 X174.135 Y53.087 E1.09078
G1 X173.276 Y53.087 E.04335
G1 X189.413 Y69.224 E1.15209
G1 X189.413 Y70.083 E.04335
G1 X172.417 Y53.087 E1.21339
G1 X171.559 Y53.087 E.04335
G1 X189.413 Y70.941 E1.27469
G1 X189.413 Y71.8 E.04335
G1 X170.7 Y53.087 E1.336
G1 X169.842 Y53.087 E.04335
M73 P0 R359
G1 X189.413 Y72.658 E1.3973
G1 X189.413 Y73.517 E.04335
G1 X168.983 Y53.087 E1.4586
G1 X168.124 Y53.087 E.04335
G1 X189.413 Y74.376 E1.51991
G1 X189.413 Y75.234 E.04335
G1 X167.266 Y53.087 E1.58121
G1 X166.407 Y53.087 E.04335
G1 X189.413 Y76.093 E1.64252
G1 X189.413 Y76.952 E.04335
G1 X165.548 Y53.087 E1.70382
G1 X164.69 Y53.087 E.04335
G1 X189.413 Y77.81 E1.76512
G1 X189.413 Y78.669 E.04335
G1 X163.831 Y53.087 E1.82643
G1 X162.972 Y53.087 E.04335
G1 X189.413 Y79.528 E1.88773
G1 X189.413 Y80.386 E.04335
M73 Q0 S371
G1 X162.114 Y53.087 E1.94904
G1 X161.255 Y53.087 E.04335
G1 X189.413 Y81.245 E2.01034
G1 X189.413 Y82.103 E.04335
G1 X160.397 Y53.087 E2.07164
G1 X159.538 Y53.087 E.04335
G1 X189.413 Y82.962 E2.13295
G1 X189.413 Y83.821 E.04335
G1 X158.679 Y53.087 E2.19425
G1 X157.821 Y53.087 E.04335
G1 X189.413 Y84.679 E2.25555
G1 X189.413 Y85.538 E.04335
G1 X156.962 Y53.087 E2.31686
G1 X156.103 Y53.087 E.04335
G1 X189.413 Y86.397 E2.37816
G1 X189.413 Y87.255 E.04335
G1 X155.245 Y53.087 E2.43947
G1 X154.386 Y53.087 E.04335
G1 X189.413 Y88.114 E2.50077
G1 X189.413 Y88.973 E.04335
G1 X153.527 Y53.087 E2.56207
G1 X152.669 Y53.087 E.04335
G1 X189.413 Y89.831 E2.62338
G1 X189.413 Y90.69 E.04335
G1 X151.81 Y53.087 E2.68468
G1 X150.951 Y53.087 E.04335
G1 X189.413 Y91.549 E2.74598
G1 X189.413 Y92.407 E.04335
G1 X150.093 Y53.087 E2.80729
G1 X149.234 Y53.087 E.04335
G1 X189.413 Y93.266 E2.86859
G1 X189.413 Y94.124 E.04335
G1 X148.376 Y53.087 E2.9299
G1 X147.517 Y53.087 E.04335
G1 X189.413 Y94.983 E2.9912
G1 X189.413 Y95.842 E.04335
M73 P0 R358
G1 X146.658 Y53.087 E3.0525
G1 X145.8 Y53.087 E.04335
G1 X189.413 Y96.7 E3.11381
G1 X189.413 Y97.559 E.04335
G1 X144.941 Y53.087 E3.17511
G1 X144.082 Y53.087 E.04335
G1 X189.413 Y98.418 E3.23642
G1 X189.413 Y99.276 E.04335
G1 X143.224 Y53.087 E3.29772
G1 X142.365 Y53.087 E.04335
M73 Q0 S370
G1 X189.413 Y100.135 E3.35902
G1 X189.413 Y100.994 E.04335
G1 X141.506 Y53.087 E3.42033
G1 X140.648 Y53.087 E.04335
G1 X189.413 Y101.852 E3.48163
G1 X189.413 Y102.711 E.04335
G1 X139.789 Y53.087 E3.54293
G1 X138.93 Y53.087 E.04335
G1 X189.413 Y103.57 E3.60424
G1 X189.413 Y104.428 E.04335
G1 X138.072 Y53.087 E3.66554
G1 X137.213 Y53.087 E.04335
G1 X189.413 Y105.287 E3.72685
G1 X189.413 Y106.145 E.04335
G1 X136.355 Y53.087 E3.78815
G1 X135.496 Y53.087 E.04335
G1 X189.413 Y107.004 E3.84945
G1 X189.413 Y107.863 E.04335
G1 X134.637 Y53.087 E3.91076
G1 X133.779 Y53.087 E.04335
M73 P1 R358
G1 X189.413 Y108.721 E3.97206
G1 X189.413 Y109.58 E.04335
M73 Q1 S370
G1 X132.92 Y53.087 E4.03336
G1 X132.061 Y53.087 E.04335
M73 P1 R357
G1 X189.413 Y110.439 E4.09467
G1 X189.413 Y111.297 E.04335
G1 X131.203 Y53.087 E4.15597
G1 X130.344 Y53.087 E.04335
G1 X189.413 Y112.156 E4.21728
G1 X189.413 Y113.015 E.04335
G1 X129.485 Y53.087 E4.27858
G1 X128.627 Y53.087 E.04335
M73 Q1 S369
G1 X189.413 Y113.873 E4.33988
G1 X189.413 Y114.732 E.04335
G1 X127.768 Y53.087 E4.40119
G1 X126.91 Y53.087 E.04335
G1 X189.413 Y115.59 E4.46249
G1 X189.413 Y116.449 E.04335
G1 X126.051 Y53.087 E4.5238
G1 X125.192 Y53.087 E.04335
G1 X189.413 Y117.308 E4.5851
G1 X189.413 Y118.166 E.04335
G1 X124.334 Y53.087 E4.6464
G1 X123.475 Y53.087 E.04335
G1 X189.413 Y119.025 E4.70771
G1 X189.413 Y119.884 E.04335
G1 X122.616 Y53.087 E4.76901
G1 X121.758 Y53.087 E.04335
G1 X189.413 Y120.742 E4.83031
G1 X189.413 Y121.601 E.04335
M73 P1 R356
G1 X120.899 Y53.087 E4.89162
G1 X120.04 Y53.087 E.04335
G1 X189.413 Y122.46 E4.95292
G1 X189.413 Y123.318 E.04335
G1 X119.182 Y53.087 E5.01423
G1 X118.323 Y53.087 E.04335
M73 Q1 S368
G1 X189.413 Y124.177 E5.07553
G1 X189.413 Y125.036 E.04335
G1 X117.464 Y53.087 E5.13683
G1 X116.606 Y53.087 E.04335
G1 X189.413 Y125.894 E5.19814
G1 X189.413 Y126.753 E.04335
G1 X115.747 Y53.087 E5.25944
G1 X114.889 Y53.087 E.04335
G1 X189.413 Y127.611 E5.32074
G1 X189.413 Y128.47 E.04335
G1 X114.03 Y53.087 E5.38205
G1 X113.171 Y53.087 E.04335
G1 X189.413 Y129.329 E5.44335
G1 X189.413 Y130.187 E.04335
G1 X112.313 Y53.087 E5.50466
G1 X111.454 Y53.087 E.04335
G1 X189.413 Y131.046 E5.56596
G1 X189.413 Y131.905 E.04335
M73 P1 R355
G1 X110.595 Y53.087 E5.62726
G1 X109.737 Y53.087 E.04335
G1 X189.413 Y132.763 E5.68857
G1 X189.413 Y133.622 E.04335
G1 X108.878 Y53.087 E5.74987
G1 X108.019 Y53.087 E.04335
M73 Q1 S367
G1 X189.413 Y134.481 E5.81118
G1 X189.413 Y135.339 E.04335
G1 X107.161 Y53.087 E5.87248
G1 X106.302 Y53.087 E.04335
G1 X189.413 Y136.198 E5.93378
G1 X189.413 Y137.057 E.04335
G1 X105.443 Y53.087 E5.99509
G1 X104.585 Y53.087 E.04335
G1 X116.41 Y64.913 E.84428
G1 X115.551 Y64.913 E.04335
G1 X103.726 Y53.087 E.84428
G1 X102.868 Y53.087 E.04335
G1 X114.693 Y64.913 E.84428
G1 X113.834 Y64.913 E.04335
G1 X102.009 Y53.087 E.84428
G1 X101.15 Y53.087 E.04335
G1 X112.976 Y64.913 E.84428
G1 X112.117 Y64.913 E.04335
G1 X100.292 Y53.087 E.84428
G1 X99.433 Y53.087 E.04335
G1 X111.258 Y64.913 E.84428
G1 X110.4 Y64.913 E.04335
G1 X98.574 Y53.087 E.84428
G1 X97.716 Y53.087 E.04335
G1 X109.541 Y64.913 E.84428
G1 X108.682 Y64.913 E.04335
G1 X96.857 Y53.087 E.84428
G1 X95.998 Y53.087 E.04335
G1 X107.824 Y64.913 E.84428
G1 X106.965 Y64.913 E.04335
G1 X95.14 Y53.087 E.84428
G1 X94.281 Y53.087 E.04335
G1 X106.106 Y64.913 E.84428
G1 X105.248 Y64.913 E.04335
G1 X93.423 Y53.087 E.84428
G1 X92.564 Y53.087 E.04335
G1 X104.389 Y64.913 E.84428
G1 X103.53 Y64.913 E.04335
G1 X91.705 Y53.087 E.84428
G1 X90.847 Y53.087 E.04335
G1 X102.672 Y64.913 E.84428
G1 X101.813 Y64.913 E.04335
G1 X89.988 Y53.087 E.84428
G1 X89.129 Y53.087 E.04335
G1 X100.955 Y64.913 E.84428
G1 X100.096 Y64.913 E.04335
M73 P1 R354
G1 X88.271 Y53.087 E.84428
G1 X87.412 Y53.087 E.04335
G1 X99.237 Y64.913 E.84428
G1 X98.379 Y64.913 E.04335
G1 X86.553 Y53.087 E.84428
G1 X85.695 Y53.087 E.04335
G1 X97.52 Y64.913 E.84428
G1 X96.661 Y64.913 E.04335
G1 X84.836 Y53.087 E.84428
G1 X83.977 Y53.087 E.04335
G1 X95.803 Y64.913 E.84428
G1 X94.944 Y64.913 E.04335
G1 X83.119 Y53.087 E.84428
G1 X82.26 Y53.087 E.04335
G1 X94.085 Y64.913 E.84428
G1 X93.227 Y64.913 E.04335
G1 X81.402 Y53.087 E.84428
G1 X80.543 Y53.087 E.04335
G1 X92.368 Y64.913 E.84428
G1 X91.509 Y64.913 E.04335
G1 X79.684 Y53.087 E.84428
G1 X78.826 Y53.087 E.04335
G1 X90.651 Y64.913 E.84428
G1 X89.792 Y64.913 E.04335
G1 X77.967 Y53.087 E.84428
G1 X77.108 Y53.087 E.04335
G1 X88.934 Y64.913 E.84428
G1 X88.075 Y64.913 E.04335
G1 X76.25 Y53.087 E.84428
G1 X75.391 Y53.087 E.04335
G1 X87.216 Y64.913 E.84428
G1 X86.358 Y64.913 E.04335
M73 Q1 S366
G1 X74.532 Y53.087 E.84428
G1 X73.674 Y53.087 E.04335
G1 X85.499 Y64.913 E.84428
G1 X84.64 Y64.913 E.04335
G1 X72.815 Y53.087 E.84428
G1 X71.956 Y53.087 E.04335
G1 X83.782 Y64.913 E.84428
G1 X82.923 Y64.913 E.04335
G1 X71.098 Y53.087 E.84428
G1 X70.239 Y53.087 E.04335
G1 X82.064 Y64.913 E.84428
G1 X81.206 Y64.913 E.04335
G1 X69.381 Y53.087 E.84428
G1 X68.522 Y53.087 E.04335
G1 X80.347 Y64.913 E.84428
G1 X79.489 Y64.913 E.04335
G1 X67.663 Y53.087 E.84428
G1 X66.805 Y53.087 E.04335
G1 X78.63 Y64.913 E.84428
G1 X77.771 Y64.913 E.04335
G1 X65.946 Y53.087 E.84428
G1 X65.087 Y53.087 E.04335
G1 X76.913 Y64.913 E.84428
G1 X76.054 Y64.913 E.04335
G1 X64.229 Y53.087 E.84428
G1 X63.37 Y53.087 E.04335
G1 X75.195 Y64.913 E.84428
G1 X74.337 Y64.913 E.04335
G1 X62.511 Y53.087 E.84428
G1 X61.653 Y53.087 E.04335
M73 P2 R354
G1 X73.478 Y64.913 E.84428
G1 X72.619 Y64.913 E.04335
G1 X60.794 Y53.087 E.84428
G1 X59.935 Y53.087 E.04335
G1 X71.761 Y64.913 E.84428
G1 X70.902 Y64.913 E.04335
G1 X59.077 Y53.087 E.84428
G1 X58.218 Y53.087 E.04335
G1 X70.043 Y64.913 E.84428
G1 X69.185 Y64.913 E.04335
G1 X57.36 Y53.087 E.84428
G1 X56.501 Y53.087 E.04335
G1 X68.326 Y64.913 E.84428
G1 X67.468 Y64.913 E.04335
G1 X55.642 Y53.087 E.84428
G1 X54.784 Y53.087 E.04335
G1 X66.609 Y64.913 E.84428
G1 X65.75 Y64.913 E.04335
G1 X53.925 Y53.087 E.84428
G1 X53.066 Y53.087 E.04335
G1 X64.892 Y64.913 E.84428
G1 X64.033 Y64.913 E.04335
G1 X52.587 Y53.467 E.81717
G1 X52.587 Y54.326 E.04335
G1 X63.174 Y64.913 E.75587
G1 X62.316 Y64.913 E.04335
G1 X52.587 Y55.184 E.69457
G1 X52.587 Y56.043 E.04335
G1 X61.457 Y64.913 E.63326
G1 X60.598 Y64.913 E.04335
G1 X52.587 Y56.902 E.57196
G1 X52.587 Y57.76 E.04335
G1 X59.74 Y64.913 E.51065
G1 X58.881 Y64.913 E.04335
M73 Q2 S366
G1 X52.587 Y58.619 E.44935
G1 X52.587 Y59.478 E.04335
G1 X58.022 Y64.913 E.38805
G1 X57.164 Y64.913 E.04335
G1 X52.587 Y60.336 E.32674
G1 X52.587 Y61.195 E.04335
G1 X56.305 Y64.913 E.26544
G1 X55.447 Y64.913 E.04335
G1 X52.587 Y62.053 E.20413
G1 X52.587 Y62.912 E.04335
G1 X54.588 Y64.913 E.14283
G1 X54.413 Y64.913 E.00885
G1 X54.413 Y65.596 E.0345
G1 X52.587 Y63.771 E.13032
G1 X52.587 Y64.629 E.04335
G1 X54.413 Y66.455 E.13032
G1 X54.413 Y67.313 E.04335
G1 X52.587 Y65.488 E.13032
G1 X52.587 Y66.347 E.04335
G1 X54.413 Y68.172 E.13032
G1 X54.413 Y69.031 E.04335
G1 X52.587 Y67.205 E.13032
G1 X52.587 Y68.064 E.04335
G1 X54.413 Y69.889 E.13032
G1 X54.413 Y70.748 E.04335
G1 X52.587 Y68.923 E.13032
G1 X52.587 Y69.781 E.04335
G1 X54.413 Y71.606 E.13032
G1 X54.413 Y72.465 E.04335
G1 X52.587 Y70.64 E.13032
G1 X52.587 Y71.498 E.04335
G1 X54.413 Y73.324 E.13032
G1 X54.413 Y74.182 E.04335
G1 X52.587 Y72.357 E.13032
G1 X52.587 Y73.216 E.04335
G1 X54.413 Y75.041 E.13032
G1 X54.413 Y75.9 E.04335
G1 X52.587 Y74.074 E.13032
G1 X52.587 Y74.933 E.04335
G1 X54.413 Y76.758 E.13032
G1 X54.413 Y77.617 E.04335
G1 X52.587 Y75.792 E.13032
G1 X52.587 Y76.65 E.04335
G1 X54.413 Y78.476 E.13032
G1 X54.413 Y79.334 E.04335
G1 X52.587 Y77.509 E.13032
G1 X52.587 Y78.368 E.04335
G1 X54.413 Y80.193 E.13032
G1 X54.413 Y81.052 E.04335
G1 X52.587 Y79.226 E.13032
G1 X52.587 Y80.085 E.04335
G1 X54.413 Y81.91 E.13032
G1 X54.413 Y82.769 E.04335
G1 X52.587 Y80.944 E.13032
G1 X52.587 Y81.802 E.04335
G1 X54.413 Y83.627 E.13032
G1 X54.413 Y84.486 E.04335
G1 X52.587 Y82.661 E.13032
G1 X52.587 Y83.519 E.04335
G1 X54.413 Y85.345 E.13032
G1 X54.413 Y86.203 E.04335
G1 X52.587 Y84.378 E.13032
G1 X52.587 Y85.237 E.04335
G1 X54.413 Y87.062 E.13032
G1 X54.413 Y87.921 E.04335
G1 X52.587 Y86.095 E.13032
G1 X52.587 Y86.954 E.04335
G1 X54.413 Y88.779 E.13032
G1 X54.413 Y89.638 E.04335
G1 X52.587 Y87.813 E.13032
G1 X52.587 Y88.671 E.04335
G1 X54.413 Y90.497 E.13032
G1 X54.413 Y91.355 E.04335
G1 X52.587 Y89.53 E.13032
G1 X52.587 Y90.389 E.04335
G1 X54.413 Y92.214 E.13032
G1 X54.413 Y93.072 E.04335
G1 X52.587 Y91.247 E.13032
G1 X52.587 Y92.106 E.04335
G1 X54.413 Y93.931 E.13032
G1 X54.413 Y94.79 E.04335
G1 X52.587 Y92.965 E.13032
G1 X52.587 Y93.823 E.04335
G1 X54.413 Y95.648 E.13032
G1 X54.413 Y96.507 E.04335
G1 X52.587 Y94.682 E.13032
G1 X52.587 Y95.54 E.04335
G1 X54.413 Y97.366 E.13032
G1 X54.413 Y98.224 E.04335
G1 X52.587 Y96.399 E.13032
G1 X52.587 Y97.258 E.04335
