; generated by PrusaSlicer 2.4.2+x64 on 2023-02-07 at 20:29:54 UTC


;
;
; 

; external perimeters extrusion width = 0.65mm
; perimeters extrusion width = 0.65mm
; infill extrusion width = 0.65mm
; solid infill extrusion width = 0.65mm
; top infill extrusion width = 0.60mm
; support material extrusion width = 0.55mm
; first layer extrusion width = 0.65mm

M73 P0 R181
M73 Q0 S182
M201 X1000 Y1000 Z200 E5000 ; sets maximum accelerations, mm/sec^2
M203 X200 Y200 Z12 E120 ; sets maximum feedrates, mm / sec
M204 P1250 R1250 T1250 ; sets acceleration (P, T) and retract acceleration (R), mm/sec^2
M205 X8.00 Y8.00 Z0.40 E4.50 ; sets the jerk limits, mm/sec
M205 S0 T0 ; sets the minimum extruding and travel feed rate, mm/sec
M107
;TYPE:Custom
M862.3 P "MK3S" ; printer model check
M862.1 P0.6 ; nozzle diameter check
M115 U3.11.0 ; tell printer latest fw version
G90 ; use absolute coordinates
M83 ; extruder relative mode
M104 S230 ; set extruder temp
M140 S85 ; set bed temp
M190 S85 ; wait for bed temp
M109 S230 ; wait for extruder temp
G28 W ; home all without mesh bed level
G80 ; mesh bed leveling

G1 Z0.2 F720
G1 Y-3 F1000 ; go outside print area
G92 E0
G1 X60 E9 F1000 ; intro line
G1 X100 E12.5 F1000 ; intro line

G92 E0
M221 S95
G21 ; set units to millimeters
G90 ; use absolute coordinates
M83 ; use relative distances for extrusion
M900 K0.04 ; Filament gcode LA 1.5
M900 K24 ; Filament gcode LA 1.0
M107
;LAYER_CHANGE
;Z:0.2
;HEIGHT:0.2
;BEFORE_LAYER_CHANGE
G92 E0.0
;0.2


G1 E-1 F2100
G1 Z.2 F720
;AFTER_LAYER_CHANGE
;0.2
; printing object LowerCarouselActuatorPlate.stl id:0 copy 0
G1 Z.4
G1 X225.211 Y188.711 F10800
G1 Z.2 F720
G1 E1 F1500
M204 S800
;TYPE:External perimeter
;WIDTH:0.65
G1 F1200
G1 X225.735 Y188.309 E.03333
G1 X226.345 Y188.057 E.03333
G1 X226.954 Y187.977 E.03098
G1 X227.653 Y188.056 E.03553
G1 X228.278 Y188.328 E.03439
G1 X228.772 Y188.792 E.03419
G1 X228.936 Y189.107 E.01794
G1 X229.249 Y189.9 E.04306
G1 X229.328 Y190.5 E.03053
G1 X229.248 Y191.104 E.03075
G1 X228.91 Y191.899 E.04363
G1 X228.707 Y192.207 E.01861
G1 X228.399 Y192.41 E.01861
G1 X227.604 Y192.748 E.04363
G1 X227 Y192.828 E.03075
G1 X226.4 Y192.749 E.03053
G1 X225.607 Y192.436 E.04306
G1 X225.292 Y192.272 E.01794
G1 X224.827 Y191.777 E.03428
G1 X224.558 Y191.158 E.03407
G1 X224.47 Y190.5 E.03348
G1 X224.557 Y189.845 E.03334
G1 X224.809 Y189.235 E.03333
G1 X225.157 Y188.783 E.02879
M204 S1000
G1 X225.056 Y188.132 F10800
;WIPE_START
G1 F8640
G1 X225.735 Y188.309 E-.17263
G1 X226.345 Y188.057 E-.15247
G1 X226.954 Y187.977 E-.14173
G1 X227.653 Y188.056 E-.16252
G1 X228.278 Y188.328 E-.15731
G1 X228.772 Y188.792 E-.1564
G1 X228.786 Y188.818 E-.00694
;WIPE_END
G1 E-.05 F2100
G1 Z.4 F720
G1 X158.471 Y150.791 F10800
G1 Z.2 F720
G1 E1 F1500
M204 S800
;TYPE:Perimeter
G1 F1200
G1 X156.47 Y153.91 E.18704
G1 X154.197 Y156.799 E.18559
G1 X151.717 Y159.401 E.18145
G1 X148.882 Y161.867 E.18965
G1 X145.887 Y164 E.18564
G1 X142.703 Y165.839 E.18559
G1 X139.359 Y167.366 E.18559
G1 X135.884 Y168.568 E.18559
G1 X132.311 Y169.435 E.18559
G1 X128.672 Y169.958 E.18559
G1 X125 Y170.133 E.18559
G1 X121.328 Y169.958 E.18559
G1 X117.689 Y169.435 E.18559
G1 X114.116 Y168.568 E.18559
G1 X110.641 Y167.366 E.18559
G1 X107.297 Y165.839 E.18559
G1 X104.113 Y164 E.18559
G1 X101.118 Y161.868 E.18559
G1 X98.34 Y159.46 E.18559
G1 X95.803 Y156.799 E.18559
G1 X93.53 Y153.91 E.18559
G1 X91.543 Y150.817 E.18558
G1 X89.858 Y147.549 E.18559
G1 X88.491 Y144.136 E.18559
G1 X87.456 Y140.608 E.18559
G1 X86.76 Y136.998 E.18558
G1 X86.41 Y133.338 E.18559
G1 X86.41 Y129.662 E.18559
G1 X86.76 Y126.002 E.18559
G1 X87.456 Y122.392 E.18558
G1 X88.491 Y118.864 E.18559
G1 X89.858 Y115.451 E.18559
G1 X91.543 Y112.183 E.18559
G1 X93.53 Y109.09 E.18558
G1 X95.803 Y106.201 E.18559
G1 X98.34 Y103.54 E.18559
G1 X101.118 Y101.132 E.18559
G1 X104.113 Y99 E.18559
G1 X107.297 Y97.161 E.18559
G1 X110.641 Y95.634 E.18559
G1 X114.116 Y94.432 E.18559
G1 X117.689 Y93.565 E.18559
G1 X121.328 Y93.042 E.18559
G1 X124.918 Y92.871 E.18145
G1 X128.671 Y93.041 E.18965
G1 X132.311 Y93.565 E.18563
G1 X135.884 Y94.432 E.18559
G1 X139.359 Y95.634 E.18559
G1 X142.703 Y97.161 E.18559
G1 X145.887 Y99 E.18559
G1 X148.882 Y101.132 E.18559
G1 X151.66 Y103.54 E.18559
G1 X154.197 Y106.201 E.18559
G1 X156.47 Y109.09 E.18559
G1 X158.457 Y112.183 E.18558
G1 X160.142 Y115.451 E.18559
G1 X161.509 Y118.864 E.18559
G1 X162.544 Y122.392 E.18559
G1 X163.24 Y126.002 E.18558
G1 X163.59 Y129.662 E.18559
G1 X163.59 Y133.338 E.18559
G1 X163.24 Y136.998 E.18559
G1 X162.544 Y140.608 E.18558
G1 X161.509 Y144.136 E.18559
G1 X160.142 Y147.549 E.18559
G1 X158.512 Y150.711 E.17958
M204 S1000
G1 X157.931 Y150.513 F10800
M204 S800
;TYPE:External perimeter
G1 F1200
G1 X155.975 Y153.557 E.18266
G1 X153.738 Y156.401 E.18267
G1 X151.297 Y158.962 E.17856
G1 X148.506 Y161.39 E.18673
G1 X145.558 Y163.489 E.18268
G1 X142.424 Y165.298 E.18267
G1 X139.133 Y166.802 E.18267
G1 X135.713 Y167.985 E.18267
G1 X132.196 Y168.838 E.18267
G1 X128.615 Y169.353 E.18267
G1 X125 Y169.526 E.18267
M73 Q0 S181
G1 X121.385 Y169.353 E.18267
G1 X117.804 Y168.838 E.18267
G1 X114.287 Y167.985 E.18267
G1 X110.867 Y166.802 E.18267
G1 X107.576 Y165.298 E.18267
G1 X104.442 Y163.489 E.18267
G1 X101.494 Y161.39 E.18267
G1 X98.759 Y159.02 E.18267
G1 X96.262 Y156.401 E.18267
G1 X94.025 Y153.557 E.18267
G1 X92.069 Y150.513 E.18266
G1 X90.411 Y147.296 E.18267
G1 X89.066 Y143.937 E.18267
G1 X88.046 Y140.465 E.18267
G1 X87.361 Y136.912 E.18267
G1 X87.017 Y133.309 E.18267
G1 X87.017 Y129.691 E.18267
G1 X87.361 Y126.088 E.18267
G1 X88.046 Y122.535 E.18267
G1 X89.066 Y119.063 E.18267
G1 X90.411 Y115.704 E.18267
G1 X92.069 Y112.487 E.18267
G1 X94.025 Y109.443 E.18267
G1 X96.262 Y106.599 E.18267
G1 X98.759 Y103.98 E.18267
G1 X101.494 Y101.61 E.18267
M73 P0 R180
G1 X104.442 Y99.511 E.18267
G1 X107.576 Y97.702 E.18267
G1 X110.867 Y96.198 E.18267
G1 X114.287 Y95.015 E.18267
G1 X117.804 Y94.162 E.18267
G1 X121.385 Y93.647 E.18267
G1 X124.919 Y93.478 E.17857
G1 X128.614 Y93.647 E.18673
G1 X132.196 Y94.162 E.18268
G1 X135.713 Y95.015 E.18267
G1 X139.133 Y96.198 E.18267
G1 X142.424 Y97.702 E.18267
G1 X145.558 Y99.511 E.18267
G1 X148.506 Y101.61 E.18267
G1 X151.241 Y103.98 E.18267
G1 X153.738 Y106.599 E.18267
G1 X155.975 Y109.443 E.18267
G1 X157.931 Y112.487 E.18267
G1 X159.589 Y115.704 E.18267
G1 X160.934 Y119.063 E.18267
G1 X161.954 Y122.535 E.18267
G1 X162.639 Y126.088 E.18267
G1 X162.983 Y129.691 E.18267
G1 X162.983 Y133.309 E.18267
G1 X162.639 Y136.912 E.18267
G1 X161.954 Y140.465 E.18267
G1 X160.934 Y143.937 E.18267
G1 X159.589 Y147.296 E.18267
G1 X157.972 Y150.433 E.17812
M204 S1000
G1 X158.231 Y151.032 F10800
;WIPE_START
G1 F8640
G1 X155.975 Y153.557 E-.85624
G1 X155.724 Y153.876 E-.09376
;WIPE_END
G1 E-.05 F2100
G1 Z.4 F720
G1 X135.724 Y86.966 F10800
G1 Z.2 F720
G1 E1 F1500
M204 S800
;TYPE:Perimeter
G1 F1200
G1 X132.785 Y88.015 E.15752
G1 X129.712 Y88.729 E.15927
G1 X126.578 Y89.089 E.15927
G1 X123.422 Y89.089 E.15927
G1 X120.288 Y88.729 E.15927
G1 X117.215 Y88.015 E.15927
G1 X114.243 Y86.954 E.15927
G1 X111.411 Y85.562 E.15927
G1 X108.757 Y83.856 E.15927
G1 X106.315 Y81.859 E.15927
G1 X104.116 Y79.596 E.15927
G1 X102.189 Y77.098 E.15927
G1 X100.56 Y74.396 E.15927
G1 X99.249 Y71.526 E.15927
G1 X98.274 Y68.525 E.15927
G1 X97.647 Y65.433 E.15927
G1 X97.377 Y62.289 E.15927
G1 X97.467 Y59.135 E.15927
G1 X97.916 Y56.012 E.15927
G1 X98.719 Y52.961 E.15927
G1 X99.863 Y50.02 E.15927
G1 X101.336 Y47.23 E.15927
G1 X103.117 Y44.625 E.15927
G1 X105.183 Y42.241 E.15927
G1 X107.507 Y40.107 E.15927
G1 X110.06 Y38.253 E.15927
G1 X112.807 Y36.701 E.15927
G1 X115.714 Y35.473 E.15927
G1 X118.741 Y34.584 E.15927
G1 X121.85 Y34.046 E.15927
G1 X124.927 Y33.87 E.15558
G1 X128.149 Y34.046 E.16288
G1 X131.259 Y34.584 E.15933
G1 X134.286 Y35.473 E.15927
G1 X137.193 Y36.701 E.15927
G1 X139.876 Y38.217 E.15558
G1 X142.492 Y40.107 E.16288
G1 X144.817 Y42.241 E.15933
G1 X146.883 Y44.625 E.15927
G1 X148.664 Y47.23 E.15927
G1 X150.137 Y50.02 E.15927
G1 X151.281 Y52.961 E.15927
G1 X152.084 Y56.012 E.15927
G1 X152.533 Y59.135 E.15927
G1 X152.623 Y62.289 E.15927
G1 X152.353 Y65.433 E.15927
G1 X151.726 Y68.525 E.15927
G1 X150.774 Y71.456 E.15558
G1 X149.441 Y74.395 E.16288
G1 X147.811 Y77.098 E.15933
G1 X145.884 Y79.596 E.15927
G1 X143.685 Y81.859 E.15927
G1 X141.243 Y83.856 E.15927
G1 X138.589 Y85.562 E.15927
G1 X135.807 Y86.93 E.15648
M204 S1000
G1 X135.52 Y86.394 F10800
M204 S800
;TYPE:External perimeter
G1 F1200
G1 X132.614 Y87.431 E.15576
G1 X129.609 Y88.13 E.15577
G1 X126.543 Y88.482 E.15577
G1 X123.457 Y88.482 E.15576
G1 X120.391 Y88.13 E.15577
G1 X117.386 Y87.431 E.15577
G1 X115.322 Y86.695 E.11061
G1 X114.48 Y86.394 E.04515
G1 X111.71 Y85.033 E.15577
G1 X109.115 Y83.364 E.15576
G1 X106.726 Y81.411 E.15577
G1 X104.575 Y79.198 E.15576
G1 X102.691 Y76.755 E.15577
G1 X101.097 Y74.112 E.15576
G1 X99.816 Y71.305 E.15576
G1 X98.862 Y68.37 E.15577
G1 X98.249 Y65.346 E.15576
G1 X97.985 Y62.272 E.15576
G1 X98.073 Y59.187 E.15577
G1 X98.512 Y56.133 E.15576
G1 X99.297 Y53.149 E.15577
G1 X100.416 Y50.273 E.15577
G1 X101.856 Y47.544 E.15576
G1 X103.598 Y44.997 E.15577
G1 X105.619 Y42.665 E.15577
G1 X107.892 Y40.578 E.15577
G1 X110.389 Y38.764 E.15576
G1 X113.076 Y37.247 E.15577
G1 X115.918 Y36.046 E.15576
G1 X118.879 Y35.176 E.15577
G1 X121.919 Y34.65 E.15576
G1 X124.928 Y34.478 E.15211
G1 X128.08 Y34.65 E.15937
G1 X131.121 Y35.176 E.15579
G1 X134.082 Y36.046 E.15577
G1 X136.924 Y37.247 E.15576
G1 X139.548 Y38.729 E.15211
G1 X142.107 Y40.578 E.15937
G1 X144.381 Y42.665 E.15579
G1 X146.402 Y44.997 E.15577
G1 X148.144 Y47.544 E.15577
G1 X149.584 Y50.273 E.15576
G1 X150.703 Y53.149 E.15577
G1 X151.488 Y56.133 E.15577
G1 X151.927 Y59.187 E.15576
G1 X152.015 Y62.272 E.15577
G1 X151.751 Y65.346 E.15576
G1 X151.138 Y68.37 E.15576
G1 X150.207 Y71.236 E.15211
G1 X148.903 Y74.112 E.15937
G1 X147.309 Y76.755 E.15579
G1 X145.425 Y79.198 E.15577
G1 X143.274 Y81.411 E.15576
G1 X140.885 Y83.364 E.15577
G1 X138.29 Y85.033 E.15576
G1 X135.601 Y86.354 E.15122
M204 S1000
G1 X135.446 Y86.99 F10800
;WIPE_START
G1 F8640
G1 X132.614 Y87.431 E-.73315
G1 X131.699 Y87.644 E-.21685
;WIPE_END
G1 E-.05 F2100
G1 Z.4 F720
G1 X211.965 Y57.313 F10800
G1 Z.2 F720
G1 E1 F1500
M204 S800
;TYPE:Perimeter
G1 F1200
G1 X211.858 Y56.5 E.0414
G1 X211.965 Y55.687 E.0414
G1 X212.279 Y54.929 E.0414
G1 X212.778 Y54.278 E.0414
G1 X213.429 Y53.779 E.0414
G1 X214.187 Y53.465 E.0414
G1 X214.948 Y53.365 E.03876
G1 X215.805 Y53.462 E.04354
G1 X216.571 Y53.779 E.04184
G1 X217.222 Y54.278 E.0414
G1 X217.721 Y54.929 E.0414
G1 X218.035 Y55.687 E.0414
G1 X218.142 Y56.5 E.0414
G1 X218.035 Y57.313 E.0414
G1 X217.721 Y58.071 E.0414
G1 X217.222 Y58.722 E.0414
G1 X216.571 Y59.221 E.0414
G1 X215.813 Y59.535 E.0414
G1 X215 Y59.642 E.0414
G1 X214.187 Y59.535 E.0414
G1 X213.429 Y59.221 E.0414
G1 X212.778 Y58.722 E.0414
G1 X212.279 Y58.071 E.0414
G1 X212 Y57.396 E.03686
M204 S1000
G1 X212.557 Y57.155 F10800
M204 S800
;TYPE:External perimeter
G1 F1200
G1 X212.47 Y56.5 E.03333
G1 X212.557 Y55.845 E.03333
G1 X212.809 Y55.235 E.03333
G1 X213.211 Y54.711 E.03333
G1 X213.735 Y54.309 E.03333
G1 X214.345 Y54.057 E.03333
G1 X214.954 Y53.977 E.03097
G1 X215.652 Y54.056 E.03547
G1 X216.265 Y54.309 E.03349
G1 X216.789 Y54.711 E.03333
G1 X217.191 Y55.235 E.03333
G1 X217.443 Y55.845 E.03333
G1 X217.53 Y56.5 E.03333
G1 X217.443 Y57.155 E.03333
G1 X217.191 Y57.765 E.03333
G1 X216.789 Y58.289 E.03333
G1 X216.265 Y58.691 E.03333
G1 X215.655 Y58.943 E.03333
G1 X215 Y59.03 E.03333
G1 X214.345 Y58.943 E.03333
G1 X213.735 Y58.691 E.03333
G1 X213.211 Y58.289 E.03333
G1 X212.809 Y57.765 E.03333
G1 X212.591 Y57.238 E.02879
M204 S1000
G1 X211.977 Y56.999 F10800
;WIPE_START
G1 F8640
G1 X212.47 Y56.5 E-.17263
G1 X212.557 Y55.845 E-.15247
G1 X212.809 Y55.235 E-.15247
G1 X213.211 Y54.711 E-.15247
G1 X213.735 Y54.309 E-.15247
G1 X214.345 Y54.057 E-.15247
G1 X214.41 Y54.048 E-.015
;WIPE_END
G1 E-.05 F2100
G1 Z.4 F720
G1 X227.822 Y22.533 F10800
G1 Z.2 F720
G1 E1 F1500
M204 S800
;TYPE:Perimeter
G1 F1200
G1 X228.615 Y22.188 E.04366
G1 X228.883 Y21.937 E.01851
G1 X228.868 Y22.994 E.05337
G1 X228.868 Y187.006 E8.27913
G1 X228.883 Y188.063 E.05337
G1 X228.619 Y187.816 E.01826
G1 X227.809 Y187.463 E.04457
G1 X226.949 Y187.365 E.04372
G1 X226.187 Y187.465 E.03879
G1 X225.429 Y187.779 E.0414
G1 X224.778 Y188.278 E.0414
G1 X224.279 Y188.929 E.0414
G1 X223.965 Y189.687 E.0414
G1 X223.858 Y190.501 E.04143
G1 X223.967 Y191.322 E.04182
G1 X224.312 Y192.115 E.04366
G1 X224.563 Y192.383 E.01851
G1 X223.506 Y192.368 E.05337
G1 X26.494 Y192.368 E9.94494
G1 X25.437 Y192.383 E.05337
G1 X25.688 Y192.115 E.01851
G1 X26.033 Y191.322 E.04366
G1 X26.142 Y190.501 E.04182
G1 X26.035 Y189.687 E.04143
G1 X25.721 Y188.929 E.0414
G1 X25.222 Y188.278 E.0414
G1 X24.571 Y187.779 E.0414
G1 X23.805 Y187.462 E.04184
G1 X22.947 Y187.365 E.04357
G1 X22.178 Y187.467 E.03918
G1 X21.385 Y187.812 E.04366
G1 X21.117 Y188.063 E.01851
G1 X21.132 Y187.006 E.05337
G1 X21.132 Y22.994 E8.27913
G1 X21.117 Y21.937 E.05337
G1 X21.385 Y22.188 E.01851
G1 X22.178 Y22.533 E.04366
G1 X22.999 Y22.642 E.04182
G1 X23.813 Y22.535 E.04143
M73 Q0 S180
G1 X24.571 Y22.221 E.0414
G1 X25.222 Y21.722 E.0414
G1 X25.721 Y21.071 E.0414
G1 X26.035 Y20.313 E.0414
G1 X26.142 Y19.499 E.04143
G1 X26.033 Y18.678 E.04182
G1 X25.688 Y17.885 E.04366
G1 X25.437 Y17.617 E.01851
G1 X26.494 Y17.632 E.05337
G1 X223.506 Y17.632 E9.94494
G1 X224.563 Y17.617 E.05337
M73 P0 R179
G1 X224.312 Y17.885 E.01851
G1 X223.967 Y18.678 E.04366
G1 X223.858 Y19.499 E.04182
G1 X223.965 Y20.313 E.04143
G1 X224.279 Y21.071 E.0414
G1 X224.778 Y21.722 E.0414
G1 X225.429 Y22.221 E.0414
G1 X226.187 Y22.535 E.0414
G1 X227.001 Y22.642 E.04143
G1 X227.733 Y22.545 E.03728
M204 S1000
;WIPE_START
G1 F8640
G1 X228.615 Y22.188 E-.21979
G1 X228.883 Y21.937 E-.08467
G1 X228.868 Y22.994 E-.24415
G1 X228.868 Y24.732 E-.40139
;WIPE_END
G1 E-.05 F2100
G1 Z.4 F720
G1 X226.345 Y21.943 F10800
G1 Z.2 F720
G1 E1 F1500
M204 S800
;TYPE:External perimeter
G1 F1200
G1 X225.735 Y21.691 E.03333
G1 X225.211 Y21.289 E.03333
G1 X224.809 Y20.765 E.03333
G1 X224.557 Y20.155 E.03333
G1 X224.47 Y19.5 E.03334
G1 X224.558 Y18.842 E.03348
G1 X224.827 Y18.223 E.03407
G1 X225.292 Y17.728 E.03428
G1 X225.607 Y17.564 E.01794
G1 X226.4 Y17.251 E.04306
G1 X226.981 Y17.175 E.02958
G1 X227.603 Y17.251 E.0316
G1 X228.399 Y17.59 E.0437
G1 X228.707 Y17.793 E.01861
G1 X228.91 Y18.101 E.01861
G1 X229.248 Y18.896 E.04363
G1 X229.328 Y19.5 E.03075
G1 X229.249 Y20.1 E.03053
G1 X228.936 Y20.893 E.04306
G1 X228.772 Y21.208 E.01794
G1 X228.277 Y21.673 E.03428
G1 X227.658 Y21.942 E.03407
G1 X227 Y22.03 E.03348
G1 X226.435 Y21.955 E.0288
M204 S1000
G1 X225.921 Y22.368 F10800
;WIPE_START
G1 F8640
G1 X225.735 Y21.691 E-.17263
G1 X225.211 Y21.289 E-.15247
G1 X224.809 Y20.765 E-.15247
G1 X224.557 Y20.155 E-.15247
G1 X224.47 Y19.5 E-.15253
G1 X224.558 Y18.842 E-.15313
G1 X224.583 Y18.786 E-.01429
;WIPE_END
G1 E-.05 F2100
G1 Z.4 F720
G1 X25.53 Y19.5 F10800
G1 Z.2 F720
G1 E1 F1500
M204 S800
G1 F1200
G1 X25.443 Y20.155 E.03334
G1 X25.191 Y20.765 E.03333
G1 X24.789 Y21.289 E.03333
G1 X24.265 Y21.691 E.03333
G1 X23.655 Y21.943 E.03333
G1 X23 Y22.03 E.03334
G1 X22.342 Y21.942 E.03348
G1 X21.723 Y21.673 E.03407
G1 X21.228 Y21.208 E.03428
G1 X21.064 Y20.893 E.01794
G1 X20.751 Y20.1 E.04306
G1 X20.672 Y19.5 E.03053
G1 X20.752 Y18.896 E.03075
G1 X21.09 Y18.101 E.04363
G1 X21.293 Y17.793 E.01861
G1 X21.601 Y17.59 E.01861
G1 X22.396 Y17.252 E.04363
G1 X22.981 Y17.175 E.02981
G1 X23.598 Y17.251 E.03138
G1 X24.393 Y17.564 E.04313
G1 X24.708 Y17.728 E.01794
G1 X25.173 Y18.223 E.03428
G1 X25.442 Y18.842 E.03407
G1 X25.518 Y19.411 E.02893
M204 S1000
G1 X26.05 Y19.798 F10800
;WIPE_START
G1 F8640
G1 X25.443 Y20.155 E-.17268
G1 X25.191 Y20.765 E-.15248
G1 X24.789 Y21.289 E-.15247
G1 X24.265 Y21.691 E-.15247
G1 X23.655 Y21.943 E-.15247
G1 X23 Y22.03 E-.15252
G1 X22.936 Y22.021 E-.0149
;WIPE_END
G1 E-.05 F2100
G1 Z.4 F720
G1 X22.953 Y187.977 F10800
G1 Z.2 F720
G1 E1 F1500
M204 S800
G1 F1200
