; generated by PrusaSlicer 2.4.2+x64 on 2023-02-04 at 03:49:20 UTC


;
;
; 

; external perimeters extrusion width = 0.65mm
; perimeters extrusion width = 0.65mm
; infill extrusion width = 0.65mm
; solid infill extrusion width = 0.65mm
; top infill extrusion width = 0.60mm
; support material extrusion width = 0.55mm
; first layer extrusion width = 0.65mm

M73 P0 R440
M73 Q0 S456
M201 X1000 Y1000 Z200 E5000 ; sets maximum accelerations, mm/sec^2
M203 X200 Y200 Z12 E120 ; sets maximum feedrates, mm / sec
M204 P1250 R1250 T1250 ; sets acceleration (P, T) and retract acceleration (R), mm/sec^2
M205 X8.00 Y8.00 Z0.40 E4.50 ; sets the jerk limits, mm/sec
M205 S0 T0 ; sets the minimum extruding and travel feed rate, mm/sec
M107
;TYPE:Custom
M862.3 P "MK3S" ; printer model check
M862.1 P0.6 ; nozzle diameter check
M115 U3.11.0 ; tell printer latest fw version
G90 ; use absolute coordinates
M83 ; extruder relative mode
M104 S215 ; set extruder temp
M140 S60 ; set bed temp
M190 S60 ; wait for bed temp
M109 S215 ; wait for extruder temp
G28 W ; home all without mesh bed level
G80 ; mesh bed leveling

G1 Z0.2 F720
G1 Y-3 F1000 ; go outside print area
G92 E0
G1 X60 E9 F1000 ; intro line
G1 X100 E12.5 F1000 ; intro line

G92 E0
M221 S95
G21 ; set units to millimeters
G90 ; use absolute coordinates
M83 ; use relative distances for extrusion
M900 K0.04 ; Filament gcode LA 1.5
M900 K18 ; Filament gcode LA 1.0
M107
;LAYER_CHANGE
;Z:0.2
;HEIGHT:0.2
;BEFORE_LAYER_CHANGE
G92 E0.0
;0.2


G1 E-.8 F2100
G1 Z.4 F720
;AFTER_LAYER_CHANGE
;0.2
; printing object LowerHousingPumpMountPanel.stl id:0 copy 0
G1 X54.675 Y176.175 F10800
G1 Z.2 F720
G1 E.8 F1500
M204 S800
;TYPE:Support material
;WIDTH:0.65
G1 F1200
G1 X51.325 Y176.175 E.16911
G1 X51.325 Y169.345 E.34478
G1 X54.675 Y169.345 E.16911
G1 X54.675 Y176.084 E.34018
M204 S1000
G1 X53.5 Y175.902 F10800
M204 S800
G1 F1200
G1 X53.5 Y169.891 E.30341
G1 X52.825 Y169.891 E.03405
G1 X52.825 Y175.629 E.28962
G1 X52.151 Y175.629 E.03405
G1 X52.151 Y169.618 E.30341
M204 S1000
;WIPE_START
G1 F8640
G1 X52.151 Y172.91 E-.76
;WIPE_END
G1 E-.04 F2100
G1 Z.6 F720
G1 X198.675 Y33.825 F10800
G1 Z.2 F720
G1 E.8 F1500
M204 S800
G1 F1200
G1 X198.675 Y37.175 E.16911
G1 X191.845 Y37.175 E.34478
G1 X191.845 Y33.825 E.16911
G1 X198.584 Y33.825 E.34018
M204 S1000
G1 X197.849 Y36.902 F10800
M204 S800
G1 F1200
M73 P0 R439
G1 X197.849 Y34.371 E.12774
G1 X197.175 Y34.371 E.03405
G1 X197.175 Y36.629 E.11395
G1 X196.5 Y36.629 E.03405
G1 X196.5 Y34.371 E.11395
G1 X195.826 Y34.371 E.03405
G1 X195.826 Y36.629 E.11395
G1 X195.151 Y36.629 E.03405
G1 X195.151 Y34.371 E.11395
G1 X194.477 Y34.371 E.03405
G1 X194.477 Y36.629 E.11395
G1 X193.802 Y36.629 E.03405
G1 X193.802 Y34.371 E.11395
G1 X193.128 Y34.371 E.03405
G1 X193.128 Y36.629 E.11395
G1 X192.453 Y36.629 E.03405
G1 X192.453 Y34.098 E.12774
M204 S1000
;WIPE_START
G1 F8640
G1 X192.453 Y36.629 E-.58431
G1 X193.128 Y36.629 E-.15575
G1 X193.128 Y36.542 E-.01994
;WIPE_END
G1 E-.04 F2100
G1 Z.6 F720
G1 X190.475 Y34.098 F10800
G1 Z.2 F720
G1 E.8 F1500
M204 S800
;TYPE:External perimeter
G1 F1200
G1 X190.475 Y167.975 E6.75795
G1 X51.525 Y167.975 E7.01404
G1 X51.525 Y34.025 E6.76165
G1 X190.458 Y34.025 E7.01319
M204 S1000
G1 X190.316 Y34.677 F10800
G1 X189.868 Y34.632
M204 S800
;TYPE:Perimeter
G1 F1200
G1 X189.868 Y167.368 E6.70036
G1 X52.132 Y167.368 E6.95275
G1 X52.132 Y34.632 E6.70036
G1 X189.778 Y34.632 E6.94821
M204 S1000
;WIPE_START
M73 Q0 S455
G1 F8640
G1 X189.78 Y37.924 E-.76
;WIPE_END
G1 E-.04 F2100
G1 Z.6 F720
G1 X116.525 Y93.475 F10800
G1 Z.2 F720
G1 E.8 F1500
M204 S800
;TYPE:External perimeter
G1 F1200
G1 X116.525 Y154.525 E3.08174
G1 X55.475 Y154.525 E3.08174
M73 P0 R438
G1 X55.475 Y93.475 E3.08174
G1 X116.435 Y93.475 E3.07719
M204 S1000
G1 X117.105 Y93.32 F10800
G1 X117.132 Y92.868
M204 S800
;TYPE:Perimeter
G1 F1200
G1 X117.132 Y155.132 E3.14302
G1 X54.868 Y155.132 E3.14302
G1 X54.868 Y92.868 E3.14302
G1 X117.042 Y92.868 E3.13848
M204 S1000
;WIPE_START
G1 F8640
G1 X117.047 Y96.159 E-.76
;WIPE_END
G1 E-.04 F2100
G1 Z.6 F720
G1 X188.457 Y34.814 F10800
G1 Z.2 F720
G1 E.8 F1500
M204 S800
;TYPE:Solid infill
;WIDTH:0.650636
G1 F1200
G1 X189.413 Y35.77 E.06827
G1 X189.413 Y36.629 E.04343
G1 X187.871 Y35.087 E.11017
G1 X187.012 Y35.087 E.04343
G1 X189.413 Y37.488 E.17158
G1 X189.413 Y38.348 E.04343
G1 X186.152 Y35.087 E.233
G1 X185.293 Y35.087 E.04343
G1 X189.413 Y39.207 E.29442
G1 X189.413 Y40.067 E.04343
G1 X184.433 Y35.087 E.35584
G1 X183.574 Y35.087 E.04343
G1 X189.413 Y40.926 E.41726
G1 X189.413 Y41.786 E.04343
G1 X182.714 Y35.087 E.47867
G1 X181.855 Y35.087 E.04343
G1 X189.413 Y42.645 E.54009
G1 X189.413 Y43.504 E.04343
G1 X180.996 Y35.087 E.60151
G1 X180.136 Y35.087 E.04343
G1 X189.413 Y44.364 E.66293
G1 X189.413 Y45.223 E.04343
G1 X179.277 Y35.087 E.72435
G1 X178.417 Y35.087 E.04343
G1 X189.413 Y46.083 E.78576
G1 X189.413 Y46.942 E.04343
G1 X177.558 Y35.087 E.84718
G1 X176.698 Y35.087 E.04343
G1 X189.413 Y47.802 E.9086
G1 X189.413 Y48.661 E.04343
G1 X175.839 Y35.087 E.97002
G1 X174.979 Y35.087 E.04343
G1 X189.413 Y49.521 E1.03144
G1 X189.413 Y50.38 E.04343
G1 X174.12 Y35.087 E1.09285
G1 X173.261 Y35.087 E.04343
G1 X189.413 Y51.239 E1.15427
G1 X189.413 Y52.099 E.04343
G1 X172.401 Y35.087 E1.21569
G1 X171.542 Y35.087 E.04343
G1 X189.413 Y52.958 E1.27711
G1 X189.413 Y53.818 E.04343
G1 X170.682 Y35.087 E1.33853
G1 X169.823 Y35.087 E.04343
G1 X189.413 Y54.677 E1.39994
G1 X189.413 Y55.537 E.04343
G1 X168.963 Y35.087 E1.46136
G1 X168.104 Y35.087 E.04343
G1 X189.413 Y56.396 E1.52278
G1 X189.413 Y57.256 E.04343
G1 X167.244 Y35.087 E1.5842
G1 X166.385 Y35.087 E.04343
M73 Q0 S454
G1 X189.413 Y58.115 E1.64562
G1 X189.413 Y58.974 E.04343
G1 X165.526 Y35.087 E1.70703
G1 X164.666 Y35.087 E.04343
G1 X189.413 Y59.834 E1.76845
G1 X189.413 Y60.693 E.04343
G1 X163.807 Y35.087 E1.82987
G1 X162.947 Y35.087 E.04343
G1 X189.413 Y61.553 E1.89129
G1 X189.413 Y62.412 E.04343
G1 X162.088 Y35.087 E1.95271
G1 X161.228 Y35.087 E.04343
G1 X189.413 Y63.272 E2.01412
G1 X189.413 Y64.131 E.04343
G1 X160.369 Y35.087 E2.07554
G1 X159.51 Y35.087 E.04343
M73 P0 R437
G1 X189.413 Y64.99 E2.13696
G1 X189.413 Y65.85 E.04343
G1 X158.65 Y35.087 E2.19838
G1 X157.791 Y35.087 E.04343
G1 X189.413 Y66.709 E2.25979
G1 X189.413 Y67.569 E.04343
G1 X156.931 Y35.087 E2.32121
G1 X156.072 Y35.087 E.04343
G1 X189.413 Y68.428 E2.38263
G1 X189.413 Y69.288 E.04343
G1 X155.212 Y35.087 E2.44405
G1 X154.353 Y35.087 E.04343
G1 X189.413 Y70.147 E2.50547
G1 X189.413 Y71.007 E.04343
G1 X153.493 Y35.087 E2.56688
G1 X152.634 Y35.087 E.04343
G1 X189.413 Y71.866 E2.6283
G1 X189.413 Y72.725 E.04343
G1 X151.775 Y35.087 E2.68972
G1 X150.915 Y35.087 E.04343
G1 X189.413 Y73.585 E2.75114
G1 X189.413 Y74.444 E.04343
G1 X150.056 Y35.087 E2.81256
G1 X149.196 Y35.087 E.04343
G1 X189.413 Y75.304 E2.87397
G1 X189.413 Y76.163 E.04343
G1 X148.337 Y35.087 E2.93539
G1 X147.477 Y35.087 E.04343
G1 X189.413 Y77.023 E2.99681
G1 X189.413 Y77.882 E.04343
G1 X146.618 Y35.087 E3.05823
G1 X145.758 Y35.087 E.04343
G1 X189.413 Y78.742 E3.11965
G1 X189.413 Y79.601 E.04343
M73 Q0 S453
G1 X144.899 Y35.087 E3.18106
G1 X144.04 Y35.087 E.04343
G1 X189.413 Y80.46 E3.24248
G1 X189.413 Y81.32 E.04343
G1 X143.18 Y35.087 E3.3039
G1 X142.321 Y35.087 E.04343
G1 X189.413 Y82.179 E3.36532
G1 X189.413 Y83.039 E.04343
G1 X141.461 Y35.087 E3.42674
G1 X140.602 Y35.087 E.04343
M73 P0 R436
G1 X189.413 Y83.898 E3.48815
G1 X189.413 Y84.758 E.04343
G1 X139.742 Y35.087 E3.54957
G1 X138.883 Y35.087 E.04343
G1 X189.413 Y85.617 E3.61099
G1 X189.413 Y86.477 E.04343
G1 X138.024 Y35.087 E3.67241
G1 X137.164 Y35.087 E.04343
G1 X189.413 Y87.336 E3.73383
G1 X189.413 Y88.195 E.04343
G1 X136.305 Y35.087 E3.79524
G1 X135.445 Y35.087 E.04343
G1 X189.413 Y89.055 E3.85666
G1 X189.413 Y89.914 E.04343
G1 X134.586 Y35.087 E3.91808
G1 X133.726 Y35.087 E.04343
G1 X189.413 Y90.774 E3.9795
G1 X189.413 Y91.633 E.04343
G1 X132.867 Y35.087 E4.04092
G1 X132.007 Y35.087 E.04343
G1 X189.413 Y92.493 E4.10233
G1 X189.413 Y93.352 E.04343
G1 X131.148 Y35.087 E4.16375
G1 X130.289 Y35.087 E.04343
M73 Q0 S452
G1 X189.413 Y94.211 E4.22517
G1 X189.413 Y95.071 E.04343
G1 X129.429 Y35.087 E4.28659
G1 X128.57 Y35.087 E.04343
G1 X189.413 Y95.93 E4.34801
G1 X189.413 Y96.79 E.04343
M73 P0 R435
G1 X127.71 Y35.087 E4.40942
G1 X126.851 Y35.087 E.04343
G1 X189.413 Y97.649 E4.47084
G1 X189.413 Y98.509 E.04343
G1 X125.991 Y35.087 E4.53226
G1 X125.132 Y35.087 E.04343
M73 P1 R435
G1 X189.413 Y99.368 E4.59368
G1 X189.413 Y100.228 E.04343
G1 X124.272 Y35.087 E4.6551
G1 X123.413 Y35.087 E.04343
M73 Q1 S452
G1 X189.413 Y101.087 E4.71651
G1 X189.413 Y101.946 E.04343
G1 X122.554 Y35.087 E4.77793
G1 X121.694 Y35.087 E.04343
G1 X189.413 Y102.806 E4.83935
G1 X189.413 Y103.665 E.04343
G1 X120.835 Y35.087 E4.90077
G1 X119.975 Y35.087 E.04343
G1 X189.413 Y104.525 E4.96219
G1 X189.413 Y105.384 E.04343
M73 Q1 S451
G1 X119.116 Y35.087 E5.0236
G1 X118.256 Y35.087 E.04343
G1 X189.413 Y106.244 E5.08502
G1 X189.413 Y107.103 E.04343
G1 X117.397 Y35.087 E5.14644
G1 X116.537 Y35.087 E.04343
M73 P1 R434
G1 X189.413 Y107.963 E5.20786
G1 X189.413 Y108.822 E.04343
G1 X115.678 Y35.087 E5.26927
G1 X114.819 Y35.087 E.04343
G1 X189.413 Y109.681 E5.33069
G1 X189.413 Y110.541 E.04343
G1 X113.959 Y35.087 E5.39211
G1 X113.1 Y35.087 E.04343
G1 X189.413 Y111.4 E5.45353
G1 X189.413 Y112.26 E.04343
G1 X112.24 Y35.087 E5.51495
G1 X111.381 Y35.087 E.04343
G1 X189.413 Y113.119 E5.57636
G1 X189.413 Y113.979 E.04343
G1 X110.521 Y35.087 E5.63778
G1 X109.662 Y35.087 E.04343
M73 Q1 S450
G1 X189.413 Y114.838 E5.6992
G1 X189.413 Y115.697 E.04343
G1 X108.803 Y35.087 E5.76062
G1 X107.943 Y35.087 E.04343
G1 X189.413 Y116.557 E5.82204
G1 X189.413 Y117.416 E.04343
M73 P1 R433
G1 X107.084 Y35.087 E5.88345
G1 X106.224 Y35.087 E.04343
G1 X189.413 Y118.276 E5.94487
G1 X189.413 Y119.135 E.04343
G1 X105.365 Y35.087 E6.00629
G1 X104.505 Y35.087 E.04343
G1 X189.413 Y119.995 E6.06771
G1 X189.413 Y120.854 E.04343
G1 X103.646 Y35.087 E6.12913
G1 X102.786 Y35.087 E.04343
G1 X189.413 Y121.714 E6.19054
G1 X189.413 Y122.573 E.04343
G1 X101.927 Y35.087 E6.25196
G1 X101.068 Y35.087 E.04343
M73 Q1 S449
G1 X189.413 Y123.432 E6.31338
G1 X189.413 Y124.292 E.04343
G1 X100.208 Y35.087 E6.3748
G1 X99.349 Y35.087 E.04343
G1 X189.413 Y125.151 E6.43622
G1 X189.413 Y126.011 E.04343
M73 P1 R432
G1 X98.489 Y35.087 E6.49763
G1 X97.63 Y35.087 E.04343
G1 X189.413 Y126.87 E6.55905
G1 X189.413 Y127.73 E.04343
G1 X96.77 Y35.087 E6.62047
G1 X95.911 Y35.087 E.04343
G1 X189.413 Y128.589 E6.68189
G1 X189.413 Y129.449 E.04343
G1 X95.051 Y35.087 E6.74331
G1 X94.192 Y35.087 E.04343
G1 X189.413 Y130.308 E6.80472
G1 X189.413 Y131.167 E.04343
M73 Q1 S448
G1 X93.333 Y35.087 E6.86614
G1 X92.473 Y35.087 E.04343
G1 X189.413 Y132.027 E6.92756
G1 X189.413 Y132.886 E.04343
G1 X91.614 Y35.087 E6.98898
G1 X90.754 Y35.087 E.04343
M73 P1 R431
G1 X189.413 Y133.746 E7.0504
G1 X189.413 Y134.605 E.04343
G1 X89.895 Y35.087 E7.11181
G1 X89.035 Y35.087 E.04343
G1 X189.413 Y135.465 E7.17323
G1 X189.413 Y136.324 E.04343
G1 X88.176 Y35.087 E7.23465
G1 X87.317 Y35.087 E.04343
G1 X189.413 Y137.183 E7.29607
G1 X189.413 Y138.043 E.04343
M73 P2 R431
G1 X86.457 Y35.087 E7.35749
G1 X85.598 Y35.087 E.04343
M73 Q1 S447
G1 X189.413 Y138.902 E7.4189
G1 X189.413 Y139.762 E.04343
M73 Q2 S447
G1 X84.738 Y35.087 E7.48032
G1 X83.879 Y35.087 E.04343
M73 P2 R430
G1 X189.413 Y140.621 E7.54174
G1 X189.413 Y141.481 E.04343
G1 X83.019 Y35.087 E7.60316
G1 X82.16 Y35.087 E.04343
G1 X189.413 Y142.34 E7.66458
G1 X189.413 Y143.2 E.04343
G1 X81.3 Y35.087 E7.72599
G1 X80.441 Y35.087 E.04343
G1 X189.413 Y144.059 E7.78741
G1 X189.413 Y144.918 E.04343
G1 X79.582 Y35.087 E7.84883
G1 X78.722 Y35.087 E.04343
M73 Q2 S446
G1 X189.413 Y145.778 E7.91025
G1 X189.413 Y146.637 E.04343
G1 X77.863 Y35.087 E7.97166
G1 X77.003 Y35.087 E.04343
M73 P2 R429
G1 X189.413 Y147.497 E8.03308
G1 X189.413 Y148.356 E.04343
G1 X76.144 Y35.087 E8.0945
G1 X75.284 Y35.087 E.04343
G1 X189.413 Y149.216 E8.15592
G1 X189.413 Y150.075 E.04343
G1 X74.425 Y35.087 E8.21734
G1 X73.565 Y35.087 E.04343
G1 X189.413 Y150.935 E8.27875
G1 X189.413 Y151.794 E.04343
M73 Q2 S445
G1 X72.706 Y35.087 E8.34017
G1 X71.847 Y35.087 E.04343
G1 X189.413 Y152.653 E8.40159
G1 X189.413 Y153.513 E.04343
M73 P2 R428
G1 X70.987 Y35.087 E8.46301
G1 X70.128 Y35.087 E.04343
G1 X189.413 Y154.372 E8.52443
G1 X189.413 Y155.232 E.04343
G1 X69.268 Y35.087 E8.58584
G1 X68.409 Y35.087 E.04343
G1 X189.413 Y156.091 E8.64726
G1 X189.413 Y156.951 E.04343
G1 X67.549 Y35.087 E8.70868
G1 X66.69 Y35.087 E.04343
M73 Q2 S444
G1 X189.413 Y157.81 E8.7701
G1 X189.413 Y158.669 E.04343
G1 X65.831 Y35.087 E8.83152
G1 X64.971 Y35.087 E.04343
M73 P2 R427
G1 X189.413 Y159.529 E8.89293
G1 X189.413 Y160.388 E.04343
G1 X64.112 Y35.087 E8.95435
G1 X63.252 Y35.087 E.04343
G1 X189.413 Y161.248 E9.01577
G1 X189.413 Y162.107 E.04343
G1 X62.393 Y35.087 E9.07719
G1 X61.533 Y35.087 E.04343
G1 X189.413 Y162.967 E9.13861
G1 X189.413 Y163.826 E.04343
M73 Q2 S443
G1 X60.674 Y35.087 E9.20002
G1 X59.814 Y35.087 E.04343
G1 X189.413 Y164.686 E9.26144
G1 X189.413 Y165.545 E.04343
M73 P3 R426
G1 X117.587 Y93.72 E5.13283
G1 X117.587 Y94.579 E.04343
G1 X189.413 Y166.404 E5.13283
G1 X189.413 Y166.913 E.02568
G1 X189.061 Y166.913 E.01775
G1 X117.587 Y95.439 E5.10773
G1 X117.587 Y96.298 E.04343
G1 X188.202 Y166.913 E5.04631
G1 X187.342 Y166.913 E.04343
G1 X117.587 Y97.158 E4.98489
G1 X117.587 Y98.017 E.04343
M73 Q3 S443
G1 X186.483 Y166.913 E4.92347
G1 X185.624 Y166.913 E.04343
G1 X117.587 Y98.876 E4.86206
G1 X117.587 Y99.736 E.04343
G1 X184.764 Y166.913 E4.80064
G1 X183.905 Y166.913 E.04343
M73 Q3 S442
G1 X117.587 Y100.595 E4.73922
G1 X117.587 Y101.455 E.04343
G1 X183.045 Y166.913 E4.6778
G1 X182.186 Y166.913 E.04343
G1 X117.587 Y102.314 E4.61638
G1 X117.587 Y103.174 E.04343
M73 P3 R425
G1 X181.326 Y166.913 E4.55497
G1 X180.467 Y166.913 E.04343
G1 X117.587 Y104.033 E4.49355
G1 X117.587 Y104.892 E.04343
G1 X179.608 Y166.913 E4.43213
G1 X178.748 Y166.913 E.04343
G1 X117.587 Y105.752 E4.37071
G1 X117.587 Y106.611 E.04343
G1 X177.889 Y166.913 E4.30929
G1 X177.029 Y166.913 E.04343
G1 X117.587 Y107.471 E4.24788
G1 X117.587 Y108.33 E.04343
G1 X176.17 Y166.913 E4.18646
G1 X175.31 Y166.913 E.04343
G1 X117.587 Y109.19 E4.12504
G1 X117.587 Y110.049 E.04343
G1 X174.451 Y166.913 E4.06362
G1 X173.591 Y166.913 E.04343
G1 X117.587 Y110.909 E4.0022
G1 X117.587 Y111.768 E.04343
G1 X172.732 Y166.913 E3.94079
G1 X171.873 Y166.913 E.04343
M73 Q3 S441
G1 X117.587 Y112.627 E3.87937
G1 X117.587 Y113.487 E.04343
G1 X171.013 Y166.913 E3.81795
G1 X170.154 Y166.913 E.04343
G1 X117.587 Y114.346 E3.75653
G1 X117.587 Y115.206 E.04343
G1 X169.294 Y166.913 E3.69511
G1 X168.435 Y166.913 E.04343
M73 P3 R424
G1 X117.587 Y116.065 E3.6337
G1 X117.587 Y116.925 E.04343
G1 X167.575 Y166.913 E3.57228
G1 X166.716 Y166.913 E.04343
G1 X117.587 Y117.784 E3.51086
G1 X117.587 Y118.644 E.04343
G1 X165.856 Y166.913 E3.44944
G1 X164.997 Y166.913 E.04343
G1 X117.587 Y119.503 E3.38802
G1 X117.587 Y120.362 E.04343
G1 X164.138 Y166.913 E3.32661
G1 X163.278 Y166.913 E.04343
G1 X117.587 Y121.222 E3.26519
G1 X117.587 Y122.081 E.04343
G1 X162.419 Y166.913 E3.20377
G1 X161.559 Y166.913 E.04343
G1 X117.587 Y122.941 E3.14235
G1 X117.587 Y123.8 E.04343
G1 X160.7 Y166.913 E3.08094
G1 X159.84 Y166.913 E.04343
G1 X117.587 Y124.66 E3.01952
G1 X117.587 Y125.519 E.04343
G1 X158.981 Y166.913 E2.9581
G1 X158.122 Y166.913 E.04343
G1 X117.587 Y126.378 E2.89668
G1 X117.587 Y127.238 E.04343
M73 Q3 S440
G1 X157.262 Y166.913 E2.83526
G1 X156.403 Y166.913 E.04343
G1 X117.587 Y128.097 E2.77385
G1 X117.587 Y128.957 E.04343
G1 X155.543 Y166.913 E2.71243
G1 X154.684 Y166.913 E.04343
G1 X117.587 Y129.816 E2.65101
G1 X117.587 Y130.676 E.04343
G1 X153.824 Y166.913 E2.58959
G1 X152.965 Y166.913 E.04343
G1 X117.587 Y131.535 E2.52817
G1 X117.587 Y132.395 E.04343
M73 P3 R423
G1 X152.105 Y166.913 E2.46676
G1 X151.246 Y166.913 E.04343
G1 X117.587 Y133.254 E2.40534
G1 X117.587 Y134.113 E.04343
G1 X150.387 Y166.913 E2.34392
G1 X149.527 Y166.913 E.04343
