; generated by PrusaSlicer 2.4.2+x64 on 2023-02-07 at 00:58:41 UTC


;
;
; 

; external perimeters extrusion width = 0.65mm
; perimeters extrusion width = 0.65mm
; infill extrusion width = 0.65mm
; solid infill extrusion width = 0.65mm
; top infill extrusion width = 0.60mm
; support material extrusion width = 0.55mm
; first layer extrusion width = 0.65mm

M73 P0 R102
M73 Q0 S102
M201 X1000 Y1000 Z200 E5000 ; sets maximum accelerations, mm/sec^2
M203 X200 Y200 Z12 E120 ; sets maximum feedrates, mm / sec
M204 P1250 R1250 T1250 ; sets acceleration (P, T) and retract acceleration (R), mm/sec^2
M205 X8.00 Y8.00 Z0.40 E4.50 ; sets the jerk limits, mm/sec
M205 S0 T0 ; sets the minimum extruding and travel feed rate, mm/sec
M107
;TYPE:Custom
M862.3 P "MK3S" ; printer model check
M862.1 P0.6 ; nozzle diameter check
M115 U3.11.0 ; tell printer latest fw version
G90 ; use absolute coordinates
M83 ; extruder relative mode
M104 S215 ; set extruder temp
M140 S60 ; set bed temp
M190 S60 ; wait for bed temp
M109 S215 ; wait for extruder temp
G28 W ; home all without mesh bed level
G80 ; mesh bed leveling

G1 Z0.2 F720
G1 Y-3 F1000 ; go outside print area
G92 E0
G1 X60 E9 F1000 ; intro line
G1 X100 E12.5 F1000 ; intro line

G92 E0
M221 S95
G21 ; set units to millimeters
G90 ; use absolute coordinates
M83 ; use relative distances for extrusion
M900 K0.04 ; Filament gcode LA 1.5
M900 K18 ; Filament gcode LA 1.0
M107
;LAYER_CHANGE
;Z:0.2
;HEIGHT:0.2
;BEFORE_LAYER_CHANGE
G92 E0.0
;0.2


G1 E-.8 F2100
G1 Z.4 F720
;AFTER_LAYER_CHANGE
;0.2
; printing object PSU&RAMPcap.stl id:0 copy 0
G1 X119.778 Y128.528 F10800
G1 Z.2 F720
G1 E.8 F1500
M204 S800
;TYPE:Perimeter
;WIDTH:0.65
G1 F1200
G1 X120.429 Y128.029 E.0414
G1 X121.187 Y127.715 E.0414
G1 X121.948 Y127.615 E.03876
G1 X122.805 Y127.712 E.04354
G1 X123.571 Y128.029 E.04184
G1 X124.222 Y128.528 E.0414
G1 X124.721 Y129.179 E.0414
G1 X124.878 Y129.558 E.0207
G1 X125.035 Y129.937 E.0207
G1 X125.142 Y130.75 E.0414
G1 X125.035 Y131.563 E.0414
G1 X124.878 Y131.942 E.0207
G1 X124.721 Y132.321 E.0207
G1 X124.222 Y132.972 E.0414
G1 X123.571 Y133.471 E.0414
G1 X122.813 Y133.785 E.0414
G1 X122 Y133.892 E.0414
G1 X121.187 Y133.785 E.0414
G1 X120.429 Y133.471 E.0414
G1 X119.778 Y132.972 E.0414
G1 X119.279 Y132.321 E.0414
G1 X118.965 Y131.563 E.0414
G1 X118.858 Y130.75 E.0414
G1 X118.965 Y129.937 E.0414
G1 X119.279 Y129.179 E.0414
G1 X119.724 Y128.6 E.03686
M204 S1000
G1 X120.211 Y128.961 F10800
M204 S800
;TYPE:External perimeter
G1 F1200
G1 X120.735 Y128.559 E.03333
G1 X121.345 Y128.307 E.03333
G1 X121.954 Y128.227 E.03097
G1 X122.652 Y128.306 E.03547
G1 X123.265 Y128.559 E.03349
G1 X123.789 Y128.961 E.03333
G1 X124.191 Y129.485 E.03333
G1 X124.317 Y129.79 E.01667
G1 X124.443 Y130.095 E.01667
G1 X124.53 Y130.75 E.03333
G1 X124.443 Y131.405 E.03333
G1 X124.317 Y131.71 E.01667
G1 X124.191 Y132.015 E.01667
G1 X123.789 Y132.539 E.03333
G1 X123.265 Y132.941 E.03333
G1 X122.655 Y133.193 E.03333
G1 X122 Y133.28 E.03333
G1 X121.345 Y133.193 E.03333
G1 X120.735 Y132.941 E.03333
G1 X120.211 Y132.539 E.03333
G1 X119.809 Y132.015 E.03333
G1 X119.557 Y131.405 E.03333
G1 X119.47 Y130.75 E.03333
G1 X119.557 Y130.095 E.03333
G1 X119.809 Y129.485 E.03333
G1 X120.157 Y129.033 E.02879
M204 S1000
G1 X120.056 Y128.382 F10800
;WIPE_START
G1 F8640
G1 X120.735 Y128.559 E-.17263
G1 X121.345 Y128.307 E-.15247
G1 X121.954 Y128.227 E-.14168
G1 X122.652 Y128.306 E-.16226
G1 X123.176 Y128.523 E-.13096
;WIPE_END
G1 E-.04 F2100
G1 Z.6 F720
G1 X65.868 Y73.882 F10800
G1 Z.2 F720
G1 E.8 F1500
M204 S800
;TYPE:Perimeter
G1 F1200
G1 X80.132 Y73.882 E.72004
G1 X80.132 Y69.382 E.22716
G1 X118.007 Y69.382 E1.91187
G1 X118.544 Y69.374 E.02711
G1 X119.221 Y69.309 E.03432
G1 X119.045 Y69.585 E.01651
G1 X118.86 Y70.459 E.04507
G1 X118.964 Y71.309 E.04324
G1 X119.279 Y72.071 E.04162
G1 X119.778 Y72.722 E.04141
G1 X120.429 Y73.221 E.0414
G1 X121.187 Y73.535 E.0414
G1 X122 Y73.642 E.0414
G1 X122.813 Y73.535 E.0414
G1 X123.571 Y73.221 E.0414
G1 X124.222 Y72.722 E.0414
G1 X124.721 Y72.071 E.04141
G1 X125.036 Y71.309 E.04162
G1 X125.14 Y70.459 E.04324
G1 X124.955 Y69.585 E.04507
G1 X124.779 Y69.309 E.01651
G1 X125.456 Y69.374 E.03432
G1 X125.993 Y69.382 E.02711
G1 X236.868 Y69.382 E5.59683
G1 X236.868 Y73.882 E.22716
G1 X247.368 Y73.882 E.53003
G1 X247.368 Y140.618 E3.36875
M73 P0 R101
G1 X125.412 Y140.618 E6.1562
G1 X108.727 Y126.618 E1.09944
G1 X10.854 Y126.619 E4.94053
G1 X10.883 Y128.313 E.08551
G1 X10.619 Y128.066 E.01826
G1 X9.809 Y127.713 E.04457
G1 X8.948 Y127.615 E.04375
G1 X8.178 Y127.717 E.0392
G1 X7.385 Y128.062 E.04366
G1 X7.117 Y128.313 E.01851
G1 X7.146 Y126.62 E.08549
G1 X2.632 Y126.618 E.22784
G1 X2.632 Y73.882 E2.66207
G1 X5.012 Y73.882 E.12016
G1 X7.199 Y73.824 E.11043
G1 X7.106 Y72.927 E.04552
G1 X7.385 Y73.188 E.01927
G1 X8.178 Y73.533 E.04366
G1 X8.999 Y73.642 E.04182
G1 X9.813 Y73.535 E.04143
G1 X10.571 Y73.221 E.0414
G1 X11.222 Y72.722 E.0414
G1 X11.721 Y72.071 E.04141
G1 X12.036 Y71.309 E.04162
G1 X12.14 Y70.459 E.04324
G1 X11.955 Y69.585 E.04507
G1 X11.779 Y69.309 E.01651
G1 X12.456 Y69.374 E.03432
G1 X12.993 Y69.382 E.02711
G1 X65.868 Y69.382 E2.66905
G1 X65.868 Y73.792 E.22261
M204 S1000
;WIPE_START
G1 F8640
G1 X69.159 Y73.813 E-.76
;WIPE_END
G1 E-.04 F2100
G1 Z.6 F720
G1 X10.772 Y129.042 F10800
G1 Z.2 F720
G1 E.8 F1500
M204 S800
;TYPE:External perimeter
G1 F1200
G1 X10.936 Y129.357 E.01794
G1 X11.249 Y130.15 E.04306
G1 X11.328 Y130.75 E.03053
G1 X11.248 Y131.354 E.03075
G1 X10.91 Y132.149 E.04363
G1 X10.707 Y132.457 E.01861
G1 X10.399 Y132.66 E.01861
G1 X9.604 Y132.998 E.04363
G1 X9 Y133.078 E.03075
G1 X8.396 Y132.998 E.03076
G1 X7.601 Y132.66 E.04361
G1 X7.293 Y132.457 E.0186
G1 X7.09 Y132.149 E.01862
G1 X6.752 Y131.354 E.04363
G1 X6.672 Y130.75 E.03075
G1 X6.751 Y130.15 E.03053
G1 X7.064 Y129.357 E.04306
G1 X7.228 Y129.042 E.01794
G1 X7.723 Y128.577 E.03428
G1 X8.342 Y128.308 E.03407
G1 X8.954 Y128.227 E.03113
G1 X9.653 Y128.306 E.03554
G1 X9.964 Y128.438 E.01704
G1 X10.278 Y128.578 E.01736
G1 X10.706 Y128.98 E.02965
M204 S1000
G1 X11.125 Y129.004 F10800
;WIPE_START
G1 F8640
G1 X10.936 Y129.357 E-.10189
G1 X11.249 Y130.15 E-.19695
G1 X11.328 Y130.75 E-.13966
G1 X11.248 Y131.354 E-.14067
G1 X10.942 Y132.075 E-.18083
;WIPE_END
G1 E-.04 F2100
G1 Z.6 F720
G1 X66.475 Y73.275 F10800
G1 Z.2 F720
G1 E.8 F1500
M204 S800
G1 F1200
G1 X79.525 Y73.275 E.65875
G1 X79.525 Y68.775 E.22716
G1 X118.002 Y68.775 E1.94229
G1 X118.515 Y68.767 E.02589
G1 X119.044 Y68.725 E.02675
G1 X119.549 Y68.628 E.02597
G1 X120.018 Y68.575 E.02385
G1 X120.718 Y68.575 E.0353
G1 X120.354 Y68.854 E.02313
G1 X120.021 Y69.288 E.02764
G1 X119.818 Y69.502 E.01485
G1 X119.616 Y69.818 E.01895
G1 X119.475 Y70.486 E.03443
G1 X119.556 Y71.153 E.03395
G1 X119.809 Y71.765 E.03341
G1 X120.211 Y72.289 E.03334
G1 X120.735 Y72.691 E.03333
G1 X121.345 Y72.943 E.03333
G1 X122 Y73.03 E.03333
G1 X122.655 Y72.943 E.03333
G1 X123.265 Y72.691 E.03333
G1 X123.789 Y72.289 E.03333
G1 X124.191 Y71.765 E.03334
G1 X124.444 Y71.153 E.03341
G1 X124.525 Y70.486 E.03395
G1 X124.384 Y69.818 E.03443
G1 X124.182 Y69.502 E.01895
G1 X123.979 Y69.288 E.01485
G1 X123.646 Y68.854 E.02764
G1 X123.282 Y68.575 E.02313
G1 X123.982 Y68.575 E.0353
G1 X124.451 Y68.628 E.02385
G1 X124.956 Y68.725 E.02597
G1 X125.485 Y68.767 E.02675
G1 X125.998 Y68.775 E.02589
G1 X237.475 Y68.775 E5.62725
G1 X237.475 Y73.275 E.22715
G1 X247.975 Y73.275 E.53003
G1 X247.975 Y141.225 E3.43004
M73 Q0 S101
G1 X125.191 Y141.225 E6.19799
G1 X108.507 Y127.225 E1.09944
M73 P1 R101
M73 Q1 S101
G1 X11.471 Y127.227 E4.89823
G1 X11.488 Y128.267 E.05253
G1 X11.535 Y128.793 E.02667
G1 X11.625 Y129.296 E.02578
G1 X11.675 Y129.767 E.02392
G1 X11.675 Y131.733 E.09923
G1 X11.625 Y132.204 E.02392
G1 X11.535 Y132.707 E.02579
G1 X11.488 Y133.238 E.02692
G1 X10.957 Y133.285 E.02692
G1 X10.454 Y133.375 E.02579
G1 X9.983 Y133.425 E.02392
G1 X8.017 Y133.425 E.09923
G1 X7.546 Y133.375 E.02392
G1 X7.043 Y133.285 E.02579
G1 X6.512 Y133.238 E.02692
G1 X6.465 Y132.707 E.02692
G1 X6.375 Y132.204 E.02579
G1 X6.325 Y131.733 E.02392
G1 X6.325 Y129.767 E.09923
G1 X6.375 Y129.296 E.02392
G1 X6.465 Y128.793 E.02578
G1 X6.512 Y128.267 E.02667
G1 X6.529 Y127.227 E.05252
G1 X2.025 Y127.225 E.22735
G1 X2.025 Y73.275 E2.72334
G1 X5.004 Y73.275 E.15039
G1 X6.528 Y73.234 E.07694
G1 X6.421 Y72.203 E.05232
G1 X6.33 Y71.72 E.02484
G1 X6.33 Y69.278 E.12325
G1 X6.423 Y68.647 E.03221
G1 X7.019 Y68.575 E.03031
G1 X7.718 Y68.575 E.03524
G1 X7.354 Y68.854 E.02313
G1 X6.984 Y69.336 E.03068
G1 X6.752 Y69.898 E.03067
G1 X6.672 Y70.5 E.03067
G1 X6.751 Y71.1 E.03053
G1 X7.064 Y71.893 E.04306
G1 X7.228 Y72.208 E.01794
G1 X7.723 Y72.673 E.03428
G1 X8.342 Y72.942 E.03407
G1 X9 Y73.03 E.03348
G1 X9.655 Y72.943 E.03334
G1 X10.265 Y72.691 E.03333
G1 X10.789 Y72.289 E.03333
G1 X11.191 Y71.765 E.03334
G1 X11.444 Y71.153 E.03341
G1 X11.525 Y70.486 E.03395
G1 X11.384 Y69.818 E.03443
G1 X11.182 Y69.502 E.01895
G1 X10.979 Y69.288 E.01485
G1 X10.646 Y68.854 E.02764
G1 X10.282 Y68.575 E.02313
G1 X10.982 Y68.575 E.0353
G1 X11.451 Y68.628 E.02385
G1 X11.956 Y68.725 E.02597
G1 X12.485 Y68.767 E.02675
G1 X12.998 Y68.775 E.02589
G1 X66.475 Y68.775 E2.69948
G1 X66.475 Y73.185 E.22261
M204 S1000
G1 X66.76 Y73.803 F10800
;WIPE_START
G1 F8640
G1 X69.766 Y73.208 E-.76
;WIPE_END
G1 E-.04 F2100
G1 Z.6 F720
G1 X6.866 Y72.241 F10800
G1 Z.2 F720
G1 E.8 F1500
M204 S800
;TYPE:Gap fill
;WIDTH:0.159466
G1 F1200
G1 X6.774 Y72.119 E.00149
M204 S1000
M204 S800
;WIDTH:0.159468
G1 X6.746 Y72.04 E.0008
M204 S1000
M204 S800
;WIDTH:0.135284
G1 X6.745 Y72.036 E.00004
M204 S1000
M204 S800
;WIDTH:0.134132
G1 X6.715 Y71.931 E.00083
M204 S1000
;WIPE_START
G1 F8640
G1 X6.745 Y72.036 E-.02517
;WIPE_END
G1 E-.77483 F2100
G1 Z.6 F720
G1 X6.866 Y129.009 F10800
G1 Z.2 F720
M73 P1 R100
G1 E.8 F1500
M204 S800
;WIDTH:0.160252
G1 F1200
G1 X6.772 Y129.133 E.00152
M204 S1000
M204 S800
;WIDTH:0.160254
G1 X6.746 Y129.209 E.00079
M204 S1000
M204 S800
;WIDTH:0.136065
G1 X6.745 Y129.214 E.00004
M204 S1000
M204 S800
;WIDTH:0.134861
G1 X6.715 Y129.319 E.00084
M204 S1000
;WIPE_START
G1 F8640
G1 X6.745 Y129.214 E-.02533
;WIPE_END
G1 E-.77467 F2100
G1 Z.6 F720
G1 X6.702 Y132.098 F10800
G1 Z.2 F720
G1 E.8 F1500
M204 S800
;WIDTH:0.12679
G1 F1200
G1 X6.717 Y132.155 E.00041
M204 S1000
M204 S800
;WIDTH:0.164604
G1 X6.765 Y132.317 E.00171
M204 S1000
M204 S800
;WIDTH:0.168156
G1 X6.995 Y132.976 E.00726
M204 S1000
G1 X7.021 Y132.978 F10800
M204 S800
;WIDTH:0.310212
G1 F1200
G1 X6.692 Y132.101 E.02082
M204 S1000
G1 X6.67 Y132.107 F10800
M204 S800
;WIDTH:0.388525
G1 F1200
G1 X6.952 Y132.798 E.02146
M204 S1000
M204 S800
;WIDTH:0.388526
G1 X7.642 Y133.08 E.02143
M204 S1000
G1 X7.65 Y133.058 F10800
M204 S800
;WIDTH:0.310186
G1 F1200
G1 X6.772 Y132.73 E.02084
M204 S1000
G1 X6.774 Y132.755 F10800
M204 S800
;WIDTH:0.168474
G1 F1200
G1 X7.433 Y132.984 E.00728
M204 S1000
M204 S800
;WIDTH:0.164961
G1 X7.595 Y133.033 E.00171
M204 S1000
M204 S800
;WIDTH:0.12716
G1 X7.653 Y133.048 E.00042
M204 S1000
;WIPE_START
G1 F8640
G1 X7.595 Y133.033 E-.01387
;WIPE_END
G1 E-.78613 F2100
G1 Z.6 F720
G1 X10.348 Y133.048 F10800
G1 Z.2 F720
G1 E.8 F1500
M204 S800
;WIDTH:0.126756
G1 F1200
G1 X10.405 Y133.033 E.00041
M204 S1000
M204 S800
;WIDTH:0.164562
G1 X10.567 Y132.985 E.00171
M204 S1000
M204 S800
;WIDTH:0.168113
G1 X11.226 Y132.755 E.00726
M204 S1000
G1 X11.228 Y132.729 F10800
M204 S800
;WIDTH:0.310172
G1 F1200
G1 X10.351 Y133.058 E.02081
M204 S1000
G1 X10.357 Y133.08 F10800
M204 S800
;WIDTH:0.388584
G1 F1200
G1 X11.048 Y132.798 E.02146
M204 S1000
M204 S800
;WIDTH:0.388584
G1 X11.33 Y132.107 E.02146
M204 S1000
G1 X11.308 Y132.101 F10800
M204 S800
;WIDTH:0.31017
G1 F1200
G1 X10.979 Y132.978 E.02081
M204 S1000
G1 X11.005 Y132.976 F10800
M204 S800
;WIDTH:0.168109
G1 F1200
G1 X11.235 Y132.317 E.00726
M204 S1000
M204 S800
;WIDTH:0.164559
G1 X11.283 Y132.155 E.00171
M204 S1000
M204 S800
;WIDTH:0.126752
G1 X11.298 Y132.098 E.00041
M204 S1000
;WIPE_START
G1 F8640
G1 X11.283 Y132.155 E-.01356
;WIPE_END
G1 E-.78644 F2100
G1 Z.6 F720
G1 X11.285 Y129.319 F10800
G1 Z.2 F720
G1 E.8 F1500
M204 S800
;WIDTH:0.134859
G1 F1200
G1 X11.255 Y129.214 E.00084
M204 S1000
M204 S800
;WIDTH:0.136062
G1 X11.254 Y129.209 E.00004
M204 S1000
M204 S800
;WIDTH:0.160252
G1 X11.228 Y129.133 E.00079
M204 S1000
M204 S800
;WIDTH:0.160252
G1 X11.134 Y129.009 E.00152
M204 S1000
;WIPE_START
G1 F8640
G1 X11.228 Y129.133 E-.03596
;WIPE_END
G1 E-.76404 F2100
G1 Z.6 F720
G1 X247.186 Y75.294 F10800
G1 Z.2 F720
G1 E.8 F1500
M204 S800
;TYPE:Solid infill
;WIDTH:0.65137
G1 F1200
G1 X246.229 Y74.337 E.06846
G1 X245.368 Y74.337 E.04353
G1 X246.913 Y75.882 E.11049
G1 X246.913 Y76.742 E.04353
G1 X244.508 Y74.337 E.17205
G1 X243.647 Y74.337 E.04353
G1 X246.913 Y77.603 E.23362
G1 X246.913 Y78.463 E.04353
G1 X242.787 Y74.337 E.29518
G1 X241.927 Y74.337 E.04353
G1 X246.913 Y79.323 E.35675
G1 X246.913 Y80.184 E.04353
G1 X241.066 Y74.337 E.41832
G1 X240.206 Y74.337 E.04353
G1 X246.913 Y81.044 E.47988
G1 X246.913 Y81.905 E.04353
G1 X239.345 Y74.337 E.54145
G1 X238.485 Y74.337 E.04353
G1 X246.913 Y82.765 E.60302
G1 X246.913 Y83.626 E.04353
G1 X237.351 Y74.064 E.68413
M204 S1000
;WIPE_START
G1 F8640
G1 X239.678 Y76.392 E-.76
;WIPE_END
G1 E-.04 F2100
G1 Z.6 F720
G1 X235.432 Y69.564 F10800
G1 Z.2 F720
G1 E.8 F1500
M204 S800
G1 F1200
G1 X236.413 Y70.544 E.07014
G1 X236.413 Y71.405 E.04353
G1 X234.845 Y69.837 E.11216
G1 X233.985 Y69.837 E.04353
G1 X236.413 Y72.265 E.17372
G1 X236.413 Y73.126 E.04353
G1 X233.124 Y69.837 E.23529
G1 X232.264 Y69.837 E.04353
G1 X246.913 Y84.486 E1.04812
G1 X246.913 Y85.347 E.04353
G1 X231.403 Y69.837 E1.10969
G1 X230.543 Y69.837 E.04353
G1 X246.913 Y86.207 E1.17125
G1 X246.913 Y87.068 E.04353
G1 X229.682 Y69.837 E1.23282
G1 X228.822 Y69.837 E.04353
G1 X246.913 Y87.928 E1.29439
G1 X246.913 Y88.789 E.04353
G1 X227.961 Y69.837 E1.35595
G1 X227.101 Y69.837 E.04353
G1 X246.913 Y89.649 E1.41752
G1 X246.913 Y90.51 E.04353
G1 X226.24 Y69.837 E1.47909
G1 X225.38 Y69.837 E.04353
G1 X246.913 Y91.37 E1.54065
G1 X246.913 Y92.231 E.04353
G1 X224.519 Y69.837 E1.60222
G1 X223.659 Y69.837 E.04353
G1 X246.913 Y93.091 E1.66379
G1 X246.913 Y93.952 E.04353
G1 X222.798 Y69.837 E1.72535
G1 X221.938 Y69.837 E.04353
G1 X246.913 Y94.812 E1.78692
G1 X246.913 Y95.673 E.04353
G1 X221.077 Y69.837 E1.84849
G1 X220.217 Y69.837 E.04353
G1 X246.913 Y96.533 E1.91005
G1 X246.913 Y97.394 E.04353
G1 X219.356 Y69.837 E1.97162
G1 X218.496 Y69.837 E.04353
M73 Q1 S100
G1 X246.913 Y98.254 E2.03319
G1 X246.913 Y99.114 E.04353
G1 X217.635 Y69.837 E2.09475
G1 X216.775 Y69.837 E.04353
G1 X246.913 Y99.975 E2.15632
G1 X246.913 Y100.835 E.04353
G1 X215.914 Y69.837 E2.21789
G1 X215.054 Y69.837 E.04353
M73 P2 R100
M73 Q2 S100
G1 X246.913 Y101.696 E2.27945
G1 X246.913 Y102.556 E.04353
G1 X214.194 Y69.837 E2.34102
G1 X213.333 Y69.837 E.04353
G1 X246.913 Y103.417 E2.40259
G1 X246.913 Y104.277 E.04353
G1 X212.473 Y69.837 E2.46415
G1 X211.612 Y69.837 E.04353
G1 X246.913 Y105.138 E2.52572
G1 X246.913 Y105.998 E.04353
G1 X210.752 Y69.837 E2.58729
G1 X209.891 Y69.837 E.04353
G1 X246.913 Y106.859 E2.64885
G1 X246.913 Y107.719 E.04353
M73 P2 R99
G1 X209.031 Y69.837 E2.71042
G1 X208.17 Y69.837 E.04353
G1 X246.913 Y108.58 E2.77199
G1 X246.913 Y109.44 E.04353
G1 X207.31 Y69.837 E2.83356
G1 X206.449 Y69.837 E.04353
G1 X246.913 Y110.301 E2.89512
G1 X246.913 Y111.161 E.04353
G1 X205.589 Y69.837 E2.95669
G1 X204.728 Y69.837 E.04353
G1 X246.913 Y112.022 E3.01826
G1 X246.913 Y112.882 E.04353
G1 X203.868 Y69.837 E3.07982
G1 X203.007 Y69.837 E.04353
G1 X246.913 Y113.743 E3.14139
G1 X246.913 Y114.603 E.04353
G1 X202.147 Y69.837 E3.20296
G1 X201.286 Y69.837 E.04353
G1 X246.913 Y115.464 E3.26452
G1 X246.913 Y116.324 E.04353
G1 X200.426 Y69.837 E3.32609
G1 X199.565 Y69.837 E.04353
M73 Q2 S99
G1 X246.913 Y117.185 E3.38766
G1 X246.913 Y118.045 E.04353
G1 X198.705 Y69.837 E3.44922
G1 X197.844 Y69.837 E.04353
G1 X246.913 Y118.905 E3.51079
G1 X246.913 Y119.766 E.04353
M73 Q3 S99
G1 X196.984 Y69.837 E3.57236
M73 P3 R99
G1 X196.123 Y69.837 E.04353
G1 X246.913 Y120.626 E3.63392
