; generated by PrusaSlicer 2.4.2+x64 on 2023-02-06 at 02:20:42 UTC


;
;
; 

; external perimeters extrusion width = 0.65mm
; perimeters extrusion width = 0.65mm
; infill extrusion width = 0.65mm
; solid infill extrusion width = 0.65mm
; top infill extrusion width = 0.60mm
; support material extrusion width = 0.55mm
; first layer extrusion width = 0.65mm

M73 P0 R367
M73 Q0 S376
M201 X1000 Y1000 Z200 E5000 ; sets maximum accelerations, mm/sec^2
M203 X200 Y200 Z12 E120 ; sets maximum feedrates, mm / sec
M204 P1250 R1250 T1250 ; sets acceleration (P, T) and retract acceleration (R), mm/sec^2
M205 X8.00 Y8.00 Z0.40 E4.50 ; sets the jerk limits, mm/sec
M205 S0 T0 ; sets the minimum extruding and travel feed rate, mm/sec
M107
;TYPE:Custom
M862.3 P "MK3S" ; printer model check
M862.1 P0.6 ; nozzle diameter check
M115 U3.11.0 ; tell printer latest fw version
G90 ; use absolute coordinates
M83 ; extruder relative mode
M104 S215 ; set extruder temp
M140 S60 ; set bed temp
M190 S60 ; wait for bed temp
M109 S215 ; wait for extruder temp
G28 W ; home all without mesh bed level
G80 ; mesh bed leveling

G1 Z0.2 F720
G1 Y-3 F1000 ; go outside print area
G92 E0
G1 X60 E9 F1000 ; intro line
G1 X100 E12.5 F1000 ; intro line

G92 E0
M221 S95
G21 ; set units to millimeters
G90 ; use absolute coordinates
M83 ; use relative distances for extrusion
M900 K0.04 ; Filament gcode LA 1.5
M900 K18 ; Filament gcode LA 1.0
M107
;LAYER_CHANGE
;Z:0.2
;HEIGHT:0.2
;BEFORE_LAYER_CHANGE
G92 E0.0
;0.2


G1 E-.8 F2100
G1 Z.4 F720
;AFTER_LAYER_CHANGE
;0.2
; printing object PsuCorner.stl id:0 copy 0
G1 X163.675 Y43.825 F10800
G1 Z.2 F720
G1 E.8 F1500
M204 S800
;TYPE:Support material
;WIDTH:0.65
G1 F1200
G1 X163.675 Y50.655 E.34477
G1 X160.325 Y50.655 E.16911
G1 X160.325 Y43.825 E.34477
G1 X163.584 Y43.825 E.16452
M204 S1000
G1 X162.774 Y50.382 F10800
M204 S800
G1 F1200
G1 X162.774 Y44.371 E.3034
G1 X162.099 Y44.371 E.03405
G1 X162.099 Y50.109 E.28961
G1 X161.425 Y50.109 E.03405
G1 X161.425 Y44.098 E.3034
M204 S1000
;WIPE_START
G1 F8640
G1 X161.425 Y47.39 E-.76
;WIPE_END
G1 E-.04 F2100
G1 Z.6 F720
G1 X93.155 Y166.175 F10800
G1 Z.2 F720
G1 E.8 F1500
M204 S800
G1 F1200
G1 X86.325 Y166.175 E.34478
G1 X86.325 Y162.825 E.16911
G1 X93.155 Y162.825 E.34478
G1 X93.155 Y166.084 E.16451
M204 S1000
G1 X91.948 Y165.902 F10800
M204 S800
G1 F1200
G1 X91.948 Y163.371 E.12774
G1 X91.273 Y163.371 E.03405
G1 X91.273 Y165.629 E.11395
G1 X90.599 Y165.629 E.03405
G1 X90.599 Y163.371 E.11395
G1 X89.924 Y163.371 E.03405
G1 X89.924 Y165.629 E.11395
G1 X89.25 Y165.629 E.03405
G1 X89.25 Y163.371 E.11395
G1 X88.575 Y163.371 E.03405
G1 X88.575 Y165.629 E.11395
G1 X87.901 Y165.629 E.03405
G1 X87.901 Y163.371 E.11395
G1 X87.226 Y163.371 E.03405
G1 X87.226 Y165.902 E.12774
M204 S1000
;WIPE_START
G1 F8640
G1 X87.226 Y163.371 E-.58431
G1 X87.901 Y163.371 E-.15575
G1 X87.901 Y163.458 E-.01994
;WIPE_END
G1 E-.04 F2100
G1 Z.6 F720
G1 X94.525 Y165.902 F10800
G1 Z.2 F720
G1 E.8 F1500
M204 S800
;TYPE:External perimeter
G1 F1200
G1 X94.525 Y52.025 E5.74838
G1 X163.475 Y52.025 E3.48052
G1 X163.475 Y165.975 E5.75207
G1 X94.542 Y165.975 E3.47966
M204 S1000
G1 X94.633 Y165.312 F10800
G1 X95.132 Y165.368
M204 S800
;TYPE:Perimeter
G1 F1200
G1 X95.132 Y52.632 E5.69078
G1 X162.868 Y52.632 E3.41923
G1 X162.868 Y165.368 E5.69078
G1 X95.222 Y165.368 E3.41469
M204 S1000
;WIPE_START
M73 P0 R366
M73 Q0 S375
G1 F8640
G1 X95.219 Y162.076 E-.76
;WIPE_END
G1 E-.04 F2100
G1 Z.6 F720
G1 X162.686 Y54.044 F10800
G1 Z.2 F720
G1 E.8 F1500
M204 S800
;TYPE:Solid infill
;WIDTH:0.651453
G1 F1200
G1 X161.729 Y53.087 E.06849
G1 X160.868 Y53.087 E.04355
G1 X162.413 Y54.632 E.11052
G1 X162.413 Y55.492 E.04355
G1 X160.008 Y53.087 E.1721
G1 X159.147 Y53.087 E.04355
G1 X162.413 Y56.353 E.23369
G1 X162.413 Y57.214 E.04355
G1 X158.286 Y53.087 E.29527
G1 X157.426 Y53.087 E.04355
G1 X162.413 Y58.074 E.35685
G1 X162.413 Y58.935 E.04355
G1 X156.565 Y53.087 E.41844
G1 X155.705 Y53.087 E.04355
G1 X162.413 Y59.795 E.48002
G1 X162.413 Y60.656 E.04355
G1 X154.844 Y53.087 E.5416
G1 X153.983 Y53.087 E.04355
G1 X162.413 Y61.517 E.60319
G1 X162.413 Y62.377 E.04355
G1 X153.123 Y53.087 E.66477
G1 X152.262 Y53.087 E.04355
G1 X162.413 Y63.238 E.72635
G1 X162.413 Y64.098 E.04355
G1 X151.402 Y53.087 E.78794
G1 X150.541 Y53.087 E.04355
G1 X162.413 Y64.959 E.84952
G1 X162.413 Y65.82 E.04355
G1 X149.68 Y53.087 E.9111
G1 X148.82 Y53.087 E.04355
G1 X162.413 Y66.68 E.97269
G1 X162.413 Y67.541 E.04355
G1 X147.959 Y53.087 E1.03427
G1 X147.099 Y53.087 E.04355
G1 X162.413 Y68.401 E1.09585
G1 X162.413 Y69.262 E.04355
G1 X146.238 Y53.087 E1.15744
G1 X145.377 Y53.087 E.04355
G1 X162.413 Y70.123 E1.21902
G1 X162.413 Y70.983 E.04355
G1 X144.517 Y53.087 E1.2806
G1 X143.656 Y53.087 E.04355
G1 X162.413 Y71.844 E1.34219
G1 X162.413 Y72.704 E.04355
G1 X142.796 Y53.087 E1.40377
G1 X141.935 Y53.087 E.04355
G1 X162.413 Y73.565 E1.46535
G1 X162.413 Y74.426 E.04355
G1 X141.074 Y53.087 E1.52693
G1 X140.214 Y53.087 E.04355
G1 X162.413 Y75.286 E1.58852
G1 X162.413 Y76.147 E.04355
G1 X139.353 Y53.087 E1.6501
G1 X138.493 Y53.087 E.04355
G1 X162.413 Y77.007 E1.71168
G1 X162.413 Y77.868 E.04355
G1 X137.632 Y53.087 E1.77327
G1 X136.771 Y53.087 E.04355
G1 X162.413 Y78.729 E1.83485
G1 X162.413 Y79.589 E.04355
G1 X135.911 Y53.087 E1.89643
G1 X135.05 Y53.087 E.04355
G1 X162.413 Y80.45 E1.95802
G1 X162.413 Y81.31 E.04355
G1 X134.19 Y53.087 E2.0196
G1 X133.329 Y53.087 E.04355
G1 X162.413 Y82.171 E2.08118
G1 X162.413 Y83.032 E.04355
G1 X132.468 Y53.087 E2.14277
G1 X131.608 Y53.087 E.04355
G1 X162.413 Y83.892 E2.20435
G1 X162.413 Y84.753 E.04355
G1 X130.747 Y53.087 E2.26593
G1 X129.887 Y53.087 E.04355
G1 X162.413 Y85.613 E2.32752
G1 X162.413 Y86.474 E.04355
G1 X129.026 Y53.087 E2.3891
G1 X128.166 Y53.087 E.04355
G1 X162.413 Y87.334 E2.45068
G1 X162.413 Y88.195 E.04355
M73 Q0 S374
G1 X127.305 Y53.087 E2.51227
G1 X126.444 Y53.087 E.04355
M73 P0 R365
G1 X162.413 Y89.056 E2.57385
G1 X162.413 Y89.916 E.04355
G1 X125.584 Y53.087 E2.63543
G1 X124.723 Y53.087 E.04355
G1 X162.413 Y90.777 E2.69702
G1 X162.413 Y91.637 E.04355
G1 X123.863 Y53.087 E2.7586
G1 X123.002 Y53.087 E.04355
G1 X162.413 Y92.498 E2.82018
G1 X162.413 Y93.359 E.04355
G1 X122.141 Y53.087 E2.88177
G1 X121.281 Y53.087 E.04355
G1 X162.413 Y94.219 E2.94335
G1 X162.413 Y95.08 E.04355
G1 X120.42 Y53.087 E3.00493
G1 X119.56 Y53.087 E.04355
G1 X162.413 Y95.94 E3.06651
G1 X162.413 Y96.801 E.04355
G1 X118.699 Y53.087 E3.1281
G1 X117.838 Y53.087 E.04355
G1 X162.413 Y97.662 E3.18968
G1 X162.413 Y98.522 E.04355
G1 X116.978 Y53.087 E3.25126
G1 X116.117 Y53.087 E.04355
G1 X162.413 Y99.383 E3.31285
G1 X162.413 Y100.243 E.04355
G1 X115.257 Y53.087 E3.37443
G1 X114.396 Y53.087 E.04355
G1 X162.413 Y101.104 E3.43601
G1 X162.413 Y101.965 E.04355
G1 X113.535 Y53.087 E3.4976
G1 X112.675 Y53.087 E.04355
G1 X162.413 Y102.825 E3.55918
G1 X162.413 Y103.686 E.04355
G1 X111.814 Y53.087 E3.62076
G1 X110.954 Y53.087 E.04355
G1 X162.413 Y104.546 E3.68235
G1 X162.413 Y105.407 E.04355
M73 P0 R364
M73 Q0 S373
G1 X110.093 Y53.087 E3.74393
G1 X109.232 Y53.087 E.04355
G1 X162.413 Y106.268 E3.80551
G1 X162.413 Y107.128 E.04355
G1 X108.372 Y53.087 E3.8671
G1 X107.511 Y53.087 E.04355
G1 X162.413 Y107.989 E3.92868
G1 X162.413 Y108.849 E.04355
G1 X106.651 Y53.087 E3.99026
G1 X105.79 Y53.087 E.04355
G1 X162.413 Y109.71 E4.05185
G1 X162.413 Y110.571 E.04355
G1 X104.929 Y53.087 E4.11343
G1 X104.069 Y53.087 E.04355
G1 X162.413 Y111.431 E4.17501
G1 X162.413 Y112.292 E.04355
G1 X103.208 Y53.087 E4.2366
G1 X102.348 Y53.087 E.04355
G1 X162.413 Y113.152 E4.29818
G1 X162.413 Y114.013 E.04355
G1 X101.487 Y53.087 E4.35976
G1 X100.626 Y53.087 E.04355
G1 X162.413 Y114.874 E4.42135
G1 X162.413 Y115.734 E.04355
G1 X99.766 Y53.087 E4.48293
G1 X98.905 Y53.087 E.04355
G1 X162.413 Y116.595 E4.54451
G1 X162.413 Y117.455 E.04355
M73 P1 R364
M73 Q0 S372
G1 X98.045 Y53.087 E4.6061
G1 X97.184 Y53.087 E.04355
M73 P1 R363
M73 Q1 S372
G1 X162.413 Y118.316 E4.66768
G1 X162.413 Y119.177 E.04355
G1 X96.323 Y53.087 E4.72926
G1 X95.587 Y53.087 E.03725
G1 X95.587 Y53.212 E.0063
G1 X162.413 Y120.037 E4.78194
G1 X162.413 Y120.898 E.04355
G1 X95.587 Y54.072 E4.78194
G1 X95.587 Y54.933 E.04355
G1 X162.413 Y121.758 E4.78194
G1 X162.413 Y122.619 E.04355
G1 X95.587 Y55.794 E4.78194
G1 X95.587 Y56.654 E.04355
G1 X162.413 Y123.48 E4.78194
G1 X162.413 Y124.34 E.04355
G1 X95.587 Y57.515 E4.78194
G1 X95.587 Y58.375 E.04355
G1 X162.413 Y125.201 E4.78194
G1 X162.413 Y126.061 E.04355
G1 X95.587 Y59.236 E4.78194
G1 X95.587 Y60.097 E.04355
G1 X162.413 Y126.922 E4.78194
G1 X162.413 Y127.782 E.04355
G1 X95.587 Y60.957 E4.78194
G1 X95.587 Y61.818 E.04355
M73 P1 R362
M73 Q1 S371
G1 X162.413 Y128.643 E4.78194
G1 X162.413 Y129.504 E.04355
G1 X95.587 Y62.678 E4.78194
G1 X95.587 Y63.539 E.04355
G1 X162.413 Y130.364 E4.78194
G1 X162.413 Y131.225 E.04355
G1 X95.587 Y64.4 E4.78194
G1 X95.587 Y65.26 E.04355
G1 X162.413 Y132.085 E4.78194
G1 X162.413 Y132.946 E.04355
G1 X95.587 Y66.121 E4.78194
G1 X95.587 Y66.981 E.04355
G1 X162.413 Y133.807 E4.78194
G1 X162.413 Y134.667 E.04355
G1 X95.587 Y67.842 E4.78194
G1 X95.587 Y68.703 E.04355
G1 X162.413 Y135.528 E4.78194
G1 X162.413 Y136.388 E.04355
G1 X95.587 Y69.563 E4.78194
G1 X95.587 Y70.424 E.04355
G1 X162.413 Y137.249 E4.78194
G1 X162.413 Y138.11 E.04355
G1 X95.587 Y71.284 E4.78194
G1 X95.587 Y72.145 E.04355
M73 Q1 S370
G1 X162.413 Y138.97 E4.78194
G1 X162.413 Y139.831 E.04355
M73 P1 R361
G1 X95.587 Y73.006 E4.78194
G1 X95.587 Y73.866 E.04355
G1 X162.413 Y140.691 E4.78194
G1 X162.413 Y141.552 E.04355
G1 X95.587 Y74.727 E4.78194
G1 X95.587 Y75.587 E.04355
G1 X162.413 Y142.413 E4.78194
G1 X162.413 Y143.273 E.04355
G1 X95.587 Y76.448 E4.78194
G1 X95.587 Y77.309 E.04355
G1 X162.413 Y144.134 E4.78194
G1 X162.413 Y144.994 E.04355
G1 X95.587 Y78.169 E4.78194
G1 X95.587 Y79.03 E.04355
G1 X162.413 Y145.855 E4.78194
G1 X162.413 Y146.716 E.04355
G1 X95.587 Y79.89 E4.78194
G1 X95.587 Y80.751 E.04355
G1 X162.413 Y147.576 E4.78194
G1 X162.413 Y148.437 E.04355
G1 X95.587 Y81.612 E4.78194
G1 X95.587 Y82.472 E.04355
G1 X162.413 Y149.297 E4.78194
G1 X162.413 Y150.158 E.04355
M73 P1 R360
M73 Q1 S369
G1 X95.587 Y83.333 E4.78194
G1 X95.587 Y84.193 E.04355
G1 X162.413 Y151.019 E4.78194
G1 X162.413 Y151.879 E.04355
G1 X95.587 Y85.054 E4.78194
G1 X95.587 Y85.915 E.04355
G1 X162.413 Y152.74 E4.78194
G1 X162.413 Y153.6 E.04355
G1 X95.587 Y86.775 E4.78194
G1 X95.587 Y87.636 E.04355
G1 X162.413 Y154.461 E4.78194
G1 X162.413 Y155.322 E.04355
G1 X95.587 Y88.496 E4.78194
G1 X95.587 Y89.357 E.04355
G1 X162.413 Y156.182 E4.78194
G1 X162.413 Y157.043 E.04355
M73 P2 R360
G1 X95.587 Y90.217 E4.78194
G1 X95.587 Y91.078 E.04355
G1 X162.413 Y157.903 E4.78194
G1 X162.413 Y158.764 E.04355
M73 Q2 S369
G1 X95.587 Y91.939 E4.78194
G1 X95.587 Y92.799 E.04355
G1 X162.413 Y159.625 E4.78194
G1 X162.413 Y160.485 E.04355
M73 Q2 S368
G1 X95.587 Y93.66 E4.78194
G1 X95.587 Y94.52 E.04355
M73 P2 R359
G1 X162.413 Y161.346 E4.78194
G1 X162.413 Y162.206 E.04355
G1 X95.587 Y95.381 E4.78194
G1 X95.587 Y96.242 E.04355
G1 X162.413 Y163.067 E4.78194
G1 X162.413 Y163.928 E.04355
G1 X95.587 Y97.102 E4.78194
G1 X95.587 Y97.963 E.04355
G1 X162.413 Y164.788 E4.78194
G1 X162.413 Y164.913 E.0063
G1 X161.677 Y164.913 E.03724
G1 X95.587 Y98.823 E4.72926
G1 X95.587 Y99.684 E.04355
G1 X160.816 Y164.913 E4.66768
G1 X159.955 Y164.913 E.04355
G1 X95.587 Y100.545 E4.6061
G1 X95.587 Y101.405 E.04355
G1 X159.095 Y164.913 E4.54451
G1 X158.234 Y164.913 E.04355
G1 X95.587 Y102.266 E4.48293
G1 X95.587 Y103.126 E.04355
G1 X157.374 Y164.913 E4.42135
G1 X156.513 Y164.913 E.04355
G1 X95.587 Y103.987 E4.35976
G1 X95.587 Y104.848 E.04355
M73 Q2 S367
G1 X155.652 Y164.913 E4.29818
G1 X154.792 Y164.913 E.04355
M73 P2 R358
G1 X95.587 Y105.708 E4.2366
G1 X95.587 Y106.569 E.04355
G1 X153.931 Y164.913 E4.17501
G1 X153.071 Y164.913 E.04355
G1 X95.587 Y107.429 E4.11343
G1 X95.587 Y108.29 E.04355
G1 X152.21 Y164.913 E4.05185
G1 X151.349 Y164.913 E.04355
G1 X95.587 Y109.151 E3.99027
G1 X95.587 Y110.011 E.04355
G1 X150.489 Y164.913 E3.92868
G1 X149.628 Y164.913 E.04355
G1 X95.587 Y110.872 E3.8671
G1 X95.587 Y111.732 E.04355
G1 X148.768 Y164.913 E3.80552
G1 X147.907 Y164.913 E.04355
G1 X95.587 Y112.593 E3.74393
G1 X95.587 Y113.454 E.04355
G1 X147.046 Y164.913 E3.68235
G1 X146.186 Y164.913 E.04355
G1 X95.587 Y114.314 E3.62077
G1 X95.587 Y115.175 E.04355
G1 X145.325 Y164.913 E3.55918
G1 X144.465 Y164.913 E.04355
G1 X95.587 Y116.035 E3.4976
G1 X95.587 Y116.896 E.04355
G1 X143.604 Y164.913 E3.43602
G1 X142.743 Y164.913 E.04355
G1 X95.587 Y117.757 E3.37443
G1 X95.587 Y118.617 E.04355
M73 Q2 S366
G1 X141.883 Y164.913 E3.31285
G1 X141.022 Y164.913 E.04355
M73 P2 R357
G1 X95.587 Y119.478 E3.25127
G1 X95.587 Y120.338 E.04355
G1 X140.162 Y164.913 E3.18968
G1 X139.301 Y164.913 E.04355
G1 X95.587 Y121.199 E3.1281
G1 X95.587 Y122.06 E.04355
G1 X138.44 Y164.913 E3.06652
G1 X137.58 Y164.913 E.04355
G1 X95.587 Y122.92 E3.00493
G1 X95.587 Y123.781 E.04355
G1 X136.719 Y164.913 E2.94335
G1 X135.859 Y164.913 E.04355
G1 X95.587 Y124.641 E2.88177
G1 X95.587 Y125.502 E.04355
G1 X134.998 Y164.913 E2.82018
G1 X134.137 Y164.913 E.04355
G1 X95.587 Y126.363 E2.7586
G1 X95.587 Y127.223 E.04355
G1 X133.277 Y164.913 E2.69702
G1 X132.416 Y164.913 E.04355
G1 X95.587 Y128.084 E2.63543
G1 X95.587 Y128.944 E.04355
G1 X131.556 Y164.913 E2.57385
G1 X130.695 Y164.913 E.04355
G1 X95.587 Y129.805 E2.51227
G1 X95.587 Y130.665 E.04355
G1 X129.835 Y164.913 E2.45068
G1 X128.974 Y164.913 E.04355
G1 X95.587 Y131.526 E2.3891
G1 X95.587 Y132.387 E.04355
G1 X128.113 Y164.913 E2.32752
G1 X127.253 Y164.913 E.04355
G1 X95.587 Y133.247 E2.26594
G1 X95.587 Y134.108 E.04355
G1 X126.392 Y164.913 E2.20435
G1 X125.532 Y164.913 E.04355
G1 X95.587 Y134.968 E2.14277
G1 X95.587 Y135.829 E.04355
G1 X124.671 Y164.913 E2.08119
G1 X123.81 Y164.913 E.04355
G1 X95.587 Y136.69 E2.0196
G1 X95.587 Y137.55 E.04355
M73 Q2 S365
G1 X122.95 Y164.913 E1.95802
G1 X122.089 Y164.913 E.04355
M73 P2 R356
G1 X95.587 Y138.411 E1.89644
G1 X95.587 Y139.271 E.04355
G1 X121.229 Y164.913 E1.83485
G1 X120.368 Y164.913 E.04355
G1 X95.587 Y140.132 E1.77327
G1 X95.587 Y140.993 E.04355
G1 X119.507 Y164.913 E1.71169
G1 X118.647 Y164.913 E.04355
G1 X95.587 Y141.853 E1.6501
G1 X95.587 Y142.714 E.04355
G1 X117.786 Y164.913 E1.58852
G1 X116.926 Y164.913 E.04355
G1 X95.587 Y143.574 E1.52694
G1 X95.587 Y144.435 E.04355
G1 X116.065 Y164.913 E1.46535
G1 X115.204 Y164.913 E.04355
G1 X95.587 Y145.296 E1.40377
G1 X95.587 Y146.156 E.04355
G1 X114.344 Y164.913 E1.34219
G1 X113.483 Y164.913 E.04355
G1 X95.587 Y147.017 E1.2806
G1 X95.587 Y147.877 E.04355
M73 P3 R356
G1 X112.623 Y164.913 E1.21902
G1 X111.762 Y164.913 E.04355
G1 X95.587 Y148.738 E1.15744
G1 X95.587 Y149.599 E.04355
G1 X110.901 Y164.913 E1.09585
G1 X110.041 Y164.913 E.04355
G1 X95.587 Y150.459 E1.03427
G1 X95.587 Y151.32 E.04355
G1 X109.18 Y164.913 E.97269
G1 X108.32 Y164.913 E.04355
G1 X95.587 Y152.18 E.9111
G1 X95.587 Y153.041 E.04355
G1 X107.459 Y164.913 E.84952
G1 X106.598 Y164.913 E.04355
G1 X95.587 Y153.902 E.78794
G1 X95.587 Y154.762 E.04355
G1 X105.738 Y164.913 E.72636
G1 X104.877 Y164.913 E.04355
G1 X95.587 Y155.623 E.66477
G1 X95.587 Y156.483 E.04355
G1 X104.017 Y164.913 E.60319
G1 X103.156 Y164.913 E.04355
G1 X95.587 Y157.344 E.54161
G1 X95.587 Y158.205 E.04355
G1 X102.295 Y164.913 E.48002
G1 X101.435 Y164.913 E.04355
G1 X95.587 Y159.065 E.41844
G1 X95.587 Y159.926 E.04355
G1 X100.574 Y164.913 E.35686
G1 X99.714 Y164.913 E.04355
G1 X95.587 Y160.786 E.29527
G1 X95.587 Y161.647 E.04355
G1 X98.853 Y164.913 E.23369
G1 X97.992 Y164.913 E.04355
G1 X95.587 Y162.508 E.17211
G1 X95.587 Y163.368 E.04355
G1 X97.132 Y164.913 E.11052
G1 X96.271 Y164.913 E.04355
G1 X95.314 Y163.956 E.06849
M204 S1000
; stop printing object PsuCorner.stl id:0 copy 0
M106 S84.15
;LAYER_CHANGE
;Z:0.5
;HEIGHT:0.3
;BEFORE_LAYER_CHANGE
G92 E0.0
;0.5


;WIPE_START
G1 F8640
G1 X96.271 Y164.913 E-.31254
G1 X97.132 Y164.913 E-.19871
G1 X96.37 Y164.151 E-.24875
;WIPE_END
G1 E-.04 F2100
G1 Z.6 F720
;AFTER_LAYER_CHANGE
;0.5
