; generated by PrusaSlicer 2.4.2+x64 on 2023-02-08 at 02:42:45 UTC


;
;
; 

; external perimeters extrusion width = 0.65mm
; perimeters extrusion width = 0.65mm
; infill extrusion width = 0.65mm
; solid infill extrusion width = 0.65mm
; top infill extrusion width = 0.60mm
; support material extrusion width = 0.55mm
; first layer extrusion width = 0.65mm

M73 P0 R375
M73 Q0 S383
M201 X1000 Y1000 Z200 E5000 ; sets maximum accelerations, mm/sec^2
M203 X200 Y200 Z12 E120 ; sets maximum feedrates, mm / sec
M204 P1250 R1250 T1250 ; sets acceleration (P, T) and retract acceleration (R), mm/sec^2
M205 X8.00 Y8.00 Z0.40 E4.50 ; sets the jerk limits, mm/sec
M205 S0 T0 ; sets the minimum extruding and travel feed rate, mm/sec
M107
;TYPE:Custom
M862.3 P "MK3S" ; printer model check
M862.1 P0.6 ; nozzle diameter check
M115 U3.11.0 ; tell printer latest fw version
G90 ; use absolute coordinates
M83 ; extruder relative mode
M104 S230 ; set extruder temp
M140 S85 ; set bed temp
M190 S85 ; wait for bed temp
M109 S230 ; wait for extruder temp
G28 W ; home all without mesh bed level
G80 ; mesh bed leveling

G1 Z0.2 F720
G1 Y-3 F1000 ; go outside print area
G92 E0
G1 X60 E9 F1000 ; intro line
G1 X100 E12.5 F1000 ; intro line

G92 E0
M221 S95
G21 ; set units to millimeters
G90 ; use absolute coordinates
M83 ; use relative distances for extrusion
M900 K0.04 ; Filament gcode LA 1.5
M900 K24 ; Filament gcode LA 1.0
M107
;LAYER_CHANGE
;Z:0.2
;HEIGHT:0.2
;BEFORE_LAYER_CHANGE
G92 E0.0
;0.2


M73 Q0 S382
G1 E-1 F2100
G1 Z.2 F720
;AFTER_LAYER_CHANGE
;0.2
; printing object UpperCarouselHousingP1.stl id:0 copy 0
G1 Z.4
G1 X107.311 Y71.32 F10800
G1 Z.2 F720
G1 E1 F1500
M204 S800
;TYPE:Perimeter
;WIDTH:0.65
G1 F1200
G1 X108.907 Y69.181 E.13474
G1 X110.791 Y67.236 E.13671
G1 X112.909 Y65.547 E.13671
G1 X115.225 Y64.143 E.13671
G1 X117.701 Y63.047 E.1367
G1 X120.297 Y62.276 E.13671
G1 X122.971 Y61.844 E.13671
G1 X125.677 Y61.757 E.13671
G1 X128.373 Y62.017 E.13671
G1 X131.013 Y62.62 E.13671
G1 X133.555 Y63.555 E.13671
G1 X135.956 Y64.808 E.13671
G1 X138.177 Y66.357 E.13671
G1 X140.182 Y68.178 E.13671
G1 X141.937 Y70.24 E.13671
G1 X143.415 Y72.51 E.13671
G1 X144.59 Y74.95 E.13671
G1 X145.443 Y77.52 E.13671
G1 X145.961 Y80.178 E.13671
G1 X146.134 Y82.881 E.13671
G1 X145.961 Y85.584 E.13671
G1 X145.443 Y88.242 E.13671
G1 X144.59 Y90.812 E.13671
G1 X143.415 Y93.252 E.13671
G1 X141.937 Y95.522 E.13671
G1 X140.182 Y97.584 E.13671
G1 X138.177 Y99.405 E.13671
G1 X135.956 Y100.954 E.13671
G1 X133.555 Y102.207 E.13671
G1 X131.013 Y103.142 E.13671
G1 X128.373 Y103.744 E.1367
G1 X125.677 Y104.005 E.13671
G1 X122.971 Y103.918 E.13671
G1 X120.297 Y103.486 E.13671
G1 X117.701 Y102.715 E.13671
G1 X115.225 Y101.619 E.1367
G1 X112.909 Y100.215 E.13671
G1 X110.791 Y98.526 E.13671
G1 X108.907 Y96.581 E.13671
G1 X107.288 Y94.411 E.13671
G1 X105.959 Y92.051 E.13671
G1 X104.942 Y89.541 E.13671
G1 X104.255 Y86.921 E.1367
G1 X103.909 Y84.235 E.13671
G1 X103.909 Y81.527 E.13671
G1 X104.255 Y78.841 E.13671
G1 X104.942 Y76.221 E.1367
G1 X105.959 Y73.711 E.13671
G1 X107.262 Y71.396 E.13413
M204 S1000
G1 X107.797 Y71.683 F10800
M204 S800
;TYPE:External perimeter
G1 F1200
G1 X109.37 Y69.575 E.13277
G1 X111.2 Y67.686 E.13277
G1 X113.257 Y66.046 E.13277
G1 X115.506 Y64.683 E.13277
G1 X117.911 Y63.618 E.13277
G1 X120.433 Y62.87 E.13277
G1 X123.029 Y62.45 E.13277
G1 X125.658 Y62.365 E.13277
G1 X128.276 Y62.618 E.13277
G1 X130.84 Y63.203 E.13277
G1 X133.309 Y64.112 E.13277
G1 X135.641 Y65.328 E.13277
G1 X137.798 Y66.833 E.13277
G1 X139.745 Y68.601 E.13277
G1 X141.45 Y70.604 E.13277
G1 X142.885 Y72.808 E.13277
G1 X144.026 Y75.178 E.13277
G1 X144.855 Y77.674 E.13277
G1 X145.358 Y80.256 E.13277
G1 X145.526 Y82.881 E.13277
G1 X145.358 Y85.506 E.13277
G1 X144.855 Y88.088 E.13277
G1 X144.026 Y90.584 E.13277
G1 X142.885 Y92.953 E.13277
G1 X141.45 Y95.158 E.13277
G1 X139.745 Y97.161 E.13277
G1 X137.798 Y98.929 E.13277
G1 X135.641 Y100.434 E.13277
G1 X133.309 Y101.65 E.13277
G1 X130.84 Y102.559 E.13277
G1 X128.276 Y103.144 E.13277
G1 X125.658 Y103.397 E.13277
G1 X123.029 Y103.312 E.13277
G1 X120.433 Y102.892 E.13277
G1 X117.911 Y102.144 E.13277
G1 X115.506 Y101.079 E.13277
G1 X113.257 Y99.716 E.13277
G1 X111.2 Y98.076 E.13277
G1 X109.37 Y96.187 E.13277
G1 X107.797 Y94.079 E.13277
G1 X106.507 Y91.787 E.13277
G1 X105.52 Y89.349 E.13277
G1 X104.852 Y86.805 E.13277
G1 X104.516 Y84.196 E.13277
G1 X104.516 Y81.566 E.13277
G1 X104.852 Y78.957 E.13277
G1 X105.52 Y76.413 E.13277
G1 X106.507 Y73.975 E.13277
G1 X107.753 Y71.762 E.12823
M204 S1000
G1 X107.526 Y71.148 F10800
;WIPE_START
G1 F8640
G1 X109.37 Y69.575 E-.62794
G1 X110.341 Y68.573 E-.32206
;WIPE_END
G1 E-.05 F2100
G1 Z.4 F720
G1 X54.868 Y37.013 F10800
G1 Z.2 F720
G1 E1 F1500
M204 S800
;TYPE:Perimeter
G1 F1200
G1 X195.132 Y37.013 E7.08038
G1 X195.132 Y31.013 E.30287
G1 X198.868 Y31.013 E.18858
G1 X198.868 Y37.013 E.30287
G1 X228.868 Y37.013 E1.51437
G1 X228.868 Y108.727 E3.62002
M73 P0 R374
G1 X227.284 Y114.415 E.29807
G1 X225.478 Y119.778 E.28567
G1 X223.315 Y125.206 E.29493
G1 X220.774 Y130.671 E.30426
G1 X218.117 Y135.668 E.28568
G1 X215.098 Y140.671 E.29496
G1 X211.81 Y145.501 E.29493
G1 X208.146 Y150.287 E.30425
G1 X204.469 Y154.588 E.28568
G1 X200.437 Y158.818 E.29497
G1 X196.181 Y162.821 E.29496
G1 X191.713 Y166.586 E.29494
G1 X186.896 Y170.208 E.30422
G1 X182.038 Y173.455 E.29495
G1 X177.17 Y176.344 E.28575
G1 X173.586 Y178.229 E.20443
G1 X173.64 Y176.153 E.10484
G1 X173.411 Y172.106 E.20462
G1 X172.846 Y168.096 E.20439
G1 X171.951 Y164.158 E.20385
G1 X171.804 Y163.652 E.02661
G1 X170.729 Y160.299 E.17776
G1 X170.544 Y159.807 E.02655
G1 X169.192 Y156.555 E.17776
G1 X168.968 Y156.079 E.02655
G1 X167.348 Y152.952 E.17776
G1 X167.088 Y152.495 E.02655
G1 X165.211 Y149.516 E.17776
G1 X164.915 Y149.079 E.02663
G1 X162.475 Y145.866 E.20366
G1 X160.118 Y143.234 E.17832
G1 X159.759 Y142.849 E.02659
G1 X156.815 Y140.081 E.20398
G1 X153.644 Y137.562 E.20441
G1 X150.712 Y135.606 E.17795
G1 X150.274 Y135.316 E.02652
G1 X146.73 Y133.358 E.20434
G1 X143.041 Y131.704 E.20411
G1 X142.546 Y131.523 E.02658
G1 X139.214 Y130.359 E.1782
G1 X135.296 Y129.338 E.20437
G1 X131.319 Y128.65 E.20373
G1 X130.795 Y128.588 E.02663
G1 X127.286 Y128.293 E.17776
G1 X126.761 Y128.272 E.02655
G1 X123.239 Y128.272 E.17776
G1 X122.714 Y128.293 E.02655
G1 X119.205 Y128.588 E.17776
G1 X118.681 Y128.65 E.02663
G1 X114.704 Y129.338 E.20373
G1 X110.785 Y130.359 E.20441
G1 X106.965 Y131.702 E.20442
G1 X103.27 Y133.358 E.20442
G1 X99.725 Y135.316 E.2044
G1 X96.356 Y137.562 E.2044
G1 X93.185 Y140.081 E.20442
G1 X90.235 Y142.855 E.20441
G1 X87.533 Y145.857 E.20385
G1 X87.205 Y146.269 E.02661
G1 X85.084 Y149.08 E.17776
G1 X84.789 Y149.516 E.02655
G1 X82.912 Y152.495 E.17776
G1 X82.652 Y152.952 E.02655
G1 X81.032 Y156.079 E.17776
G1 X80.808 Y156.555 E.02655
G1 X79.456 Y159.807 E.17776
G1 X79.271 Y160.299 E.02655
G1 X78.049 Y164.158 E.20436
G1 X77.154 Y168.096 E.20385
G1 X76.589 Y172.106 E.20441
G1 X76.359 Y176.149 E.20441
G1 X76.414 Y178.23 E.10508
G1 X72.831 Y176.344 E.20442
G1 X67.807 Y173.357 E.29502
G1 X62.955 Y170.102 E.29495
G1 X58.288 Y166.586 E.29495
G1 X53.819 Y162.821 E.29497
G1 X49.694 Y158.946 E.28567
G1 X45.531 Y154.588 E.30424
G1 X41.737 Y150.145 E.29493
G1 X38.19 Y145.501 E.29496
G1 X34.902 Y140.671 E.29496
G1 X31.883 Y135.668 E.29496
G1 X29.141 Y130.508 E.29496
G1 X26.761 Y125.373 E.28568
G1 X24.522 Y119.778 E.30425
G1 X22.658 Y114.24 E.29492
G1 X21.132 Y108.727 E.28876
G1 X21.132 Y37.013 E3.62005
G1 X51.132 Y37.013 E1.51437
G1 X51.132 Y31.013 E.30287
G1 X54.868 Y31.013 E.18858
G1 X54.868 Y36.923 E.29833
M204 S1000
G1 X55.475 Y36.406 F10800
M204 S800
;TYPE:External perimeter
G1 F1200
G1 X194.525 Y36.406 E7.01909
G1 X194.525 Y30.406 E.30287
M73 Q0 S381
G1 X199.475 Y30.406 E.24987
G1 X199.475 Y36.406 E.30287
G1 X229.475 Y36.406 E1.51437
G1 X229.475 Y108.809 E3.65485
G1 X227.864 Y114.593 E.30307
G1 X226.048 Y119.988 E.28732
G1 X223.873 Y125.446 E.29662
G1 X221.318 Y130.942 E.30593
G1 X218.645 Y135.968 E.28733
G1 X215.609 Y140.999 E.29663
G1 X212.302 Y145.856 E.29662
G1 X208.618 Y150.669 E.30593
G1 X204.919 Y154.995 E.28733
G1 X200.865 Y159.249 E.29663
G1 X196.585 Y163.275 E.29663
G1 X192.091 Y167.061 E.29662
G1 X187.247 Y170.703 E.30592
G1 X182.362 Y173.969 E.29663
G1 X177.466 Y176.874 E.28736
G1 X173.468 Y178.977 E.22805
G1 X173.018 Y179.28 E.02737
G1 X172.945 Y179.347 E.00499
G1 X173.033 Y176.16 E.16093
G1 X172.806 Y172.166 E.20193
G1 X172.248 Y168.206 E.20185
G1 X171.363 Y164.311 E.20166
G1 X171.223 Y163.83 E.02528
G1 X170.156 Y160.499 E.17656
G1 X169.979 Y160.03 E.02526
G1 X168.636 Y156.801 E.17656
G1 X168.424 Y156.348 E.02526
G1 X166.814 Y153.242 E.17656
G1 X166.567 Y152.807 E.02526
G1 X164.702 Y149.848 E.17656
G1 X164.421 Y149.433 E.02529
G1 X162.006 Y146.253 E.20159
G1 X159.67 Y143.644 E.17676
G1 X159.328 Y143.278 E.02527
G1 X156.417 Y140.541 E.20171
G1 X153.286 Y138.053 E.20186
G1 X150.375 Y136.111 E.17663
G1 X149.959 Y135.835 E.02524
G1 X146.459 Y133.902 E.20183
G1 X142.812 Y132.267 E.20175
G1 X142.342 Y132.095 E.02527
G1 X139.037 Y130.94 E.17672
G1 X135.167 Y129.932 E.20184
G1 X131.232 Y129.251 E.20162
G1 X130.734 Y129.193 E.02529
G1 X127.249 Y128.899 E.17656
G1 X126.749 Y128.879 E.02526
G1 X123.251 Y128.879 E.17656
G1 X122.751 Y128.899 E.02526
G1 X119.266 Y129.193 E.17656
G1 X118.768 Y129.251 E.02529
G1 X114.833 Y129.932 E.20162
G1 X110.963 Y130.94 E.20186
G1 X107.19 Y132.266 E.20186
G1 X103.541 Y133.902 E.20186
G1 X100.041 Y135.835 E.20185
G1 X96.714 Y138.053 E.20185
G1 X93.583 Y140.541 E.20186
G1 X90.669 Y143.28 E.20186
G1 X87.997 Y146.249 E.20166
G1 X87.684 Y146.641 E.02528
G1 X85.578 Y149.433 E.17656
G1 X85.298 Y149.848 E.02526
G1 X83.433 Y152.807 E.17656
G1 X83.186 Y153.242 E.02526
G1 X81.576 Y156.348 E.17656
G1 X81.364 Y156.801 E.02526
G1 X80.021 Y160.03 E.17656
G1 X79.844 Y160.499 E.02526
G1 X78.637 Y164.311 E.20184
G1 X77.752 Y168.206 E.20166
G1 X77.194 Y172.166 E.20186
G1 X76.967 Y176.158 E.20186
G1 X77.054 Y179.364 E.16187
G1 X76.947 Y179.263 E.00745
G1 X76.514 Y178.969 E.02641
G1 X72.534 Y176.874 E.22704
G1 X67.483 Y173.871 E.29665
G1 X62.603 Y170.597 E.29663
G1 X57.909 Y167.061 E.29663
G1 X53.415 Y163.275 E.29664
G1 X49.267 Y159.378 E.28733
G1 X45.081 Y154.995 E.30593
G1 X41.264 Y150.527 E.29662
G1 X37.698 Y145.856 E.29663
G1 X34.391 Y140.999 E.29663
G1 X31.355 Y135.968 E.29663
G1 X28.597 Y130.778 E.29663
G1 X26.203 Y125.614 E.28734
G1 X23.952 Y119.987 E.30593
G1 X22.077 Y114.418 E.29662
G1 X20.525 Y108.81 E.29376
G1 X20.525 Y36.406 E3.65486
G1 X50.525 Y36.406 E1.51437
M73 P0 R373
G1 X50.525 Y30.406 E.30287
G1 X55.475 Y30.406 E.24987
G1 X55.475 Y36.316 E.29833
M204 S1000
G1 X55.612 Y36.99 F10800
;WIPE_START
G1 F8640
G1 X59.589 Y36.319 E-.95
;WIPE_END
G1 E-.05 F2100
G1 Z.4 F720
G1 X54.686 Y36.952 F10800
G1 Z.2 F720
G1 E1 F1500
M204 S800
;TYPE:Solid infill
;WIDTH:0.652091
G1 F1200
G1 X51.587 Y36.952 E.15694
G1 X51.587 Y36.343 E.03086
G1 X54.413 Y36.343 E.14311
G1 X54.413 Y35.734 E.03086
G1 X51.587 Y35.734 E.14311
G1 X51.587 Y35.124 E.03086
G1 X54.413 Y35.124 E.14311
G1 X54.413 Y34.515 E.03086
G1 X51.587 Y34.515 E.14311
G1 X51.587 Y33.906 E.03086
G1 X54.413 Y33.906 E.14311
G1 X54.413 Y33.297 E.03086
G1 X51.587 Y33.297 E.14311
G1 X51.587 Y32.688 E.03086
G1 X54.413 Y32.688 E.14311
G1 X54.413 Y32.079 E.03086
G1 X51.587 Y32.079 E.14311
G1 X51.587 Y31.469 E.03086
G1 X54.686 Y31.469 E.15694
M204 S1000
;WIPE_START
G1 F8640
G1 X51.587 Y31.469 E-.71544
G1 X51.587 Y32.079 E-.14066
G1 X51.994 Y32.079 E-.0939
;WIPE_END
G1 E-.05 F2100
G1 Z.4 F720
G1 X21.314 Y61.928 F10800
G1 Z.2 F720
G1 E1 F1500
M204 S800
G1 F1200
G1 X119.871 Y61.928 E4.99218
G1 X117.819 Y62.537 E.10845
G1 X21.587 Y62.537 E4.87438
G1 X21.587 Y63.146 E.03086
G1 X116.352 Y63.146 E4.80008
G1 X114.986 Y63.756 E.07576
G1 X21.587 Y63.756 E4.73089
G1 X21.587 Y64.365 E.03086
G1 X113.981 Y64.365 E4.67999
G1 X112.976 Y64.974 E.05952
G1 X21.587 Y64.974 E4.62909
G1 X21.587 Y65.583 E.03086
M73 Q0 S380
G1 X112.133 Y65.583 E4.58641
G1 X111.37 Y66.192 E.04949
G1 X21.587 Y66.192 E4.54771
G1 X21.587 Y66.801 E.03086
G1 X110.606 Y66.801 E4.50902
G1 X110.485 Y66.898 E.00784
G1 X109.988 Y67.411 E.03615
G1 X21.587 Y67.411 E4.47774
G1 X21.587 Y68.02 E.03086
G1 X109.398 Y68.02 E4.44786
G1 X108.808 Y68.629 E.04295
G1 X21.587 Y68.629 E4.41798
G1 X21.587 Y69.238 E.03086
M73 P0 R372
G1 X108.297 Y69.238 E4.39206
G1 X107.842 Y69.847 E.0385
G1 X21.587 Y69.847 E4.36904
G1 X21.587 Y70.456 E.03086
G1 X107.387 Y70.456 E4.34601
G1 X106.933 Y71.066 E.0385
G1 X21.587 Y71.066 E4.32298
G1 X21.587 Y71.675 E.03086
G1 X106.583 Y71.675 E4.30526
G1 X106.24 Y72.284 E.03541
G1 X21.587 Y72.284 E4.28788
G1 X21.587 Y72.893 E.03086
G1 X105.897 Y72.893 E4.2705
G1 X105.554 Y73.502 E.03541
M73 Q0 S379
G1 X21.587 Y73.502 E4.25312
G1 X21.587 Y74.111 E.03086
G1 X105.305 Y74.111 E4.24054
G1 X105.059 Y74.721 E.03329
G1 X21.587 Y74.721 E4.22805
G1 X21.587 Y75.33 E.03086
G1 X104.812 Y75.33 E4.21556
G1 X104.565 Y75.939 E.03329
G1 X21.587 Y75.939 E4.20307
G1 X21.587 Y76.548 E.03086
G1 X104.386 Y76.548 E4.19397
G1 X104.226 Y77.157 E.0319
G1 X21.587 Y77.157 E4.18588
G1 X21.587 Y77.766 E.03086
M73 P0 R371
G1 X104.066 Y77.766 E4.17779
G1 X103.907 Y78.376 E.0319
G1 X21.587 Y78.376 E4.1697
G1 X21.587 Y78.985 E.03086
G1 X103.778 Y78.985 E4.16317
G1 X103.699 Y79.594 E.03111
G1 X21.587 Y79.594 E4.15919
G1 X21.587 Y80.203 E.03086
M73 P1 R371
G1 X103.621 Y80.203 E4.15521
G1 X103.542 Y80.812 E.03111
M73 Q1 S379
G1 X21.587 Y80.812 E4.15123
G1 X21.587 Y81.421 E.03086
G1 X103.464 Y81.421 E4.14725
G1 X103.454 Y82.031 E.03086
G1 X21.587 Y82.031 E4.14676
G1 X21.587 Y82.64 E.03086
M73 Q1 S378
G1 X103.454 Y82.64 E4.14676
G1 X103.454 Y83.249 E.03086
G1 X21.587 Y83.249 E4.14676
G1 X21.587 Y83.858 E.03086
G1 X103.454 Y83.858 E4.14676
G1 X103.454 Y84.264 E.02057
G1 X103.48 Y84.467 E.01037
G1 X21.587 Y84.467 E4.14808
G1 X21.587 Y85.076 E.03086
G1 X103.558 Y85.077 E4.15206
G1 X103.637 Y85.686 E.03111
G1 X21.587 Y85.686 E4.15604
G1 X21.587 Y86.295 E.03086
G1 X103.716 Y86.295 E4.16002
G1 X103.794 Y86.904 E.03111
M73 P1 R370
G1 X21.587 Y86.904 E4.164
G1 X21.587 Y87.513 E.03086
G1 X103.94 Y87.513 E4.17138
G1 X104.1 Y88.122 E.0319
G1 X21.587 Y88.122 E4.17948
G1 X21.587 Y88.732 E.03086
G1 X104.259 Y88.732 E4.18757
G1 X104.419 Y89.341 E.0319
G1 X21.587 Y89.341 E4.19566
G1 X21.587 Y89.95 E.03086
G1 X104.617 Y89.95 E4.20567
G1 X104.863 Y90.559 E.03329
G1 X21.587 Y90.559 E4.21816
G1 X21.587 Y91.168 E.03086
M73 Q1 S377
G1 X105.11 Y91.168 E4.23065
G1 X105.357 Y91.777 E.03329
G1 X21.587 Y91.777 E4.24315
G1 X21.587 Y92.387 E.03086
G1 X105.625 Y92.387 E4.25674
G1 X105.968 Y92.996 E.03541
G1 X21.587 Y92.996 E4.27412
G1 X21.587 Y93.605 E.03086
G1 X106.311 Y93.605 E4.2915
G1 X106.654 Y94.214 E.03541
G1 X21.587 Y94.214 E4.30888
G1 X21.587 Y94.823 E.03086
G1 X107.027 Y94.823 E4.32777
G1 X107.482 Y95.432 E.0385
M73 P1 R369
G1 X21.587 Y95.432 E4.3508
G1 X21.587 Y96.042 E.03086
G1 X107.937 Y96.042 E4.37383
G1 X108.391 Y96.651 E.0385
G1 X21.587 Y96.651 E4.39686
G1 X21.587 Y97.26 E.03086
G1 X108.931 Y97.26 E4.4242
G1 X109.521 Y97.869 E.04295
G1 X21.587 Y97.869 E4.45408
G1 X21.587 Y98.478 E.03086
G1 X110.111 Y98.478 E4.48396
G1 X110.485 Y98.864 E.0272
G1 X110.765 Y99.087 E.01815
G1 X21.587 Y99.087 E4.51708
G1 X21.587 Y99.697 E.03086
M73 Q1 S376
G1 X111.529 Y99.697 E4.55577
G1 X112.292 Y100.306 E.04949
G1 X21.587 Y100.306 E4.59446
G1 X21.587 Y100.915 E.03086
G1 X113.185 Y100.915 E4.63969
G1 X114.19 Y101.524 E.05952
G1 X21.587 Y101.524 E4.69059
G1 X21.587 Y102.133 E.03086
G1 X115.262 Y102.133 E4.74489
G1 X116.638 Y102.742 E.07623
G1 X21.587 Y102.742 E4.81459
G1 X21.587 Y103.352 E.03086
M73 P1 R368
G1 X118.246 Y103.352 E4.89602
G1 X120.196 Y103.93 E.10302
G1 X120.384 Y103.961 E.00968
G1 X21.587 Y103.961 E5.00434
G1 X21.587 Y104.57 E.03086
G1 X228.413 Y104.57 E10.47627
G1 X228.413 Y103.961 E.03086
G1 X129.471 Y103.961 E5.01165
G1 X131.143 Y103.579 E.08685
G1 X131.762 Y103.352 E.03338
G1 X228.413 Y103.352 E4.89564
G1 X228.413 Y102.742 E.03086
M73 Q1 S375
G1 X133.417 Y102.742 E4.81179
