; generated by PrusaSlicer 2.4.2+x64 on 2022-12-30 at 17:58:45 UTC


;
;
; 

; external perimeters extrusion width = 0.65mm
; perimeters extrusion width = 0.65mm
; infill extrusion width = 0.65mm
; solid infill extrusion width = 0.65mm
; top infill extrusion width = 0.60mm
; support material extrusion width = 0.55mm
; first layer extrusion width = 0.65mm

M73 P0 R15
M73 Q0 S15
M201 X1000 Y1000 Z200 E5000 ; sets maximum accelerations, mm/sec^2
M203 X200 Y200 Z12 E120 ; sets maximum feedrates, mm / sec
M204 P1250 R1250 T1250 ; sets acceleration (P, T) and retract acceleration (R), mm/sec^2
M205 X8.00 Y8.00 Z0.40 E4.50 ; sets the jerk limits, mm/sec
M205 S0 T0 ; sets the minimum extruding and travel feed rate, mm/sec
M107
;TYPE:Custom
M862.3 P "MK3S" ; printer model check
M862.1 P0.6 ; nozzle diameter check
M115 U3.11.0 ; tell printer latest fw version
G90 ; use absolute coordinates
M83 ; extruder relative mode
M104 S215 ; set extruder temp
M140 S70 ; set bed temp
M190 S70 ; wait for bed temp
M109 S215 ; wait for extruder temp
G28 W ; home all without mesh bed level
G80 ; mesh bed leveling

G1 Z0.2 F720
G1 Y-3 F1000 ; go outside print area
G92 E0
G1 X60 E9 F1000 ; intro line
G1 X100 E12.5 F1000 ; intro line

G92 E0
M221 S95
G21 ; set units to millimeters
G90 ; use absolute coordinates
M83 ; use relative distances for extrusion
M900 K0.04 ; Filament gcode LA 1.5
M900 K18 ; Filament gcode LA 1.0
M107
;LAYER_CHANGE
;Z:0.2
;HEIGHT:0.2
;BEFORE_LAYER_CHANGE
G92 E0.0
;0.2


G1 E-.8 F2100
G1 Z.4 F720
;AFTER_LAYER_CHANGE
;0.2
G1 X100.194 Y86.738 F10800
G1 Z.2 F720
M73 P0 R14
G1 E.8 F1500
M204 S800
;TYPE:Skirt/Brim
;WIDTH:0.65
G1 F1200
G1 X101.37 Y85.561 E.08399
G1 X119.98 Y74.816 E1.08476
G1 X121.588 Y74.386 E.08399
M73 Q0 S14
G1 X128.412 Y74.386 E.34452
G1 X130.02 Y74.816 E.08399
G1 X148.63 Y85.561 E1.08476
M73 Q1 S14
G1 X149.806 Y86.738 E.08399
M73 P1 R14
G1 X153.219 Y92.648 E.34452
G1 X153.649 Y94.255 E.08399
G1 X153.649 Y115.745 E1.08476
G1 X153.219 Y117.352 E.08399
G1 X149.806 Y123.262 E.34452
G1 X148.63 Y124.439 E.08399
G1 X130.02 Y135.184 E1.08476
G1 X128.412 Y135.614 E.08399
G1 X121.588 Y135.614 E.34452
G1 X119.98 Y135.184 E.08399
G1 X101.37 Y124.439 E1.08476
G1 X100.194 Y123.262 E.08399
G1 X96.781 Y117.352 E.34452
G1 X96.351 Y115.745 E.08399
G1 X96.351 Y94.255 E1.08476
G1 X96.781 Y92.648 E.08399
G1 X100.149 Y86.816 E.33997
M204 S1000
G1 X100.674 Y87.119 F10800
M204 S800
G1 F1200
G1 X100.719 Y87.041 E.00454
G1 X101.674 Y86.087 E.06812
G1 X120.284 Y75.342 E1.08476
G1 X121.588 Y74.993 E.06812
G1 X128.412 Y74.993 E.34452
G1 X129.716 Y75.342 E.06812
M73 P2 R14
M73 Q2 S14
G1 X148.326 Y86.087 E1.08476
G1 X149.281 Y87.041 E.06812
G1 X152.693 Y92.952 E.34452
G1 X153.042 Y94.255 E.06812
G1 X153.042 Y115.745 E1.08476
G1 X152.693 Y117.048 E.06812
G1 X149.281 Y122.959 E.34452
G1 X148.326 Y123.913 E.06812
G1 X129.716 Y134.658 E1.08476
G1 X128.412 Y135.007 E.06812
G1 X121.588 Y135.007 E.34452
G1 X120.284 Y134.658 E.06812
G1 X101.674 Y123.913 E1.08476
G1 X100.719 Y122.959 E.06812
G1 X97.307 Y117.048 E.34452
G1 X96.958 Y115.745 E.06812
G1 X96.958 Y94.255 E1.08476
G1 X97.307 Y92.952 E.06812
G1 X100.629 Y87.197 E.33543
M204 S1000
;WIPE_START
G1 F8640
G1 X100.719 Y87.041 E-.04156
G1 X101.674 Y86.087 E-.31161
G1 X103.199 Y85.206 E-.40683
;WIPE_END
G1 E-.04 F2100
G1 Z.6 F720
G1 X103.127 Y89.337 F10800
G1 Z.2 F720
G1 E.8 F1500
M204 S800
G1 F1200
G1 X103.818 Y88.791 E.04448
G1 X104.471 Y88.442 E.03741
G1 X105.498 Y88.135 E.0541
G1 X106.346 Y88.051 E.04298
G1 X106.683 Y88.076 E.01708
G1 X107.205 Y87.508 E.03894
G1 X108.275 Y86.482 E.07482
G1 X109.448 Y85.486 E.07766
G1 X110.651 Y84.586 E.07587
G1 X111.901 Y83.762 E.07559
G1 X113.163 Y83.034 E.07352
G1 X114.469 Y82.378 E.0738
M73 Q3 S14
G1 X115.894 Y81.768 E.07824
G1 X117.323 Y81.258 E.07657
G1 X118.671 Y80.863 E.0709
G1 X119.501 Y80.677 E.04296
M73 P3 R14
G1 X119.649 Y80.37 E.01717
G1 X120.145 Y79.678 E.04298
G1 X120.924 Y78.943 E.05406
G1 X121.636 Y78.51 E.04208
G1 X122.335 Y78.233 E.03797
G1 X123.332 Y78.047 E.05119
G1 X126.747 Y78.053 E.17239
G1 X127.774 Y78.268 E.05297
G1 X128.602 Y78.633 E.04567
G1 X129.275 Y79.105 E.04148
G1 X129.987 Y79.835 E.05149
G1 X130.386 Y80.433 E.03629
G1 X130.5 Y80.675 E.01351
G1 X131.255 Y80.844 E.03902
G1 X132.695 Y81.263 E.07573
G1 X134.122 Y81.774 E.07649
G1 X135.462 Y82.346 E.07358
G1 X136.773 Y82.999 E.07392
G1 X138.069 Y83.744 E.07547
G1 X139.371 Y84.601 E.07869
G1 X140.629 Y85.548 E.07946
G1 X141.739 Y86.495 E.07364
G1 X142.756 Y87.468 E.07103
G1 X143.315 Y88.074 E.04165
G1 X143.582 Y88.052 E.01357
G1 X144.3 Y88.098 E.03628
G1 X145.288 Y88.35 E.05149
G1 X146.033 Y88.697 E.04147
G1 X146.774 Y89.24 E.04638
G1 X147.505 Y90.075 E.056
G1 X149.222 Y93.068 E.17416
G1 X149.496 Y93.848 E.04175
G1 X149.625 Y94.677 E.04234
G1 X149.582 Y95.64 E.04865
G1 X149.342 Y96.589 E.04945
G1 X148.992 Y97.34 E.0418
G1 X148.814 Y97.6 E.01591
G1 X149.067 Y98.41 E.04285
G1 X149.404 Y99.796 E.072
G1 X149.667 Y101.231 E.07365
G1 X149.846 Y102.697 E.07455
G1 X149.939 Y104.172 E.07457
G1 X149.942 Y105.746 E.07946
G1 X149.85 Y107.264 E.07676
G1 X149.672 Y108.734 E.07475
G1 X149.4 Y110.224 E.07647
G1 X149.047 Y111.661 E.07472
G1 X148.815 Y112.401 E.03914
G1 X148.992 Y112.66 E.01583
G1 X149.342 Y113.411 E.04181
G1 X149.582 Y114.36 E.04945
G1 X149.625 Y115.323 E.04865
G1 X149.496 Y116.152 E.04234
G1 X149.222 Y116.932 E.04175
G1 X147.507 Y119.923 E.17403
G1 X146.897 Y120.646 E.04773
G1 X146.132 Y121.241 E.04891
G1 X145.459 Y121.587 E.03824
G1 X144.496 Y121.867 E.05057
G1 X143.654 Y121.949 E.04271
G1 X143.317 Y121.924 E.01708
G1 X142.793 Y122.495 E.03912
G1 X141.724 Y123.519 E.07474
G1 X140.597 Y124.478 E.07467
G1 X139.384 Y125.39 E.07664
G1 X138.098 Y126.238 E.07775
G1 X136.834 Y126.968 E.07365
G1 X135.53 Y127.622 E.07365
G1 X134.106 Y128.232 E.07822
G1 X132.677 Y128.742 E.07657
G1 X131.329 Y129.137 E.07089
G1 X130.499 Y129.323 E.04297
G1 X130.351 Y129.629 E.01717
G1 X129.859 Y130.318 E.04271
G1 X129.135 Y131.011 E.05058
G1 X128.36 Y131.492 E.04607
G1 X127.6 Y131.786 E.04111
G1 X126.725 Y131.948 E.04494
G1 X123.327 Y131.953 E.17155
G1 X122.239 Y131.736 E.05598
G1 X121.398 Y131.367 E.04638
G1 X120.725 Y130.895 E.04148
G1 X120.013 Y130.165 E.05149
G1 X119.614 Y129.567 E.03628
G1 X119.499 Y129.324 E.01357
G1 X118.689 Y129.142 E.04193
G1 X117.32 Y128.742 E.07198
G1 X115.928 Y128.245 E.07462
G1 X114.518 Y127.645 E.07734
G1 X113.145 Y126.957 E.0775
G1 X111.833 Y126.196 E.07659
G1 X110.611 Y125.386 E.07399
G1 X109.428 Y124.498 E.07467
G1 X108.26 Y123.505 E.0774
G1 X107.218 Y122.505 E.0729
G1 X106.685 Y121.926 E.03974
G1 X106.418 Y121.948 E.01352
G1 X105.7 Y121.902 E.03629
G1 X104.712 Y121.65 E.05149
G1 X103.967 Y121.303 E.04147
G1 X103.226 Y120.76 E.04638
G1 X102.495 Y119.925 E.056
G1 X100.778 Y116.932 E.17416
G1 X100.504 Y116.152 E.04175
G1 X100.375 Y115.323 E.04234
G1 X100.418 Y114.36 E.04865
G1 X100.658 Y113.411 E.04945
G1 X101.008 Y112.66 E.0418
G1 X101.186 Y112.4 E.01591
G1 X100.933 Y111.59 E.04285
G1 X100.596 Y110.204 E.072
G1 X100.333 Y108.768 E.07367
G1 X100.148 Y107.245 E.07743
G1 X100.059 Y105.769 E.07466
G1 X100.058 Y104.25 E.0767
G1 X100.15 Y102.733 E.07669
G1 X100.326 Y101.282 E.0738
G1 X100.6 Y99.776 E.07724
G1 X100.953 Y98.339 E.07472
G1 X101.185 Y97.599 E.03914
G1 X101.008 Y97.34 E.01583
G1 X100.658 Y96.589 E.04181
G1 X100.418 Y95.64 E.04945
G1 X100.375 Y94.677 E.04865
G1 X100.504 Y93.848 E.04234
G1 X100.778 Y93.068 E.04175
G1 X102.494 Y90.076 E.17409
G1 X103.068 Y89.406 E.04455
M204 S1000
G1 X103.526 Y89.803 F10800
M204 S800
G1 F1200
G1 X103.589 Y89.73 E.00486
G1 X104.13 Y89.312 E.03451
G1 X104.677 Y89.014 E.03142
G1 X105.642 Y88.725 E.05086
G1 X106.368 Y88.659 E.03678
G1 X106.923 Y88.713 E.02816
G1 X107.632 Y87.939 E.05299
G1 X108.688 Y86.927 E.07385
G1 X109.833 Y85.955 E.07579
G1 X111.007 Y85.077 E.07401
G1 X112.228 Y84.274 E.07376
G1 X113.458 Y83.564 E.07171
G1 X114.733 Y82.925 E.07199
G1 X116.124 Y82.33 E.07638
G1 X117.502 Y81.838 E.07383
G1 X118.832 Y81.449 E.06994
G1 X119.933 Y81.202 E.05698
G1 X120.164 Y80.693 E.02822
G1 X120.585 Y80.098 E.03678
G1 X121.317 Y79.407 E.05082
G1 X121.886 Y79.063 E.03359
G1 X122.481 Y78.823 E.03236
G1 X123.361 Y78.654 E.04525
M73 Q4 S14
G1 X126.713 Y78.66 E.16921
G1 X127.615 Y78.855 E.04657
G1 X128.281 Y79.149 E.03677
M73 P4 R14
G1 X128.862 Y79.551 E.03561
G1 X129.531 Y80.237 E.04843
G1 X129.861 Y80.74 E.03034
G1 X130.062 Y81.2 E.02533
G1 X131.095 Y81.429 E.05341
G1 X132.517 Y81.844 E.07476
G1 X133.892 Y82.336 E.07373
G1 X135.216 Y82.901 E.07267
G1 X136.494 Y83.538 E.07211
G1 X137.759 Y84.265 E.07364
G1 X139.014 Y85.092 E.07587
G1 X140.242 Y86.016 E.07759
G1 X141.326 Y86.939 E.07184
G1 X142.329 Y87.899 E.07009
G1 X143.08 Y88.716 E.05603
G1 X143.579 Y88.66 E.02537
G1 X144.179 Y88.694 E.03033
G1 X145.109 Y88.931 E.04843
G1 X145.747 Y89.233 E.03562
G1 X146.342 Y89.668 E.03722
G1 X146.995 Y90.405 E.0497
G1 X148.658 Y93.295 E.16833
G1 X148.913 Y94.021 E.03883
G1 X149.02 Y94.735 E.03644
G1 X148.978 Y95.576 E.04252
G1 X148.762 Y96.407 E.04333
G1 X148.458 Y97.051 E.03591
G1 X148.142 Y97.485 E.02713
G1 X148.48 Y98.564 E.05705
G1 X148.812 Y99.931 E.07105
G1 X149.068 Y101.332 E.07186
G1 X149.243 Y102.762 E.07274
G1 X149.333 Y104.2 E.07275
G1 X149.335 Y105.719 E.07664
G1 X149.245 Y107.218 E.07581
G1 X149.07 Y108.651 E.0729
G1 X148.808 Y110.088 E.07372
G1 X148.46 Y111.507 E.07375
G1 X148.142 Y112.516 E.05337
G1 X148.458 Y112.949 E.02708
G1 X148.762 Y113.593 E.03591
G1 X148.978 Y114.424 E.04333
G1 X149.02 Y115.265 E.04252
G1 X148.913 Y115.979 E.03644
G1 X148.658 Y116.705 E.03883
G1 X146.995 Y119.595 E.16834
G1 X146.456 Y120.227 E.04194
G1 X145.826 Y120.716 E.04023
G1 X145.259 Y121.013 E.03232
G1 X144.356 Y121.275 E.04747
G1 X143.632 Y121.341 E.03667
G1 X143.077 Y121.287 E.02816
G1 X142.366 Y122.063 E.05316
G1 X141.31 Y123.075 E.07378
G1 X140.211 Y124.009 E.07284
G1 X139.042 Y124.889 E.07385
G1 X137.771 Y125.726 E.07682
G1 X136.539 Y126.438 E.07183
G1 X135.266 Y127.075 E.07184
G1 X133.876 Y127.67 E.07636
G1 X132.498 Y128.162 E.07383
G1 X131.168 Y128.551 E.06994
G1 X130.067 Y128.798 E.05698
G1 X129.836 Y129.307 E.02822
G1 X129.417 Y129.9 E.03667
G1 X128.739 Y130.55 E.04743
G1 X128.111 Y130.938 E.03721
G1 X127.46 Y131.195 E.03534
G1 X126.642 Y131.346 E.04199
G1 X123.358 Y131.346 E.16577
G1 X122.393 Y131.149 E.04971
G1 X121.719 Y130.851 E.03722
G1 X121.138 Y130.449 E.03562
G1 X120.469 Y129.763 E.04843
G1 X120.139 Y129.26 E.03034
G1 X119.938 Y128.799 E.02537
G1 X118.85 Y128.556 E.0563
G1 X117.499 Y128.161 E.07103
G1 X116.14 Y127.677 E.07281
G1 X114.765 Y127.09 E.07549
G1 X113.442 Y126.427 E.07471
G1 X112.16 Y125.685 E.07474
G1 X110.954 Y124.885 E.07306
G1 X109.8 Y124.018 E.07285
G1 X108.674 Y123.06 E.07466
G1 X107.645 Y122.074 E.07194
G1 X106.919 Y121.284 E.05414
G1 X106.421 Y121.34 E.02534
G1 X105.821 Y121.306 E.03033
G1 X104.891 Y121.069 E.04843
G1 X104.253 Y120.767 E.03562
G1 X103.658 Y120.332 E.03722
G1 X103.005 Y119.595 E.0497
G1 X101.342 Y116.705 E.16833
G1 X101.087 Y115.979 E.03883
G1 X100.98 Y115.265 E.03644
G1 X101.022 Y114.424 E.04252
G1 X101.238 Y113.593 E.04333
G1 X101.542 Y112.949 E.03591
G1 X101.858 Y112.515 E.02713
G1 X101.52 Y111.436 E.05705
G1 X101.188 Y110.069 E.07105
G1 X100.932 Y108.668 E.07188
G1 X100.752 Y107.182 E.07559
G1 X100.666 Y105.742 E.07281
G1 X100.665 Y104.277 E.07393
G1 X100.756 Y102.779 E.07576
G1 X100.927 Y101.364 E.07196
G1 X101.192 Y99.912 E.07449
G1 X101.54 Y98.493 E.07376
G1 X101.858 Y97.484 E.05337
G1 X101.542 Y97.051 E.02708
G1 X101.238 Y96.407 E.03591
G1 X101.022 Y95.576 E.04333
G1 X100.98 Y94.735 E.04252
G1 X101.087 Y94.021 E.03644
G1 X101.342 Y93.295 E.03883
G1 X103.005 Y90.405 E.16834
G1 X103.467 Y89.871 E.03566
M204 S1000
G1 X103.923 Y90.27 F10800
M204 S800
G1 F1200
G1 X104.025 Y90.154 E.00782
G1 X104.447 Y89.83 E.02683
G1 X104.884 Y89.585 E.0253
G1 X105.784 Y89.316 E.04743
G1 X106.386 Y89.266 E.03045
G1 X107.161 Y89.352 E.03938
G1 X108.059 Y88.37 E.06718
G1 X109.102 Y87.371 E.07287
G1 X110.219 Y86.425 E.07392
G1 X111.363 Y85.569 E.07214
G1 X112.554 Y84.786 E.07192
G1 X113.754 Y84.094 E.0699
G1 X114.997 Y83.472 E.07018
G1 X116.354 Y82.892 E.07453
G1 X117.681 Y82.418 E.07109
G1 X118.992 Y82.034 E.06899
G1 X120.368 Y81.727 E.07114
G1 X120.681 Y81.013 E.03941
G1 X121.025 Y80.517 E.03045
G1 X121.709 Y79.872 E.04743
G1 X122.139 Y79.615 E.0253
G1 X122.63 Y79.412 E.02683
G1 X123.391 Y79.261 E.03915
G1 X126.68 Y79.267 E.16602
G1 X127.398 Y79.423 E.03708
G1 X128.008 Y79.692 E.03366
G1 X128.489 Y80.03 E.02969
G1 X129.04 Y80.595 E.03983
G1 X129.337 Y81.048 E.02735
G1 X129.621 Y81.724 E.03703
G1 X130.934 Y82.015 E.06789
G1 X132.338 Y82.424 E.07379
G1 X133.662 Y82.898 E.07099
G1 X134.953 Y83.449 E.07085
G1 X136.215 Y84.078 E.07119
G1 X137.448 Y84.787 E.07181
M73 Q5 S14
G1 X138.657 Y85.583 E.07306
G1 X139.856 Y86.484 E.07572
G1 X140.912 Y87.384 E.07004
M73 P5 R14
G1 X141.902 Y88.331 E.06914
G1 X142.847 Y89.36 E.07051
G1 X143.575 Y89.268 E.03705
G1 X144.116 Y89.299 E.02735
G1 X144.88 Y89.494 E.03983
G1 X145.414 Y89.741 E.02969
G1 X145.957 Y90.139 E.034
G1 X146.485 Y90.735 E.04018
G1 X148.097 Y93.527 E.16274
G1 X148.317 Y94.142 E.03296
G1 X148.415 Y94.793 E.03326
G1 X148.374 Y95.509 E.03618
G1 X148.183 Y96.221 E.03722
G1 X147.925 Y96.758 E.03008
G1 X147.468 Y97.368 E.03846
G1 X147.892 Y98.717 E.07138
G1 X148.22 Y100.066 E.07009
G1 X148.469 Y101.431 E.07006
G1 X148.639 Y102.826 E.07094
G1 X148.726 Y104.229 E.07093
G1 X148.729 Y105.691 E.07383
G1 X148.639 Y107.172 E.07487
G1 X148.469 Y108.569 E.07105
G1 X148.216 Y109.952 E.07098
G1 X147.873 Y111.353 E.07279
G1 X147.469 Y112.633 E.06775
G1 X147.925 Y113.242 E.03844
G1 X148.183 Y113.779 E.03008
G1 X148.374 Y114.491 E.03722
G1 X148.415 Y115.207 E.03618
G1 X148.317 Y115.858 E.03326
G1 X148.097 Y116.473 E.03296
G1 X146.484 Y119.266 E.1628
G1 X146.017 Y119.807 E.03607
G1 X145.517 Y120.193 E.03192
G1 X145.058 Y120.439 E.02629
G1 X144.217 Y120.683 E.04421
G1 X143.614 Y120.734 E.03051
G1 X142.839 Y120.648 E.03938
G1 X141.938 Y121.632 E.06735
G1 X140.897 Y122.63 E.07281
G1 X139.825 Y123.541 E.071
G1 X138.699 Y124.387 E.07108
G1 X137.445 Y125.215 E.07588
G1 X136.243 Y125.907 E.06999
G1 X135.003 Y126.528 E.07002
G1 X133.646 Y127.108 E.07451
G1 X132.319 Y127.582 E.07109
G1 X131.008 Y127.966 E.06899
G1 X129.632 Y128.273 E.07114
G1 X129.319 Y128.987 E.03941
G1 X128.974 Y129.484 E.03051
G1 X128.342 Y130.089 E.04416
G1 X127.86 Y130.385 E.02854
G1 X127.315 Y130.605 E.02967
G1 X126.613 Y130.739 E.03611
G1 X123.389 Y130.739 E.16274
G1 X122.609 Y130.58 E.04018
G1 X121.992 Y130.308 E.034
G1 X121.511 Y129.97 E.02969
G1 X120.96 Y129.405 E.03983
G1 X120.663 Y128.952 E.02735
G1 X120.379 Y128.276 E.03705
G1 X119.01 Y127.971 E.07077
G1 X117.678 Y127.581 E.07007
G1 X116.353 Y127.108 E.07099
G1 X115.012 Y126.535 E.07364
G1 X113.738 Y125.897 E.07193
G1 X112.488 Y125.174 E.0729
G1 X111.311 Y124.395 E.07123
G1 X110.172 Y123.538 E.07193
G1 X109.087 Y122.616 E.07191
G1 X108.072 Y121.642 E.07098
G1 X107.153 Y120.64 E.06864
G1 X106.425 Y120.732 E.03704
G1 X105.884 Y120.701 E.02735
G1 X105.12 Y120.506 E.03983
G1 X104.586 Y120.259 E.02969
G1 X104.043 Y119.861 E.034
G1 X103.515 Y119.265 E.04018
G1 X101.903 Y116.473 E.16274
G1 X101.683 Y115.858 E.03296
G1 X101.585 Y115.207 E.03326
G1 X101.626 Y114.491 E.03618
G1 X101.817 Y113.779 E.03722
G1 X102.075 Y113.242 E.03008
G1 X102.532 Y112.632 E.03846
G1 X102.108 Y111.283 E.07138
G1 X101.78 Y109.934 E.07009
G1 X101.531 Y108.568 E.07007
G1 X101.356 Y107.118 E.07374
G1 X101.272 Y105.714 E.07097
G1 X101.271 Y104.305 E.07117
G1 X101.361 Y102.825 E.07483
G1 X101.529 Y101.446 E.07012
G1 X101.784 Y100.048 E.07174
G1 X102.127 Y98.647 E.07279
G1 X102.531 Y97.367 E.06775
G1 X102.075 Y96.758 E.03844
G1 X101.817 Y96.221 E.03008
G1 X101.626 Y95.509 E.03722
G1 X101.585 Y94.793 E.03618
G1 X101.683 Y94.142 E.03326
G1 X101.903 Y93.527 E.03296
G1 X103.515 Y90.735 E.16274
G1 X103.863 Y90.338 E.02667
M204 S1000
G1 X104.315 Y90.734 F10800
M204 S800
G1 F1200
G1 X104.418 Y90.617 E.00786
G1 X104.797 Y90.326 E.02412
G1 X105.146 Y90.134 E.02009
G1 X105.921 Y89.909 E.04073
