; generated by PrusaSlicer 2.4.2+x64 on 2023-02-23 at 15:52:33 UTC


;
;
; 

; external perimeters extrusion width = 0.65mm
; perimeters extrusion width = 0.65mm
; infill extrusion width = 0.65mm
; solid infill extrusion width = 0.65mm
; top infill extrusion width = 0.60mm
; support material extrusion width = 0.55mm
; first layer extrusion width = 0.65mm

M73 P0 R93
M73 Q0 S94
M201 X1000 Y1000 Z200 E5000 ; sets maximum accelerations, mm/sec^2
M203 X200 Y200 Z12 E120 ; sets maximum feedrates, mm / sec
M204 P1250 R1250 T1250 ; sets acceleration (P, T) and retract acceleration (R), mm/sec^2
M205 X8.00 Y8.00 Z0.40 E4.50 ; sets the jerk limits, mm/sec
M205 S0 T0 ; sets the minimum extruding and travel feed rate, mm/sec
M107
;TYPE:Custom
M862.3 P "MK3S" ; printer model check
M862.1 P0.6 ; nozzle diameter check
M115 U3.11.0 ; tell printer latest fw version
G90 ; use absolute coordinates
M83 ; extruder relative mode
M104 S230 ; set extruder temp
M140 S85 ; set bed temp
M190 S85 ; wait for bed temp
M109 S230 ; wait for extruder temp
G28 W ; home all without mesh bed level
G80 ; mesh bed leveling

G1 Z0.2 F720
G1 Y-3 F1000 ; go outside print area
G92 E0
G1 X60 E9 F1000 ; intro line
G1 X100 E12.5 F1000 ; intro line

G92 E0
M221 S95
G21 ; set units to millimeters
G90 ; use absolute coordinates
M83 ; use relative distances for extrusion
M900 K0.04 ; Filament gcode LA 1.5
M900 K24 ; Filament gcode LA 1.0
M107
;LAYER_CHANGE
;Z:0.2
;HEIGHT:0.2
;BEFORE_LAYER_CHANGE
G92 E0.0
;0.2


G1 E-1 F2100
G1 Z.2 F720
;AFTER_LAYER_CHANGE
;0.2
G1 Z.4
G1 X61.565 Y76.827 F10800
G1 Z.2 F720
G1 E1 F1500
M204 S800
;TYPE:Skirt/Brim
;WIDTH:0.65
G1 F1200
G1 X62.933 Y76.016 E.08031
G1 X63.838 Y75.886 E.04612
G1 X127.162 Y75.886 E3.19657
G1 X128.858 Y76.369 E.08901
M73 P0 R92
G1 X189.394 Y113.962 E3.59705
G1 X189.971 Y114.42 E.03718
G1 X190.149 Y114.597 E.0127
G1 X190.961 Y115.966 E.08031
G1 X191.09 Y116.87 E.04612
G1 X191.09 Y130.414 E.68368
G1 X190.697 Y131.956 E.08031
G1 X190.149 Y132.687 E.04612
G1 X189.971 Y132.865 E.0127
G1 X188.603 Y133.676 E.08031
G1 X187.698 Y133.806 E.04612
G1 X112.014 Y133.806 E3.82046
G1 X110.001 Y133.098 E.1077
G1 X61.825 Y94.406 E3.11911
G1 X58.577 Y91.185 E.23088
G1 X57.766 Y89.817 E.08031
G1 X57.636 Y88.912 E.04612
G1 X57.636 Y82.088 E.34452
G1 X58.03 Y80.546 E.08031
G1 X58.577 Y79.815 E.04612
G1 X61.501 Y76.891 E.20873
M204 S1000
G1 X61.93 Y77.32 F10800
M204 S800
G1 F1200
G1 X61.994 Y77.257 E.00454
G1 X63.838 Y76.493 E.10072
G1 X127.162 Y76.493 E3.19657
G1 X128.538 Y76.885 E.0722
G1 X189.074 Y114.478 E3.59705
G1 X189.542 Y114.849 E.03016
G1 X189.72 Y115.027 E.0127
G1 X190.483 Y116.87 E.10072
G1 X190.483 Y130.414 E.68368
G1 X189.72 Y132.258 E.10072
G1 X189.542 Y132.435 E.0127
G1 X187.698 Y133.199 E.10072
G1 X112.014 Y133.199 E3.82046
G1 X110.382 Y132.625 E.08736
G1 X62.205 Y93.933 E3.11911
G1 X59.007 Y90.756 E.22756
G1 X58.243 Y88.912 E.10072
G1 X58.243 Y82.088 E.34452
G1 X59.007 Y80.244 E.10072
G1 X61.867 Y77.384 E.20419
M204 S1000
;WIPE_START
G1 F8640
G1 X61.994 Y77.257 E-.04156
G1 X63.838 Y76.493 E-.46074
G1 X65.776 Y76.493 E-.4477
;WIPE_END
G1 E-.05 F2100
G1 Z.4 F720
G1 X63.608 Y80.17 F10800
G1 Z.2 F720
G1 E1 F1500
M204 S800
G1 F1200
G1 X63.782 Y80.061 E.01036
G1 X64.469 Y79.768 E.03772
G1 X65.394 Y79.566 E.04779
G1 X125.544 Y79.558 E3.03628
G1 X126.416 Y79.733 E.04487
G1 X127.227 Y80.066 E.04428
G1 X127.99 Y80.575 E.04632
G1 X128.708 Y81.299 E.05147
G1 X129.193 Y82.044 E.04485
G1 X129.524 Y82.855 E.04424
G1 X129.703 Y83.833 E.0502
G1 X129.693 Y87.276 E.17379
G1 X129.524 Y88.145 E.04466
G1 X129.179 Y88.985 E.04587
G1 X128.64 Y89.782 E.04856
G1 X127.953 Y90.455 E.04855
G1 X127.264 Y90.915 E.0418
G1 X126.48 Y91.248 E.043
G1 X125.597 Y91.436 E.04555
G1 X65.582 Y91.453 E3.02948
G1 X64.72 Y91.307 E.04414
G1 X63.879 Y90.988 E.0454
G1 X62.918 Y90.348 E.0583
G1 X62.296 Y89.703 E.04523
G1 X61.809 Y88.965 E.04466
G1 X61.486 Y88.177 E.04296
G1 X61.315 Y87.348 E.04272
G1 X61.307 Y83.724 E.18297
G1 X61.476 Y82.856 E.04464
G1 X61.814 Y82.029 E.04508
G1 X62.358 Y81.219 E.04925
G1 X63.186 Y80.434 E.05758
G1 X63.532 Y80.218 E.0206
M204 S1000
G1 X63.854 Y80.733 F10800
M204 S800
G1 F1200
G1 X64.083 Y80.589 E.01364
G1 X64.677 Y80.339 E.03256
G1 X65.489 Y80.166 E.04189
G1 X125.458 Y80.16 E3.02717
G1 X126.217 Y80.307 E.03903
G1 X126.92 Y80.591 E.0383
G1 X127.582 Y81.026 E.03998
G1 X128.254 Y81.703 E.04814
G1 X128.666 Y82.345 E.03851
G1 X128.949 Y83.052 E.03841
G1 X129.096 Y83.86 E.04149
G1 X129.091 Y87.193 E.16821
G1 X128.949 Y87.947 E.03877
G1 X128.656 Y88.676 E.03965
G1 X128.19 Y89.374 E.04234
G1 X127.591 Y89.967 E.04256
G1 X126.952 Y90.393 E.03876
G1 X126.275 Y90.676 E.03705
G1 X125.506 Y90.835 E.03966
G1 X65.609 Y90.846 E3.02349
G1 X64.856 Y90.714 E.03862
G1 X64.13 Y90.434 E.03928
G1 X63.33 Y89.901 E.04853
G1 X62.784 Y89.342 E.03945
G1 X62.357 Y88.702 E.03881
G1 X62.074 Y88.025 E.03705
G1 X61.915 Y87.255 E.03966
G1 X61.909 Y83.807 E.17407
G1 X62.051 Y83.053 E.03876
G1 X62.339 Y82.337 E.03894
G1 X62.804 Y81.633 E.04261
G1 X63.535 Y80.932 E.0511
G1 X63.777 Y80.78 E.01444
M204 S1000
G1 X64.099 Y81.295 F10800
M204 S800
G1 F1200
G1 X64.382 Y81.118 E.01687
G1 X64.881 Y80.911 E.02726
G1 X65.581 Y80.767 E.03604
G1 X125.429 Y80.767 E3.02107
G1 X126.021 Y80.882 E.03044
M73 P1 R92
M73 Q1 S94
G1 X126.619 Y81.119 E.03246
G1 X127.176 Y81.478 E.03345
G1 X127.798 Y82.106 E.04466
G1 X128.136 Y82.642 E.03199
G1 X128.373 Y83.245 E.03269
G1 X128.489 Y83.887 E.03296
G1 X128.489 Y87.113 E.1628
G1 X128.373 Y87.755 E.03296
G1 X128.132 Y88.367 E.0332
G1 X127.702 Y89.011 E.03907
G1 X127.226 Y89.481 E.03376
G1 X126.689 Y89.845 E.03276
G1 X126.07 Y90.103 E.03388
G1 X125.417 Y90.234 E.0336
G1 X65.637 Y90.239 E3.01761
G1 X64.995 Y90.123 E.03296
M73 Q1 S93
G1 X64.383 Y89.882 E.0332
G1 X63.739 Y89.452 E.03907
G1 X63.269 Y88.976 E.03376
G1 X62.905 Y88.439 E.03276
G1 X62.647 Y87.82 E.03388
G1 X62.516 Y87.167 E.03361
G1 X62.511 Y83.887 E.16555
G1 X62.627 Y83.245 E.03295
G1 X62.865 Y82.64 E.03284
G1 X63.253 Y82.043 E.03592
G1 X63.885 Y81.429 E.04446
G1 X64.023 Y81.343 E.00822
M204 S1000
G1 X64.347 Y81.854 F10800
M204 S800
G1 F1200
G1 X64.64 Y81.669 E.01749
G1 X65.085 Y81.484 E.02432
G1 X65.669 Y81.368 E.03003
G1 X125.397 Y81.374 E3.01501
G1 X125.87 Y81.47 E.02437
G1 X126.361 Y81.669 E.02676
G1 X126.813 Y81.966 E.02729
G1 X127.34 Y82.505 E.03807
G1 X127.583 Y82.894 E.02314
G1 X127.782 Y83.389 E.02693
G1 X127.882 Y83.917 E.02711
G1 X127.882 Y87.083 E.15982
G1 X127.782 Y87.611 E.02711
G1 X127.581 Y88.11 E.02716
G1 X127.252 Y88.603 E.02995
G1 X126.856 Y88.999 E.02822
G1 X126.425 Y89.298 E.0265
G1 X125.866 Y89.53 E.03053
G1 X125.333 Y89.632 E.02741
G1 X65.667 Y89.632 E3.01188
G1 X65.139 Y89.532 E.02711
G1 X64.64 Y89.331 E.02716
G1 X64.147 Y89.002 E.02995
G1 X63.751 Y88.606 E.02822
G1 X63.452 Y88.175 E.0265
G1 X63.22 Y87.616 E.03053
G1 X63.118 Y87.083 E.02741
G1 X63.118 Y83.917 E.15982
G1 X63.218 Y83.389 E.02711
G1 X63.417 Y82.894 E.02695
G1 X63.704 Y82.451 E.02664
G1 X64.271 Y81.903 E.03984
M204 S1000
G1 X64.601 Y82.411 F10800
M204 S800
G1 F1200
G1 X64.899 Y82.218 E.01793
G1 X65.29 Y82.056 E.02134
G1 X65.698 Y81.975 E.02103
G1 X125.362 Y81.981 E3.01176
G1 X125.711 Y82.057 E.01803
M73 P1 R91
G1 X126.099 Y82.217 E.02117
G1 X126.446 Y82.45 E.02111
G1 X126.879 Y82.901 E.03153
G1 X127.032 Y83.149 E.01474
G1 X127.194 Y83.54 E.02133
G1 X127.275 Y83.948 E.02103
G1 X127.275 Y87.052 E.15666
G1 X127.194 Y87.46 E.02103
G1 X127.033 Y87.849 E.02123
G1 X126.801 Y88.195 E.02103
G1 X126.446 Y88.551 E.02537
G1 X126.156 Y88.753 E.01785
G1 X125.713 Y88.942 E.02428
G1 X125.301 Y89.025 E.02121
G1 X65.698 Y89.025 E3.0087
G1 X65.29 Y88.944 E.02103
G1 X64.901 Y88.783 E.02123
G1 X64.555 Y88.551 E.02103
G1 X64.199 Y88.196 E.02537
G1 X63.997 Y87.906 E.01785
G1 X63.808 Y87.463 E.02428
G1 X63.725 Y87.051 E.02121
G1 X63.725 Y83.948 E.15665
G1 X63.806 Y83.54 E.02103
G1 X63.967 Y83.152 E.02119
G1 X64.157 Y82.855 E.0178
G1 X64.537 Y82.475 E.02713
M204 S1000
G1 X64.964 Y82.898 F10800
M204 S800
G1 F1200
G1 X65.161 Y82.767 E.01194
G1 X65.495 Y82.629 E.01822
G1 X65.728 Y82.582 E.01202
G1 X125.327 Y82.588 E3.00851
G1 X125.502 Y82.627 E.00903
G1 X125.839 Y82.767 E.01841
G1 X126.036 Y82.898 E.01194
G1 X126.385 Y83.255 E.02521
G1 X126.482 Y83.408 E.00911
G1 X126.621 Y83.745 E.01841
G1 X126.668 Y83.978 E.01202
G1 X126.668 Y87.022 E.15365
G1 X126.621 Y87.255 E.01202
G1 X126.483 Y87.589 E.01822
G1 X126.351 Y87.787 E.01202
G1 X126.034 Y88.103 E.02259
G1 X125.887 Y88.208 E.00912
G1 X125.504 Y88.372 E.02103
G1 X125.272 Y88.418 E.01193
G1 X65.728 Y88.418 E3.0057
G1 X65.495 Y88.371 E.01202
G1 X65.161 Y88.233 E.01822
G1 X64.963 Y88.101 E.01202
G1 X64.647 Y87.784 E.02259
G1 X64.542 Y87.637 E.00912
G1 X64.378 Y87.254 E.02103
G1 X64.332 Y87.022 E.01193
G1 X64.332 Y83.978 E.15365
G1 X64.379 Y83.745 E.01202
G1 X64.518 Y83.408 E.01841
G1 X64.615 Y83.255 E.00911
G1 X64.901 Y82.963 E.02067
M204 S1000
G1 X65.33 Y83.391 F10800
M204 S800
G1 F1200
G1 X65.421 Y83.316 E.00595
G1 X65.758 Y83.189 E.01818
G1 X125.242 Y83.189 E3.00269
G1 X125.629 Y83.35 E.02113
G1 X125.9 Y83.621 E.01939
G1 X126.049 Y83.949 E.01818
G1 X126.061 Y86.992 E.1536
G1 X125.9 Y87.379 E.02113
G1 X125.579 Y87.684 E.02236
G1 X125.242 Y87.811 E.01818
G1 X65.758 Y87.811 E3.00269
G1 X65.371 Y87.65 E.02113
G1 X65.066 Y87.329 E.02236
G1 X64.939 Y86.992 E.01818
G1 X64.939 Y84.008 E.15064
G1 X65.066 Y83.671 E.01818
G1 X65.266 Y83.455 E.01486
M204 S1000
G1 X65.695 Y83.884 F10800
M204 S800
G1 F1200
G1 X65.737 Y83.843 E.00294
G1 X65.848 Y83.796 E.0061
G1 X125.152 Y83.796 E2.99358
G1 X125.263 Y83.843 E.0061
G1 X125.407 Y83.987 E.01028
G1 X125.454 Y84.098 E.0061
G1 X125.454 Y86.902 E.14152
G1 X125.407 Y87.013 E.0061
G1 X125.263 Y87.157 E.01028
G1 X125.152 Y87.204 E.0061
G1 X65.848 Y87.204 E2.99358
G1 X65.737 Y87.157 E.0061
G1 X65.593 Y87.013 E.01028
G1 X65.546 Y86.902 E.0061
G1 X65.546 Y84.098 E.14152
G1 X65.593 Y83.987 E.0061
G1 X65.632 Y83.948 E.00279
M204 S1000
; printing object Rigidity Bracket v2.stl id:0 copy 0
;WIPE_START
G1 F8640
G1 X65.737 Y83.843 E-.03425
G1 X65.848 Y83.796 E-.02788
G1 X69.693 Y83.796 E-.88787
;WIPE_END
G1 E-.05 F2100
G1 Z.4 F720
G1 X132.889 Y89.654 F10800
G1 Z.2 F720
G1 E1 F1500
M204 S800
;TYPE:Support material
G1 F1200
G1 X135.375 Y89.654 E.12547
G1 X135.375 Y94.625 E.25094
G1 X137.86 Y94.625 E.12547
G1 X137.86 Y99.597 E.25094
G1 X140.346 Y99.597 E.12547
G1 X140.346 Y107.054 E.37641
G1 X142.831 Y107.054 E.12547
G1 X142.831 Y112.025 E.25094
G1 X145.317 Y112.025 E.12547
G1 X145.317 Y116.996 E.25094
G1 X187.573 Y116.996 E2.13301
G1 X187.573 Y130.288 E.67098
G1 X112.14 Y130.288 E3.80776
G1 X112.14 Y92.425 E1.9113
G1 X125.281 Y92.425 E.66335
G1 X127.269 Y92.042 E.1022
G1 X129.06 Y90.871 E.10799
G1 X130.26 Y89.099 E.10806
G1 X130.648 Y87.169 E.09938
G1 X132.889 Y87.169 E.11314
G1 X132.889 Y89.563 E.12087
M204 S1000
;WIPE_START
G1 F8640
G1 X132.889 Y87.169 E-.55291
G1 X131.169 Y87.169 E-.39709
;WIPE_END
G1 E-.05 F2100
G1 Z.4 F720
G1 X186.382 Y130.015 F10800
G1 Z.2 F720
G1 E1 F1500
M204 S800
G1 F1200
G1 X186.382 Y117.542 E.62961
G1 X185.708 Y117.542 E.03405
G1 X185.708 Y129.742 E.61582
G1 X185.033 Y129.742 E.03405
G1 X185.033 Y117.542 E.61582
G1 X184.359 Y117.542 E.03405
G1 X184.359 Y129.742 E.61582
G1 X183.684 Y129.742 E.03405
G1 X183.684 Y117.542 E.61582
G1 X183.01 Y117.542 E.03405
M73 P2 R91
G1 X183.01 Y129.742 E.61582
G1 X182.335 Y129.742 E.03405
G1 X182.335 Y117.542 E.61582
G1 X181.661 Y117.542 E.03405
M73 Q2 S93
G1 X181.661 Y129.742 E.61582
G1 X180.986 Y129.742 E.03405
G1 X180.986 Y117.542 E.61582
G1 X180.312 Y117.542 E.03405
G1 X180.312 Y129.742 E.61582
G1 X179.637 Y129.742 E.03405
G1 X179.637 Y117.542 E.61582
G1 X178.963 Y117.542 E.03405
G1 X178.963 Y129.742 E.61582
G1 X178.288 Y129.742 E.03405
G1 X178.288 Y117.542 E.61582
G1 X177.613 Y117.542 E.03405
G1 X177.613 Y129.742 E.61582
G1 X176.939 Y129.742 E.03405
G1 X176.939 Y117.542 E.61582
G1 X176.264 Y117.542 E.03405
M73 Q2 S92
G1 X176.264 Y129.742 E.61582
G1 X175.59 Y129.742 E.03405
G1 X175.59 Y117.542 E.61582
G1 X174.915 Y117.542 E.03405
G1 X174.915 Y129.742 E.61582
G1 X174.241 Y129.742 E.03405
G1 X174.241 Y117.542 E.61582
G1 X173.566 Y117.542 E.03405
G1 X173.566 Y129.742 E.61582
G1 X172.892 Y129.742 E.03405
G1 X172.892 Y117.542 E.61582
G1 X172.217 Y117.542 E.03405
G1 X172.217 Y129.742 E.61582
G1 X171.543 Y129.742 E.03405
G1 X171.543 Y117.542 E.61582
G1 X170.868 Y117.542 E.03405
G1 X170.868 Y129.742 E.61582
G1 X170.194 Y129.742 E.03405
G1 X170.194 Y117.542 E.61582
G1 X169.519 Y117.542 E.03405
G1 X169.519 Y129.742 E.61582
G1 X168.845 Y129.742 E.03405
G1 X168.845 Y117.542 E.61582
G1 X168.17 Y117.542 E.03405
G1 X168.17 Y129.742 E.61582
G1 X167.496 Y129.742 E.03405
G1 X167.496 Y117.542 E.61582
G1 X166.821 Y117.542 E.03405
G1 X166.821 Y129.742 E.61582
G1 X166.146 Y129.742 E.03405
G1 X166.146 Y117.542 E.61582
G1 X165.472 Y117.542 E.03405
G1 X165.472 Y129.742 E.61582
G1 X164.797 Y129.742 E.03405
M73 P2 R90
G1 X164.797 Y117.542 E.61582
G1 X164.123 Y117.542 E.03405
G1 X164.123 Y129.742 E.61582
G1 X163.448 Y129.742 E.03405
G1 X163.448 Y117.542 E.61582
G1 X162.774 Y117.542 E.03405
G1 X162.774 Y129.742 E.61582
G1 X162.099 Y129.742 E.03405
G1 X162.099 Y117.542 E.61582
G1 X161.425 Y117.542 E.03405
G1 X161.425 Y129.742 E.61582
G1 X160.75 Y129.742 E.03405
G1 X160.75 Y117.542 E.61582
G1 X160.076 Y117.542 E.03405
G1 X160.076 Y129.742 E.61582
G1 X159.401 Y129.742 E.03405
G1 X159.401 Y117.542 E.61582
G1 X158.727 Y117.542 E.03405
G1 X158.727 Y129.742 E.61582
G1 X158.052 Y129.742 E.03405
G1 X158.052 Y117.542 E.61582
G1 X157.378 Y117.542 E.03405
G1 X157.378 Y129.742 E.61582
G1 X156.703 Y129.742 E.03405
G1 X156.703 Y117.542 E.61582
G1 X156.028 Y117.542 E.03405
G1 X156.028 Y129.742 E.61582
G1 X155.354 Y129.742 E.03405
G1 X155.354 Y117.542 E.61582
G1 X154.679 Y117.542 E.03405
G1 X154.679 Y129.742 E.61582
G1 X154.005 Y129.742 E.03405
G1 X154.005 Y117.542 E.61582
G1 X153.33 Y117.542 E.03405
G1 X153.33 Y129.742 E.61582
G1 X152.656 Y129.742 E.03405
G1 X152.656 Y117.542 E.61582
G1 X151.981 Y117.542 E.03405
G1 X151.981 Y129.742 E.61582
G1 X151.307 Y129.742 E.03405
G1 X151.307 Y117.542 E.61582
G1 X150.632 Y117.542 E.03405
G1 X150.632 Y129.742 E.61582
G1 X149.958 Y129.742 E.03405
G1 X149.958 Y117.542 E.61582
G1 X149.283 Y117.542 E.03405
G1 X149.283 Y129.742 E.61582
G1 X148.609 Y129.742 E.03405
G1 X148.609 Y117.542 E.61582
G1 X147.934 Y117.542 E.03405
G1 X147.934 Y129.742 E.61582
G1 X147.26 Y129.742 E.03405
G1 X147.26 Y117.542 E.61582
G1 X146.585 Y117.542 E.03405
G1 X146.585 Y129.742 E.61582
G1 X145.91 Y129.742 E.03405
G1 X145.91 Y117.542 E.61582
G1 X145.236 Y117.542 E.03405
G1 X145.236 Y129.742 E.61582
G1 X144.561 Y129.742 E.03405
G1 X144.561 Y112.571 E.86676
G1 X143.887 Y112.571 E.03405
G1 X143.887 Y129.742 E.86676
G1 X143.212 Y129.742 E.03405
G1 X143.212 Y112.571 E.86676
G1 X142.538 Y112.571 E.03405
G1 X142.538 Y129.742 E.86676
G1 X141.863 Y129.742 E.03405
G1 X141.863 Y107.6 E1.1177
G1 X141.189 Y107.6 E.03405
G1 X141.189 Y129.742 E1.1177
G1 X140.514 Y129.742 E.03405
G1 X140.514 Y107.6 E1.1177
G1 X139.84 Y107.6 E.03405
G1 X139.84 Y129.742 E1.1177
G1 X139.165 Y129.742 E.03405
G1 X139.165 Y100.143 E1.49412
G1 X138.491 Y100.143 E.03405
G1 X138.491 Y129.742 E1.49412
G1 X137.816 Y129.742 E.03405
G1 X137.816 Y100.143 E1.49412
G1 X137.314 Y100.143 E.02535
G1 X137.314 Y95.172 E.25094
G1 X137.142 Y95.172 E.00869
G1 X137.142 Y129.742 E1.74506
G1 X136.467 Y129.742 E.03405
G1 X136.467 Y95.172 E1.74506
G1 X135.793 Y95.172 E.03405
G1 X135.793 Y129.742 E1.74506
G1 X135.118 Y129.742 E.03405
M73 P3 R90
G1 X135.118 Y95.172 E1.74506
G1 X134.828 Y95.172 E.01463
G1 X134.828 Y90.201 E.25094
G1 X134.443 Y90.201 E.01942
M73 Q3 S92
G1 X134.443 Y129.742 E1.996
G1 X133.769 Y129.742 E.03405
G1 X133.769 Y90.201 E1.996
G1 X133.094 Y90.201 E.03405
G1 X133.094 Y129.742 E1.996
G1 X132.42 Y129.742 E.03405
G1 X132.42 Y90.201 E1.996
G1 X132.343 Y90.201 E.0039
M73 Q3 S91
G1 X132.343 Y87.715 E.12547
G1 X131.745 Y87.715 E.03015
G1 X131.745 Y129.742 E2.12147
G1 X131.071 Y129.742 E.03405
G1 X131.071 Y87.836 E2.11537
G1 X130.774 Y89.314 E.0761
